;Toolpath Name = Hattori surfacing with 6mm bit
;Tool Name   = 6mm - Single flute - Wood - Hattori
$H					;run GRBL homing cycle
G92 X-23.5 Y-2.5 Z0;set the difference between homing location and where we want X and Y home position to be
G0 X-16 Z-5		;quickly jog to a good position to start probing. X is important, Z negative is just to save some time
G38.2 F200 Z-50	;start probing downwards
G92 Z0				;make probe surface Z zero
G0 Z1				;move up 1 mm
G38.2 F50 Z-5		;probe again with extra slow speed for maximum precision
G92 Z0				;make probe surface Z zero again
G0 Z6.7			;move to the height of the bed
G92 Z-1.000	;set the top of material to be Z zero. Current postion (bed height) minus material thickness
G0 F1500 Z10.000		;jog to safe Z height
M3 S24000			;start spindle and set spindle speed
G4 P5				;wait five seconds for spindle to reach full speed
G0 X148.592 Y0.960 Z6.000
G1 F1500 X148.592 Y0.960 Z-1.000
G1 F1500 X148.592 Y219.040 Z-1.000
G1 F1500 X143.792 Y219.040 Z-1.000
G1 F1500 X143.792 Y0.960 Z-1.000
G1 F1500 X138.992 Y0.960 Z-1.000
G1 F1500 X138.992 Y219.040 Z-1.000
G1 F1500 X134.192 Y219.040 Z-1.000
G1 F1500 X134.192 Y0.960 Z-1.000
G1 F1500 X129.392 Y0.960 Z-1.000
G1 F1500 X129.392 Y219.040 Z-1.000
G1 F1500 X124.592 Y219.040 Z-1.000
G1 F1500 X124.592 Y0.960 Z-1.000
G1 F1500 X119.792 Y0.960 Z-1.000
G1 F1500 X119.792 Y219.040 Z-1.000
G1 F1500 X114.992 Y219.040 Z-1.000
G1 F1500 X114.992 Y0.960 Z-1.000
G1 F1500 X110.192 Y0.960 Z-1.000
G1 F1500 X110.192 Y219.040 Z-1.000
G1 F1500 X105.392 Y219.040 Z-1.000
G1 F1500 X105.392 Y0.960 Z-1.000
G1 F1500 X100.592 Y0.960 Z-1.000
G1 F1500 X100.592 Y219.040 Z-1.000
G1 F1500 X95.792 Y219.040 Z-1.000
G1 F1500 X95.792 Y0.960 Z-1.000
G1 F1500 X90.992 Y0.960 Z-1.000
G1 F1500 X90.992 Y219.040 Z-1.000
G1 F1500 X86.192 Y219.040 Z-1.000
G1 F1500 X86.192 Y0.960 Z-1.000
G1 F1500 X81.392 Y0.960 Z-1.000
G1 F1500 X81.392 Y219.040 Z-1.000
G1 F1500 X76.592 Y219.040 Z-1.000
G1 F1500 X76.592 Y0.960 Z-1.000
G1 F1500 X71.792 Y0.960 Z-1.000
G1 F1500 X71.792 Y219.040 Z-1.000
G1 F1500 X66.992 Y219.040 Z-1.000
G1 F1500 X66.992 Y0.960 Z-1.000
G1 F1500 X62.192 Y0.960 Z-1.000
G1 F1500 X62.192 Y219.040 Z-1.000
G1 F1500 X57.392 Y219.040 Z-1.000
G1 F1500 X57.392 Y0.960 Z-1.000
G1 F1500 X52.592 Y0.960 Z-1.000
G1 F1500 X52.592 Y219.040 Z-1.000
G1 F1500 X47.792 Y219.040 Z-1.000
G1 F1500 X47.792 Y0.960 Z-1.000
G1 F1500 X42.992 Y0.960 Z-1.000
G1 F1500 X42.992 Y219.040 Z-1.000
G1 F1500 X38.192 Y219.040 Z-1.000
G1 F1500 X38.192 Y0.960 Z-1.000
G1 F1500 X33.392 Y0.960 Z-1.000
G1 F1500 X33.392 Y219.040 Z-1.000
G1 F1500 X28.592 Y219.040 Z-1.000
G1 F1500 X28.592 Y0.960 Z-1.000
G1 F1500 X23.792 Y0.960 Z-1.000
G1 F1500 X23.792 Y219.040 Z-1.000
G1 F1500 X18.992 Y219.040 Z-1.000
G1 F1500 X18.992 Y0.960 Z-1.000
G1 F1500 X14.192 Y0.960 Z-1.000
G1 F1500 X14.192 Y219.040 Z-1.000
G1 F1500 X9.392 Y219.040 Z-1.000
G1 F1500 X9.392 Y0.960 Z-1.000
G1 F1500 X4.592 Y0.960 Z-1.000
G1 F1500 X4.592 Y219.040 Z-1.000
G0 X4.592 Y219.040 Z6.000
G0 X0.000 Y220.000 Z6.000
G1 F1500 X0.000 Y220.000 Z-1.000
G1 F1500 X150.000 Y220.000 Z-1.000
G1 F1500 X150.000 Y0.000 Z-1.000
G1 F1500 X0.000 Y0.000 Z-1.000
G1 F1500 X0.000 Y220.000 Z-1.000
G0 X0.000 Y220.000 Z6.000
G0 Z10.000
G0 X75 Y210
M5	;turn off spindle
