;Toolpath Name = PCB engrave 2
;Tool Name   = PCB engrave End Mill (1 mm)
$H					;run GRBL homing cycle
G92 X-23.5 Y-2.5 Z0;set the difference between homing location and where we want X and Y home position to be
G0 X-16 Z-5		;quickly jog to a good position to start probing. X is important, Z negative is just to save some time
G38.2 F200 Z-50	;start probing downwards
G92 Z0				;make probe surface Z zero
G0 Z1				;move up 1 mm
G38.2 F50 Z-5		;probe again with extra slow speed for maximum precision
G92 Z0				;make probe surface Z zero again
G0 Z6.7			;move to the height of the bed
G92 Z-1.800	;set the top of material to be Z zero. Current postion (bed height) minus material thickness
G0 F240 Z20.000		;jog to safe Z height
M3 S24000			;start spindle and set spindle speed
G4 P5				;wait five seconds for spindle to reach full speed
G0 X5.808 Y20.271 Z6.000
G1 F240 X5.808 Y20.271 Z0.000
G1 F240 X5.888 Y20.271 Z-0.001
G1 F240 X5.919 Y20.357 Z-0.002
G1 F240 X6.161 Y20.644 Z-0.006
G1 F240 X6.400 Y20.782 Z-0.010
G1 F240 X6.400 Y21.391 Z-0.017
G1 F240 X6.161 Y21.529 Z-0.020
G1 F240 X5.919 Y21.816 Z-0.024
G1 F240 X5.888 Y21.903 Z-0.026
G1 F240 X5.808 Y21.903 Z-0.026
G1 F240 X5.901 Y21.690 Z-0.029
G1 F240 X6.224 Y21.380 Z-0.034
G1 F240 X6.241 Y21.357 Z-0.035
G1 F240 X6.247 Y21.351 Z-0.035
G1 F240 X6.301 Y21.274 Z-0.036
G1 F240 X6.313 Y21.232 Z-0.036
G1 F240 X6.318 Y21.222 Z-0.037
G1 F240 X6.342 Y21.128 Z-0.038
G1 F240 X6.339 Y21.087 Z-0.038
G1 F240 X6.340 Y21.079 Z-0.038
G1 F240 X6.332 Y20.983 Z-0.039
G1 F240 X6.313 Y20.941 Z-0.040
G1 F240 X6.310 Y20.930 Z-0.040
G1 F240 X6.270 Y20.846 Z-0.041
G1 F240 X6.241 Y20.816 Z-0.042
G1 F240 X6.224 Y20.793 Z-0.042
G1 F240 X5.901 Y20.483 Z-0.047
G1 F240 X5.808 Y20.271 Z-0.050
G1 F240 X5.901 Y20.483 Z-0.053
G1 F240 X6.224 Y20.793 Z-0.058
G1 F240 X6.241 Y20.816 Z-0.058
G1 F240 X6.270 Y20.846 Z-0.059
G1 F240 X6.310 Y20.930 Z-0.060
G1 F240 X6.313 Y20.941 Z-0.060
G1 F240 X6.332 Y20.983 Z-0.061
G1 F240 X6.340 Y21.079 Z-0.062
G1 F240 X6.339 Y21.087 Z-0.062
G1 F240 X6.342 Y21.128 Z-0.062
G1 F240 X6.318 Y21.222 Z-0.063
G1 F240 X6.313 Y21.232 Z-0.064
G1 F240 X6.301 Y21.274 Z-0.064
G1 F240 X6.247 Y21.351 Z-0.065
G1 F240 X6.241 Y21.357 Z-0.065
G1 F240 X6.224 Y21.380 Z-0.066
G1 F240 X5.901 Y21.690 Z-0.071
G1 F240 X5.808 Y21.903 Z-0.074
G1 F240 X5.888 Y21.903 Z-0.074
G1 F240 X5.919 Y21.816 Z-0.076
G1 F240 X6.161 Y21.529 Z-0.080
G1 F240 X6.400 Y21.391 Z-0.083
G1 F240 X6.400 Y20.782 Z-0.090
G1 F240 X6.161 Y20.644 Z-0.094
G1 F240 X5.919 Y20.357 Z-0.098
G1 F240 X5.888 Y20.271 Z-0.099
G1 F240 X5.808 Y20.271 Z-0.100
G1 F240 X5.888 Y20.271 Z-0.100
G1 F240 X5.919 Y20.357 Z-0.100
G1 F240 X6.161 Y20.644 Z-0.100
G1 F240 X6.400 Y20.782 Z-0.100
G1 F240 X6.400 Y21.391 Z-0.100
G1 F240 X6.161 Y21.529 Z-0.100
G1 F240 X5.919 Y21.816 Z-0.100
G1 F240 X5.888 Y21.903 Z-0.100
G1 F240 X5.808 Y21.903 Z-0.100
G1 F240 X5.901 Y21.690 Z-0.100
G1 F240 X6.224 Y21.380 Z-0.100
G1 F240 X6.241 Y21.357 Z-0.100
G1 F240 X6.247 Y21.351 Z-0.100
G1 F240 X6.301 Y21.274 Z-0.100
G1 F240 X6.313 Y21.232 Z-0.100
G1 F240 X6.318 Y21.222 Z-0.100
G1 F240 X6.342 Y21.128 Z-0.100
G1 F240 X6.339 Y21.087 Z-0.100
G1 F240 X6.340 Y21.079 Z-0.100
G1 F240 X6.332 Y20.983 Z-0.100
G1 F240 X6.313 Y20.941 Z-0.100
G1 F240 X6.310 Y20.930 Z-0.100
G1 F240 X6.270 Y20.846 Z-0.100
G1 F240 X6.241 Y20.816 Z-0.100
G1 F240 X6.224 Y20.793 Z-0.100
G1 F240 X5.901 Y20.483 Z-0.100
G1 F240 X5.808 Y20.271 Z-0.100
G0 X5.808 Y20.271 Z6.000
G0 X5.808 Y22.811 Z6.000
G1 F240 X5.808 Y22.811 Z0.000
G1 F240 X5.888 Y22.811 Z-0.001
G1 F240 X5.919 Y22.897 Z-0.002
G1 F240 X6.161 Y23.184 Z-0.006
G1 F240 X6.400 Y23.322 Z-0.010
G1 F240 X6.400 Y23.931 Z-0.017
G1 F240 X6.161 Y24.069 Z-0.020
G1 F240 X5.919 Y24.356 Z-0.024
G1 F240 X5.888 Y24.443 Z-0.026
G1 F240 X5.808 Y24.443 Z-0.026
G1 F240 X5.901 Y24.230 Z-0.029
G1 F240 X6.224 Y23.920 Z-0.034
G1 F240 X6.241 Y23.897 Z-0.035
G1 F240 X6.247 Y23.891 Z-0.035
G1 F240 X6.301 Y23.814 Z-0.036
G1 F240 X6.313 Y23.772 Z-0.036
G1 F240 X6.318 Y23.762 Z-0.037
G1 F240 X6.342 Y23.668 Z-0.038
G1 F240 X6.339 Y23.627 Z-0.038
G1 F240 X6.342 Y23.585 Z-0.039
G1 F240 X6.318 Y23.491 Z-0.040
G1 F240 X6.313 Y23.481 Z-0.040
G1 F240 X6.310 Y23.470 Z-0.040
G1 F240 X6.270 Y23.386 Z-0.041
G1 F240 X6.241 Y23.356 Z-0.042
G1 F240 X6.224 Y23.333 Z-0.042
G1 F240 X5.901 Y23.023 Z-0.047
G1 F240 X5.808 Y22.811 Z-0.050
G1 F240 X5.901 Y23.023 Z-0.053
G1 F240 X6.224 Y23.333 Z-0.058
G1 F240 X6.241 Y23.356 Z-0.058
G1 F240 X6.270 Y23.386 Z-0.059
G1 F240 X6.310 Y23.470 Z-0.060
G1 F240 X6.313 Y23.481 Z-0.060
G1 F240 X6.318 Y23.491 Z-0.060
G1 F240 X6.342 Y23.585 Z-0.061
G1 F240 X6.339 Y23.627 Z-0.062
G1 F240 X6.342 Y23.668 Z-0.062
G1 F240 X6.318 Y23.762 Z-0.063
G1 F240 X6.313 Y23.772 Z-0.064
G1 F240 X6.301 Y23.814 Z-0.064
G1 F240 X6.247 Y23.891 Z-0.065
G1 F240 X6.241 Y23.897 Z-0.065
G1 F240 X6.224 Y23.920 Z-0.066
G1 F240 X5.901 Y24.230 Z-0.071
G1 F240 X5.808 Y24.443 Z-0.074
G1 F240 X5.888 Y24.443 Z-0.074
G1 F240 X5.919 Y24.356 Z-0.076
G1 F240 X6.161 Y24.069 Z-0.080
G1 F240 X6.400 Y23.931 Z-0.083
G1 F240 X6.400 Y23.322 Z-0.090
G1 F240 X6.161 Y23.184 Z-0.094
G1 F240 X5.919 Y22.897 Z-0.098
G1 F240 X5.888 Y22.811 Z-0.099
G1 F240 X5.808 Y22.811 Z-0.100
G1 F240 X5.888 Y22.811 Z-0.100
G1 F240 X5.919 Y22.897 Z-0.100
G1 F240 X6.161 Y23.184 Z-0.100
G1 F240 X6.400 Y23.322 Z-0.100
G1 F240 X6.400 Y23.931 Z-0.100
G1 F240 X6.161 Y24.069 Z-0.100
G1 F240 X5.919 Y24.356 Z-0.100
G1 F240 X5.888 Y24.443 Z-0.100
G1 F240 X5.808 Y24.443 Z-0.100
G1 F240 X5.901 Y24.230 Z-0.100
G1 F240 X6.224 Y23.920 Z-0.100
G1 F240 X6.241 Y23.897 Z-0.100
G1 F240 X6.247 Y23.891 Z-0.100
G1 F240 X6.301 Y23.814 Z-0.100
G1 F240 X6.313 Y23.772 Z-0.100
G1 F240 X6.318 Y23.762 Z-0.100
G1 F240 X6.342 Y23.668 Z-0.100
G1 F240 X6.339 Y23.627 Z-0.100
G1 F240 X6.342 Y23.585 Z-0.100
G1 F240 X6.318 Y23.491 Z-0.100
G1 F240 X6.313 Y23.481 Z-0.100
G1 F240 X6.310 Y23.470 Z-0.100
G1 F240 X6.270 Y23.386 Z-0.100
G1 F240 X6.241 Y23.356 Z-0.100
G1 F240 X6.224 Y23.333 Z-0.100
G1 F240 X5.901 Y23.023 Z-0.100
G1 F240 X5.808 Y22.811 Z-0.100
G0 X5.808 Y22.811 Z6.000
G0 X5.808 Y25.351 Z6.000
G1 F240 X5.808 Y25.351 Z0.000
G1 F240 X5.888 Y25.351 Z-0.001
G1 F240 X5.919 Y25.437 Z-0.002
G1 F240 X6.161 Y25.724 Z-0.006
G1 F240 X6.400 Y25.862 Z-0.010
G1 F240 X6.400 Y26.471 Z-0.017
G1 F240 X6.161 Y26.609 Z-0.020
G1 F240 X5.919 Y26.896 Z-0.024
G1 F240 X5.888 Y26.983 Z-0.026
G1 F240 X5.808 Y26.983 Z-0.026
G1 F240 X5.901 Y26.770 Z-0.029
G1 F240 X6.224 Y26.460 Z-0.034
G1 F240 X6.241 Y26.437 Z-0.035
G1 F240 X6.247 Y26.431 Z-0.035
G1 F240 X6.301 Y26.354 Z-0.036
G1 F240 X6.313 Y26.312 Z-0.036
G1 F240 X6.318 Y26.302 Z-0.037
G1 F240 X6.342 Y26.208 Z-0.038
G1 F240 X6.339 Y26.167 Z-0.038
G1 F240 X6.342 Y26.125 Z-0.039
G1 F240 X6.318 Y26.031 Z-0.040
G1 F240 X6.313 Y26.021 Z-0.040
G1 F240 X6.310 Y26.010 Z-0.040
G1 F240 X6.270 Y25.926 Z-0.041
G1 F240 X6.241 Y25.896 Z-0.042
G1 F240 X6.224 Y25.873 Z-0.042
G1 F240 X5.901 Y25.563 Z-0.047
G1 F240 X5.808 Y25.351 Z-0.050
G1 F240 X5.901 Y25.563 Z-0.053
G1 F240 X6.224 Y25.873 Z-0.058
G1 F240 X6.241 Y25.896 Z-0.058
G1 F240 X6.270 Y25.926 Z-0.059
G1 F240 X6.310 Y26.010 Z-0.060
G1 F240 X6.313 Y26.021 Z-0.060
G1 F240 X6.318 Y26.031 Z-0.060
G1 F240 X6.342 Y26.125 Z-0.061
G1 F240 X6.339 Y26.167 Z-0.062
G1 F240 X6.342 Y26.208 Z-0.062
G1 F240 X6.318 Y26.302 Z-0.063
G1 F240 X6.313 Y26.312 Z-0.064
G1 F240 X6.301 Y26.354 Z-0.064
G1 F240 X6.247 Y26.431 Z-0.065
G1 F240 X6.241 Y26.437 Z-0.065
G1 F240 X6.224 Y26.460 Z-0.066
G1 F240 X5.901 Y26.770 Z-0.071
G1 F240 X5.808 Y26.983 Z-0.074
G1 F240 X5.888 Y26.983 Z-0.074
G1 F240 X5.919 Y26.896 Z-0.076
G1 F240 X6.161 Y26.609 Z-0.080
G1 F240 X6.400 Y26.471 Z-0.083
G1 F240 X6.400 Y25.862 Z-0.090
G1 F240 X6.161 Y25.724 Z-0.094
G1 F240 X5.919 Y25.437 Z-0.098
G1 F240 X5.888 Y25.351 Z-0.099
G1 F240 X5.808 Y25.351 Z-0.100
G1 F240 X5.888 Y25.351 Z-0.100
G1 F240 X5.919 Y25.437 Z-0.100
G1 F240 X6.161 Y25.724 Z-0.100
G1 F240 X6.400 Y25.862 Z-0.100
G1 F240 X6.400 Y26.471 Z-0.100
G1 F240 X6.161 Y26.609 Z-0.100
G1 F240 X5.919 Y26.896 Z-0.100
G1 F240 X5.888 Y26.983 Z-0.100
G1 F240 X5.808 Y26.983 Z-0.100
G1 F240 X5.901 Y26.770 Z-0.100
G1 F240 X6.224 Y26.460 Z-0.100
G1 F240 X6.241 Y26.437 Z-0.100
G1 F240 X6.247 Y26.431 Z-0.100
G1 F240 X6.301 Y26.354 Z-0.100
G1 F240 X6.313 Y26.312 Z-0.100
G1 F240 X6.318 Y26.302 Z-0.100
G1 F240 X6.342 Y26.208 Z-0.100
G1 F240 X6.339 Y26.167 Z-0.100
G1 F240 X6.342 Y26.125 Z-0.100
G1 F240 X6.318 Y26.031 Z-0.100
G1 F240 X6.313 Y26.021 Z-0.100
G1 F240 X6.310 Y26.010 Z-0.100
G1 F240 X6.270 Y25.926 Z-0.100
G1 F240 X6.241 Y25.896 Z-0.100
G1 F240 X6.224 Y25.873 Z-0.100
G1 F240 X5.901 Y25.563 Z-0.100
G1 F240 X5.808 Y25.351 Z-0.100
G0 X5.808 Y25.351 Z6.000
G0 X5.808 Y27.891 Z6.000
G1 F240 X5.808 Y27.891 Z0.000
G1 F240 X5.888 Y27.891 Z-0.001
G1 F240 X5.919 Y27.977 Z-0.002
G1 F240 X6.161 Y28.264 Z-0.006
G1 F240 X6.400 Y28.402 Z-0.010
G1 F240 X6.400 Y29.011 Z-0.017
G1 F240 X6.161 Y29.149 Z-0.020
G1 F240 X5.919 Y29.436 Z-0.024
G1 F240 X5.888 Y29.523 Z-0.026
G1 F240 X5.808 Y29.523 Z-0.026
G1 F240 X5.901 Y29.310 Z-0.029
G1 F240 X6.224 Y29.000 Z-0.034
G1 F240 X6.241 Y28.977 Z-0.035
G1 F240 X6.247 Y28.971 Z-0.035
G1 F240 X6.301 Y28.894 Z-0.036
G1 F240 X6.313 Y28.852 Z-0.036
G1 F240 X6.318 Y28.842 Z-0.037
G1 F240 X6.342 Y28.748 Z-0.038
G1 F240 X6.339 Y28.707 Z-0.038
G1 F240 X6.340 Y28.699 Z-0.038
G1 F240 X6.332 Y28.603 Z-0.039
G1 F240 X6.313 Y28.561 Z-0.040
G1 F240 X6.310 Y28.550 Z-0.040
G1 F240 X6.270 Y28.466 Z-0.041
G1 F240 X6.241 Y28.436 Z-0.042
G1 F240 X6.224 Y28.413 Z-0.042
G1 F240 X5.901 Y28.103 Z-0.047
G1 F240 X5.808 Y27.891 Z-0.050
G1 F240 X5.901 Y28.103 Z-0.053
G1 F240 X6.224 Y28.413 Z-0.058
G1 F240 X6.241 Y28.436 Z-0.058
G1 F240 X6.270 Y28.466 Z-0.059
G1 F240 X6.310 Y28.550 Z-0.060
G1 F240 X6.313 Y28.561 Z-0.060
G1 F240 X6.332 Y28.603 Z-0.061
G1 F240 X6.340 Y28.699 Z-0.062
G1 F240 X6.339 Y28.707 Z-0.062
G1 F240 X6.342 Y28.748 Z-0.062
G1 F240 X6.318 Y28.842 Z-0.063
G1 F240 X6.313 Y28.852 Z-0.064
G1 F240 X6.301 Y28.894 Z-0.064
G1 F240 X6.247 Y28.971 Z-0.065
G1 F240 X6.241 Y28.977 Z-0.065
G1 F240 X6.224 Y29.000 Z-0.066
G1 F240 X5.901 Y29.310 Z-0.071
G1 F240 X5.808 Y29.523 Z-0.074
G1 F240 X5.888 Y29.523 Z-0.074
G1 F240 X5.919 Y29.436 Z-0.076
G1 F240 X6.161 Y29.149 Z-0.080
G1 F240 X6.400 Y29.011 Z-0.083
G1 F240 X6.400 Y28.402 Z-0.090
G1 F240 X6.161 Y28.264 Z-0.094
G1 F240 X5.919 Y27.977 Z-0.098
G1 F240 X5.888 Y27.891 Z-0.099
G1 F240 X5.808 Y27.891 Z-0.100
G1 F240 X5.888 Y27.891 Z-0.100
G1 F240 X5.919 Y27.977 Z-0.100
G1 F240 X6.161 Y28.264 Z-0.100
G1 F240 X6.400 Y28.402 Z-0.100
G1 F240 X6.400 Y29.011 Z-0.100
G1 F240 X6.161 Y29.149 Z-0.100
G1 F240 X5.919 Y29.436 Z-0.100
G1 F240 X5.888 Y29.523 Z-0.100
G1 F240 X5.808 Y29.523 Z-0.100
G1 F240 X5.901 Y29.310 Z-0.100
G1 F240 X6.224 Y29.000 Z-0.100
G1 F240 X6.241 Y28.977 Z-0.100
G1 F240 X6.247 Y28.971 Z-0.100
G1 F240 X6.301 Y28.894 Z-0.100
G1 F240 X6.313 Y28.852 Z-0.100
G1 F240 X6.318 Y28.842 Z-0.100
G1 F240 X6.342 Y28.748 Z-0.100
G1 F240 X6.339 Y28.707 Z-0.100
G1 F240 X6.340 Y28.699 Z-0.100
G1 F240 X6.332 Y28.603 Z-0.100
G1 F240 X6.313 Y28.561 Z-0.100
G1 F240 X6.310 Y28.550 Z-0.100
G1 F240 X6.270 Y28.466 Z-0.100
G1 F240 X6.241 Y28.436 Z-0.100
G1 F240 X6.224 Y28.413 Z-0.100
G1 F240 X5.901 Y28.103 Z-0.100
G1 F240 X5.808 Y27.891 Z-0.100
G0 X5.808 Y27.891 Z6.000
G0 X5.808 Y30.431 Z6.000
G1 F240 X5.808 Y30.431 Z0.000
G1 F240 X5.888 Y30.431 Z-0.001
G1 F240 X5.919 Y30.517 Z-0.002
G1 F240 X6.161 Y30.804 Z-0.006
G1 F240 X6.400 Y30.942 Z-0.010
G1 F240 X6.400 Y31.551 Z-0.017
G1 F240 X6.161 Y31.689 Z-0.020
G1 F240 X5.919 Y31.976 Z-0.024
G1 F240 X5.888 Y32.063 Z-0.026
G1 F240 X5.808 Y32.063 Z-0.026
G1 F240 X5.901 Y31.850 Z-0.029
G1 F240 X6.224 Y31.540 Z-0.034
G1 F240 X6.241 Y31.517 Z-0.035
G1 F240 X6.247 Y31.511 Z-0.035
G1 F240 X6.301 Y31.434 Z-0.036
G1 F240 X6.313 Y31.392 Z-0.036
G1 F240 X6.318 Y31.382 Z-0.037
G1 F240 X6.342 Y31.288 Z-0.038
G1 F240 X6.339 Y31.247 Z-0.038
G1 F240 X6.340 Y31.239 Z-0.038
G1 F240 X6.332 Y31.143 Z-0.039
G1 F240 X6.313 Y31.101 Z-0.040
G1 F240 X6.310 Y31.090 Z-0.040
G1 F240 X6.270 Y31.006 Z-0.041
G1 F240 X6.241 Y30.976 Z-0.042
G1 F240 X6.224 Y30.953 Z-0.042
G1 F240 X5.901 Y30.643 Z-0.047
G1 F240 X5.808 Y30.431 Z-0.050
G1 F240 X5.901 Y30.643 Z-0.053
G1 F240 X6.224 Y30.953 Z-0.058
G1 F240 X6.241 Y30.976 Z-0.058
G1 F240 X6.270 Y31.006 Z-0.059
G1 F240 X6.310 Y31.090 Z-0.060
G1 F240 X6.313 Y31.101 Z-0.060
G1 F240 X6.332 Y31.143 Z-0.061
G1 F240 X6.340 Y31.239 Z-0.062
G1 F240 X6.339 Y31.247 Z-0.062
G1 F240 X6.342 Y31.288 Z-0.062
G1 F240 X6.318 Y31.382 Z-0.063
G1 F240 X6.313 Y31.392 Z-0.064
G1 F240 X6.301 Y31.434 Z-0.064
G1 F240 X6.247 Y31.511 Z-0.065
G1 F240 X6.241 Y31.517 Z-0.065
G1 F240 X6.224 Y31.540 Z-0.066
G1 F240 X5.901 Y31.850 Z-0.071
G1 F240 X5.808 Y32.063 Z-0.074
G1 F240 X5.888 Y32.063 Z-0.074
G1 F240 X5.919 Y31.976 Z-0.076
G1 F240 X6.161 Y31.689 Z-0.080
G1 F240 X6.400 Y31.551 Z-0.083
G1 F240 X6.400 Y30.942 Z-0.090
G1 F240 X6.161 Y30.804 Z-0.094
G1 F240 X5.919 Y30.517 Z-0.098
G1 F240 X5.888 Y30.431 Z-0.099
G1 F240 X5.808 Y30.431 Z-0.100
G1 F240 X5.888 Y30.431 Z-0.100
G1 F240 X5.919 Y30.517 Z-0.100
G1 F240 X6.161 Y30.804 Z-0.100
G1 F240 X6.400 Y30.942 Z-0.100
G1 F240 X6.400 Y31.551 Z-0.100
G1 F240 X6.161 Y31.689 Z-0.100
G1 F240 X5.919 Y31.976 Z-0.100
G1 F240 X5.888 Y32.063 Z-0.100
G1 F240 X5.808 Y32.063 Z-0.100
G1 F240 X5.901 Y31.850 Z-0.100
G1 F240 X6.224 Y31.540 Z-0.100
G1 F240 X6.241 Y31.517 Z-0.100
G1 F240 X6.247 Y31.511 Z-0.100
G1 F240 X6.301 Y31.434 Z-0.100
G1 F240 X6.313 Y31.392 Z-0.100
G1 F240 X6.318 Y31.382 Z-0.100
G1 F240 X6.342 Y31.288 Z-0.100
G1 F240 X6.339 Y31.247 Z-0.100
G1 F240 X6.340 Y31.239 Z-0.100
G1 F240 X6.332 Y31.143 Z-0.100
G1 F240 X6.313 Y31.101 Z-0.100
G1 F240 X6.310 Y31.090 Z-0.100
G1 F240 X6.270 Y31.006 Z-0.100
G1 F240 X6.241 Y30.976 Z-0.100
G1 F240 X6.224 Y30.953 Z-0.100
G1 F240 X5.901 Y30.643 Z-0.100
G1 F240 X5.808 Y30.431 Z-0.100
G0 X5.808 Y30.431 Z6.000
G0 X5.808 Y32.971 Z6.000
G1 F240 X5.808 Y32.971 Z0.000
G1 F240 X5.888 Y32.971 Z-0.001
G1 F240 X5.919 Y33.057 Z-0.002
G1 F240 X6.161 Y33.344 Z-0.006
G1 F240 X6.400 Y33.482 Z-0.010
G1 F240 X6.400 Y34.091 Z-0.017
G1 F240 X6.161 Y34.229 Z-0.020
G1 F240 X5.919 Y34.516 Z-0.024
G1 F240 X5.888 Y34.603 Z-0.026
G1 F240 X5.808 Y34.603 Z-0.026
G1 F240 X5.901 Y34.390 Z-0.029
G1 F240 X6.224 Y34.080 Z-0.034
G1 F240 X6.241 Y34.057 Z-0.035
G1 F240 X6.247 Y34.051 Z-0.035
G1 F240 X6.301 Y33.974 Z-0.036
G1 F240 X6.313 Y33.932 Z-0.036
G1 F240 X6.318 Y33.922 Z-0.037
G1 F240 X6.342 Y33.828 Z-0.038
G1 F240 X6.339 Y33.787 Z-0.038
G1 F240 X6.340 Y33.779 Z-0.038
G1 F240 X6.332 Y33.683 Z-0.039
G1 F240 X6.313 Y33.641 Z-0.040
G1 F240 X6.310 Y33.630 Z-0.040
G1 F240 X6.270 Y33.546 Z-0.041
G1 F240 X6.241 Y33.516 Z-0.042
G1 F240 X6.224 Y33.493 Z-0.042
G1 F240 X5.901 Y33.183 Z-0.047
G1 F240 X5.808 Y32.971 Z-0.050
G1 F240 X5.901 Y33.183 Z-0.053
G1 F240 X6.224 Y33.493 Z-0.058
G1 F240 X6.241 Y33.516 Z-0.058
G1 F240 X6.270 Y33.546 Z-0.059
G1 F240 X6.310 Y33.630 Z-0.060
G1 F240 X6.313 Y33.641 Z-0.060
G1 F240 X6.332 Y33.683 Z-0.061
G1 F240 X6.340 Y33.779 Z-0.062
G1 F240 X6.339 Y33.787 Z-0.062
G1 F240 X6.342 Y33.828 Z-0.062
G1 F240 X6.318 Y33.922 Z-0.063
G1 F240 X6.313 Y33.932 Z-0.064
G1 F240 X6.301 Y33.974 Z-0.064
G1 F240 X6.247 Y34.051 Z-0.065
G1 F240 X6.241 Y34.057 Z-0.065
G1 F240 X6.224 Y34.080 Z-0.066
G1 F240 X5.901 Y34.390 Z-0.071
G1 F240 X5.808 Y34.603 Z-0.074
G1 F240 X5.888 Y34.603 Z-0.074
G1 F240 X5.919 Y34.516 Z-0.076
G1 F240 X6.161 Y34.229 Z-0.080
G1 F240 X6.400 Y34.091 Z-0.083
G1 F240 X6.400 Y33.482 Z-0.090
G1 F240 X6.161 Y33.344 Z-0.094
G1 F240 X5.919 Y33.057 Z-0.098
G1 F240 X5.888 Y32.971 Z-0.099
G1 F240 X5.808 Y32.971 Z-0.100
G1 F240 X5.888 Y32.971 Z-0.100
G1 F240 X5.919 Y33.057 Z-0.100
G1 F240 X6.161 Y33.344 Z-0.100
G1 F240 X6.400 Y33.482 Z-0.100
G1 F240 X6.400 Y34.091 Z-0.100
G1 F240 X6.161 Y34.229 Z-0.100
G1 F240 X5.919 Y34.516 Z-0.100
G1 F240 X5.888 Y34.603 Z-0.100
G1 F240 X5.808 Y34.603 Z-0.100
G1 F240 X5.901 Y34.390 Z-0.100
G1 F240 X6.224 Y34.080 Z-0.100
G1 F240 X6.241 Y34.057 Z-0.100
G1 F240 X6.247 Y34.051 Z-0.100
G1 F240 X6.301 Y33.974 Z-0.100
G1 F240 X6.313 Y33.932 Z-0.100
G1 F240 X6.318 Y33.922 Z-0.100
G1 F240 X6.342 Y33.828 Z-0.100
G1 F240 X6.339 Y33.787 Z-0.100
G1 F240 X6.340 Y33.779 Z-0.100
G1 F240 X6.332 Y33.683 Z-0.100
G1 F240 X6.313 Y33.641 Z-0.100
G1 F240 X6.310 Y33.630 Z-0.100
G1 F240 X6.270 Y33.546 Z-0.100
G1 F240 X6.241 Y33.516 Z-0.100
G1 F240 X6.224 Y33.493 Z-0.100
G1 F240 X5.901 Y33.183 Z-0.100
G1 F240 X5.808 Y32.971 Z-0.100
G0 X5.808 Y32.971 Z6.000
G0 X5.808 Y35.511 Z6.000
G1 F240 X5.808 Y35.511 Z0.000
G1 F240 X5.888 Y35.511 Z-0.002
G1 F240 X5.919 Y35.597 Z-0.005
G1 F240 X6.161 Y35.884 Z-0.015
G1 F240 X6.400 Y36.022 Z-0.023
G1 F240 X6.400 Y36.104 Z-0.025
G1 F240 X6.229 Y36.037 Z-0.031
G1 F240 X5.901 Y35.723 Z-0.043
G1 F240 X5.808 Y35.511 Z-0.050
G1 F240 X5.901 Y35.723 Z-0.057
G1 F240 X6.229 Y36.037 Z-0.069
G1 F240 X6.400 Y36.104 Z-0.075
G1 F240 X6.400 Y36.022 Z-0.077
G1 F240 X6.161 Y35.884 Z-0.085
G1 F240 X5.919 Y35.597 Z-0.095
G1 F240 X5.888 Y35.511 Z-0.098
G1 F240 X5.808 Y35.511 Z-0.100
G1 F240 X5.888 Y35.511 Z-0.100
G1 F240 X5.919 Y35.597 Z-0.100
G1 F240 X6.161 Y35.884 Z-0.100
G1 F240 X6.400 Y36.022 Z-0.100
G1 F240 X6.400 Y36.104 Z-0.100
G1 F240 X6.229 Y36.037 Z-0.100
G1 F240 X5.901 Y35.723 Z-0.100
G1 F240 X5.808 Y35.511 Z-0.100
G0 X5.808 Y35.511 Z6.000
G0 X7.821 Y35.511 Z6.000
G1 F240 X7.821 Y35.511 Z0.000
G1 F240 X8.331 Y35.511 Z-0.006
G1 F240 X8.331 Y35.920 Z-0.010
G1 F240 X8.333 Y35.949 Z-0.011
G1 F240 X8.340 Y35.979 Z-0.011
G1 F240 X8.352 Y36.008 Z-0.011
G1 F240 X8.369 Y36.036 Z-0.012
G1 F240 X8.390 Y36.062 Z-0.012
G1 F240 X8.415 Y36.083 Z-0.012
G1 F240 X8.443 Y36.100 Z-0.013
G1 F240 X8.473 Y36.111 Z-0.013
G1 F240 X8.502 Y36.118 Z-0.014
G1 F240 X8.531 Y36.120 Z-0.014
G1 F240 X8.940 Y36.120 Z-0.018
G1 F240 X8.940 Y36.228 Z-0.020
G1 F240 X8.470 Y36.228 Z-0.025
G1 F240 X8.357 Y36.181 Z-0.026
G1 F240 X8.270 Y36.094 Z-0.028
G1 F240 X8.259 Y36.069 Z-0.028
G1 F240 X8.248 Y36.052 Z-0.028
G1 F240 X8.233 Y36.013 Z-0.029
G1 F240 X8.205 Y35.984 Z-0.029
G1 F240 X8.187 Y35.959 Z-0.030
G1 F240 X8.156 Y35.934 Z-0.030
G1 F240 X8.151 Y35.929 Z-0.030
G1 F240 X8.070 Y35.869 Z-0.031
G1 F240 X8.031 Y35.856 Z-0.032
G1 F240 X8.024 Y35.853 Z-0.032
G1 F240 X7.929 Y35.825 Z-0.033
G1 F240 X7.888 Y35.826 Z-0.033
G1 F240 X7.881 Y35.825 Z-0.033
G1 F240 X7.781 Y35.831 Z-0.034
G1 F240 X7.742 Y35.847 Z-0.035
G1 F240 X7.734 Y35.849 Z-0.035
G1 F240 X7.644 Y35.888 Z-0.036
G1 F240 X7.613 Y35.916 Z-0.037
G1 F240 X7.592 Y35.931 Z-0.037
G1 F240 X7.481 Y36.037 Z-0.039
G1 F240 X7.308 Y36.104 Z-0.041
G1 F240 X7.308 Y36.023 Z-0.042
G1 F240 X7.549 Y35.884 Z-0.045
G1 F240 X7.790 Y35.597 Z-0.049
G1 F240 X7.821 Y35.511 Z-0.050
G1 F240 X7.790 Y35.597 Z-0.051
G1 F240 X7.549 Y35.884 Z-0.055
G1 F240 X7.308 Y36.023 Z-0.058
G1 F240 X7.308 Y36.104 Z-0.059
G1 F240 X7.481 Y36.037 Z-0.061
G1 F240 X7.592 Y35.931 Z-0.063
G1 F240 X7.613 Y35.916 Z-0.063
G1 F240 X7.644 Y35.888 Z-0.064
G1 F240 X7.734 Y35.849 Z-0.065
G1 F240 X7.742 Y35.847 Z-0.065
G1 F240 X7.781 Y35.831 Z-0.066
G1 F240 X7.881 Y35.825 Z-0.067
G1 F240 X7.888 Y35.826 Z-0.067
G1 F240 X7.929 Y35.825 Z-0.067
G1 F240 X8.024 Y35.853 Z-0.068
G1 F240 X8.031 Y35.856 Z-0.068
G1 F240 X8.070 Y35.869 Z-0.069
G1 F240 X8.151 Y35.929 Z-0.070
G1 F240 X8.156 Y35.934 Z-0.070
G1 F240 X8.187 Y35.959 Z-0.070
G1 F240 X8.205 Y35.984 Z-0.071
G1 F240 X8.233 Y36.013 Z-0.071
G1 F240 X8.248 Y36.052 Z-0.072
G1 F240 X8.259 Y36.069 Z-0.072
G1 F240 X8.270 Y36.094 Z-0.072
G1 F240 X8.357 Y36.181 Z-0.074
G1 F240 X8.470 Y36.228 Z-0.075
G1 F240 X8.940 Y36.228 Z-0.080
G1 F240 X8.940 Y36.120 Z-0.082
G1 F240 X8.531 Y36.120 Z-0.086
G1 F240 X8.502 Y36.118 Z-0.086
G1 F240 X8.473 Y36.111 Z-0.087
G1 F240 X8.443 Y36.100 Z-0.087
G1 F240 X8.415 Y36.083 Z-0.088
G1 F240 X8.390 Y36.062 Z-0.088
G1 F240 X8.369 Y36.036 Z-0.088
G1 F240 X8.352 Y36.008 Z-0.089
G1 F240 X8.340 Y35.979 Z-0.089
G1 F240 X8.333 Y35.949 Z-0.089
G1 F240 X8.331 Y35.920 Z-0.090
G1 F240 X8.331 Y35.511 Z-0.094
G1 F240 X7.821 Y35.511 Z-0.100
G1 F240 X8.331 Y35.511 Z-0.100
G1 F240 X8.331 Y35.920 Z-0.100
G1 F240 X8.333 Y35.949 Z-0.100
G1 F240 X8.340 Y35.979 Z-0.100
G1 F240 X8.352 Y36.008 Z-0.100
G1 F240 X8.369 Y36.036 Z-0.100
G1 F240 X8.390 Y36.062 Z-0.100
G1 F240 X8.415 Y36.083 Z-0.100
G1 F240 X8.443 Y36.100 Z-0.100
G1 F240 X8.473 Y36.111 Z-0.100
G1 F240 X8.502 Y36.118 Z-0.100
G1 F240 X8.531 Y36.120 Z-0.100
G1 F240 X8.940 Y36.120 Z-0.100
G1 F240 X8.940 Y36.228 Z-0.100
G1 F240 X8.470 Y36.228 Z-0.100
G1 F240 X8.357 Y36.181 Z-0.100
G1 F240 X8.270 Y36.094 Z-0.100
G1 F240 X8.259 Y36.069 Z-0.100
G1 F240 X8.248 Y36.052 Z-0.100
G1 F240 X8.233 Y36.013 Z-0.100
G1 F240 X8.205 Y35.984 Z-0.100
G1 F240 X8.187 Y35.959 Z-0.100
G1 F240 X8.156 Y35.934 Z-0.100
G1 F240 X8.151 Y35.929 Z-0.100
G1 F240 X8.070 Y35.869 Z-0.100
G1 F240 X8.031 Y35.856 Z-0.100
G1 F240 X8.024 Y35.853 Z-0.100
G1 F240 X7.929 Y35.825 Z-0.100
G1 F240 X7.888 Y35.826 Z-0.100
G1 F240 X7.881 Y35.825 Z-0.100
G1 F240 X7.781 Y35.831 Z-0.100
G1 F240 X7.742 Y35.847 Z-0.100
G1 F240 X7.734 Y35.849 Z-0.100
G1 F240 X7.644 Y35.888 Z-0.100
G1 F240 X7.613 Y35.916 Z-0.100
G1 F240 X7.592 Y35.931 Z-0.100
G1 F240 X7.481 Y36.037 Z-0.100
G1 F240 X7.308 Y36.104 Z-0.100
G1 F240 X7.308 Y36.023 Z-0.100
G1 F240 X7.549 Y35.884 Z-0.100
G1 F240 X7.790 Y35.597 Z-0.100
G1 F240 X7.821 Y35.511 Z-0.100
G0 X7.821 Y35.511 Z6.000
G0 X10.458 Y35.511 Z6.000
G1 F240 X10.458 Y35.511 Z0.000
G1 F240 X10.566 Y35.511 Z-0.002
G1 F240 X10.566 Y35.981 Z-0.011
G1 F240 X10.520 Y36.095 Z-0.013
G1 F240 X10.433 Y36.181 Z-0.015
G1 F240 X10.320 Y36.228 Z-0.018
G1 F240 X9.848 Y36.228 Z-0.027
G1 F240 X9.848 Y36.120 Z-0.029
G1 F240 X10.258 Y36.120 Z-0.036
G1 F240 X10.287 Y36.118 Z-0.037
G1 F240 X10.317 Y36.111 Z-0.038
G1 F240 X10.347 Y36.100 Z-0.038
G1 F240 X10.375 Y36.083 Z-0.039
G1 F240 X10.400 Y36.062 Z-0.039
G1 F240 X10.421 Y36.036 Z-0.040
G1 F240 X10.438 Y36.008 Z-0.041
G1 F240 X10.450 Y35.979 Z-0.041
G1 F240 X10.456 Y35.949 Z-0.042
G1 F240 X10.458 Y35.920 Z-0.042
G1 F240 X10.458 Y35.511 Z-0.050
G1 F240 X10.458 Y35.920 Z-0.058
G1 F240 X10.456 Y35.949 Z-0.058
G1 F240 X10.450 Y35.979 Z-0.059
G1 F240 X10.438 Y36.008 Z-0.059
G1 F240 X10.421 Y36.036 Z-0.060
G1 F240 X10.400 Y36.062 Z-0.061
G1 F240 X10.375 Y36.083 Z-0.061
G1 F240 X10.347 Y36.100 Z-0.062
G1 F240 X10.317 Y36.111 Z-0.062
G1 F240 X10.287 Y36.118 Z-0.063
G1 F240 X10.258 Y36.120 Z-0.064
G1 F240 X9.848 Y36.120 Z-0.071
G1 F240 X9.848 Y36.228 Z-0.073
G1 F240 X10.320 Y36.228 Z-0.082
G1 F240 X10.433 Y36.181 Z-0.085
G1 F240 X10.520 Y36.095 Z-0.087
G1 F240 X10.566 Y35.981 Z-0.089
G1 F240 X10.566 Y35.511 Z-0.098
G1 F240 X10.458 Y35.511 Z-0.100
G1 F240 X10.566 Y35.511 Z-0.100
G1 F240 X10.566 Y35.981 Z-0.100
G1 F240 X10.520 Y36.095 Z-0.100
G1 F240 X10.433 Y36.181 Z-0.100
G1 F240 X10.320 Y36.228 Z-0.100
G1 F240 X9.848 Y36.228 Z-0.100
G1 F240 X9.848 Y36.120 Z-0.100
G1 F240 X10.258 Y36.120 Z-0.100
G1 F240 X10.287 Y36.118 Z-0.100
G1 F240 X10.317 Y36.111 Z-0.100
G1 F240 X10.347 Y36.100 Z-0.100
G1 F240 X10.375 Y36.083 Z-0.100
G1 F240 X10.400 Y36.062 Z-0.100
G1 F240 X10.421 Y36.036 Z-0.100
G1 F240 X10.438 Y36.008 Z-0.100
G1 F240 X10.450 Y35.979 Z-0.100
G1 F240 X10.456 Y35.949 Z-0.100
G1 F240 X10.458 Y35.920 Z-0.100
G1 F240 X10.458 Y35.511 Z-0.100
G0 X10.458 Y35.511 Z6.000
G0 X3.495 Y5.343 Z6.000
G1 F240 X3.495 Y5.343 Z0.000
G1 F240 X3.492 Y5.362 Z0.000
G1 F240 X3.492 Y30.342 Z-0.050
G1 F240 X3.492 Y5.362 Z-0.100
G1 F240 X3.495 Y5.343 Z-0.100
G1 F240 X3.492 Y5.362 Z-0.100
G1 F240 X3.492 Y49.693 Z-0.100
G1 F240 X3.494 Y49.736 Z-0.100
G1 F240 X3.498 Y49.788 Z-0.100
G1 F240 X3.509 Y49.826 Z-0.100
G1 F240 X3.515 Y49.863 Z-0.100
G1 F240 X3.571 Y50.017 Z-0.100
G1 F240 X3.594 Y50.054 Z-0.100
G1 F240 X3.626 Y50.111 Z-0.100
G1 F240 X3.700 Y50.200 Z-0.100
G1 F240 X3.787 Y50.272 Z-0.100
G1 F240 X3.886 Y50.330 Z-0.100
G1 F240 X3.993 Y50.369 Z-0.100
G1 F240 X4.196 Y50.405 Z-0.100
G1 F240 X4.217 Y50.405 Z-0.100
G1 F240 X4.237 Y50.408 Z-0.100
G1 F240 X18.150 Y50.408 Z-0.100
G1 F240 X18.190 Y50.401 Z-0.100
G1 F240 X18.212 Y50.399 Z-0.100
G1 F240 X18.282 Y50.382 Z-0.100
G1 F240 X18.328 Y50.357 Z-0.100
G1 F240 X18.352 Y50.346 Z-0.100
G1 F240 X18.411 Y50.307 Z-0.100
G1 F240 X18.444 Y50.269 Z-0.100
G1 F240 X18.460 Y50.253 Z-0.100
G1 F240 X18.506 Y50.190 Z-0.100
G1 F240 X18.523 Y50.146 Z-0.100
G1 F240 X18.532 Y50.127 Z-0.100
G1 F240 X18.555 Y50.052 Z-0.100
G1 F240 X18.555 Y49.999 Z-0.100
G1 F240 X18.557 Y49.976 Z-0.100
G1 F240 X18.554 Y49.905 Z-0.100
G1 F240 X18.536 Y49.855 Z-0.100
G1 F240 X18.530 Y49.833 Z-0.100
G1 F240 X18.500 Y49.763 Z-0.100
G1 F240 X18.467 Y49.724 Z-0.100
G1 F240 X18.446 Y49.694 Z-0.100
G1 F240 X17.624 Y48.873 Z-0.100
G1 F240 X17.604 Y48.858 Z-0.100
G1 F240 X17.585 Y48.841 Z-0.100
G1 F240 X17.538 Y48.809 Z-0.100
G1 F240 X17.474 Y48.712 Z-0.100
G1 F240 X17.355 Y48.536 Z-0.100
G1 F240 X17.291 Y48.214 Z-0.100
G1 F240 X17.303 Y48.155 Z-0.100
G1 F240 X17.303 Y48.131 Z-0.100
G1 F240 X17.307 Y48.109 Z-0.100
G1 F240 X17.307 Y40.551 Z-0.100
G1 F240 X17.305 Y40.500 Z-0.100
G1 F240 X17.294 Y40.458 Z-0.100
G1 F240 X17.289 Y40.433 Z-0.100
G1 F240 X17.267 Y40.365 Z-0.100
G1 F240 X17.238 Y40.324 Z-0.100
G1 F240 X17.228 Y40.306 Z-0.100
G1 F240 X17.191 Y40.258 Z-0.100
G1 F240 X11.280 Y34.347 Z-0.100
G1 F240 X11.249 Y34.326 Z-0.100
G1 F240 X11.235 Y34.313 Z-0.100
G1 F240 X11.167 Y34.270 Z-0.100
G1 F240 X11.118 Y34.257 Z-0.100
G1 F240 X11.098 Y34.250 Z-0.100
G1 F240 X11.024 Y34.234 Z-0.100
G1 F240 X10.973 Y34.238 Z-0.100
G1 F240 X10.952 Y34.238 Z-0.100
G1 F240 X10.877 Y34.248 Z-0.100
G1 F240 X10.831 Y34.269 Z-0.100
G1 F240 X10.810 Y34.277 Z-0.100
G1 F240 X10.742 Y34.313 Z-0.100
G1 F240 X10.706 Y34.349 Z-0.100
G1 F240 X10.689 Y34.363 Z-0.100
G1 F240 X10.640 Y34.418 Z-0.100
G1 F240 X10.617 Y34.465 Z-0.100
G1 F240 X10.605 Y34.486 Z-0.100
G1 F240 X10.578 Y34.553 Z-0.100
G1 F240 X10.573 Y34.603 Z-0.100
G1 F240 X10.458 Y34.603 Z-0.100
G1 F240 X10.458 Y34.193 Z-0.100
G1 F240 X10.456 Y34.164 Z-0.100
G1 F240 X10.450 Y34.134 Z-0.100
G1 F240 X10.438 Y34.105 Z-0.100
G1 F240 X10.421 Y34.077 Z-0.100
G1 F240 X10.400 Y34.051 Z-0.100
G1 F240 X10.375 Y34.030 Z-0.100
G1 F240 X10.347 Y34.013 Z-0.100
G1 F240 X10.317 Y34.002 Z-0.100
G1 F240 X10.287 Y33.995 Z-0.100
G1 F240 X10.258 Y33.993 Z-0.100
G1 F240 X8.531 Y33.993 Z-0.100
G1 F240 X8.505 Y33.995 Z-0.100
G1 F240 X8.478 Y34.000 Z-0.100
G1 F240 X8.451 Y34.010 Z-0.100
G1 F240 X8.425 Y34.023 Z-0.100
G1 F240 X8.401 Y34.041 Z-0.100
G1 F240 X8.380 Y34.063 Z-0.100
G1 F240 X8.362 Y34.087 Z-0.100
G1 F240 X8.348 Y34.113 Z-0.100
G1 F240 X8.339 Y34.140 Z-0.100
G1 F240 X8.333 Y34.167 Z-0.100
G1 F240 X8.331 Y34.193 Z-0.100
G1 F240 X8.331 Y34.603 Z-0.100
G1 F240 X7.821 Y34.603 Z-0.100
G1 F240 X7.790 Y34.516 Z-0.100
G1 F240 X7.549 Y34.229 Z-0.100
G1 F240 X7.308 Y34.090 Z-0.100
G1 F240 X7.308 Y33.483 Z-0.100
G1 F240 X7.549 Y33.344 Z-0.100
G1 F240 X7.790 Y33.057 Z-0.100
G1 F240 X7.918 Y32.704 Z-0.100
G1 F240 X7.918 Y32.329 Z-0.100
G1 F240 X7.790 Y31.976 Z-0.100
G1 F240 X7.549 Y31.689 Z-0.100
G1 F240 X7.308 Y31.550 Z-0.100
G1 F240 X7.308 Y30.943 Z-0.100
G1 F240 X7.549 Y30.804 Z-0.100
G1 F240 X7.790 Y30.517 Z-0.100
G1 F240 X7.918 Y30.164 Z-0.100
G1 F240 X7.918 Y29.789 Z-0.100
G1 F240 X7.790 Y29.436 Z-0.100
G1 F240 X7.549 Y29.149 Z-0.100
G1 F240 X7.308 Y29.010 Z-0.100
G1 F240 X7.308 Y28.403 Z-0.100
G1 F240 X7.549 Y28.264 Z-0.100
G1 F240 X7.790 Y27.977 Z-0.100
G1 F240 X7.918 Y27.624 Z-0.100
G1 F240 X7.918 Y27.249 Z-0.100
G1 F240 X7.790 Y26.896 Z-0.100
G1 F240 X7.549 Y26.609 Z-0.100
G1 F240 X7.308 Y26.470 Z-0.100
G1 F240 X7.308 Y25.863 Z-0.100
G1 F240 X7.549 Y25.724 Z-0.100
G1 F240 X7.790 Y25.437 Z-0.100
G1 F240 X7.918 Y25.084 Z-0.100
G1 F240 X7.918 Y24.709 Z-0.100
G1 F240 X7.790 Y24.356 Z-0.100
G1 F240 X7.549 Y24.069 Z-0.100
G1 F240 X7.308 Y23.930 Z-0.100
G1 F240 X7.308 Y23.323 Z-0.100
G1 F240 X7.549 Y23.184 Z-0.100
G1 F240 X7.790 Y22.897 Z-0.100
G1 F240 X7.918 Y22.544 Z-0.100
G1 F240 X7.918 Y22.169 Z-0.100
G1 F240 X7.790 Y21.816 Z-0.100
G1 F240 X7.549 Y21.529 Z-0.100
G1 F240 X7.308 Y21.390 Z-0.100
G1 F240 X7.308 Y20.783 Z-0.100
G1 F240 X7.549 Y20.644 Z-0.100
G1 F240 X7.790 Y20.357 Z-0.100
G1 F240 X7.918 Y20.004 Z-0.100
G1 F240 X7.918 Y19.629 Z-0.100
G1 F240 X7.790 Y19.276 Z-0.100
G1 F240 X7.549 Y18.989 Z-0.100
G1 F240 X7.224 Y18.802 Z-0.100
G1 F240 X6.948 Y18.753 Z-0.100
G1 F240 X6.762 Y18.753 Z-0.100
G1 F240 X6.485 Y18.802 Z-0.100
G1 F240 X6.161 Y18.989 Z-0.100
G1 F240 X5.919 Y19.276 Z-0.100
G1 F240 X5.888 Y19.363 Z-0.100
G1 F240 X5.808 Y19.363 Z-0.100
G1 F240 X5.901 Y19.150 Z-0.100
G1 F240 X6.018 Y19.039 Z-0.100
G1 F240 X6.042 Y19.015 Z-0.100
G1 F240 X6.070 Y18.973 Z-0.100
G1 F240 X6.087 Y18.948 Z-0.100
G1 F240 X6.118 Y18.895 Z-0.100
G1 F240 X6.130 Y18.842 Z-0.100
G1 F240 X6.139 Y18.814 Z-0.100
G1 F240 X6.150 Y18.752 Z-0.100
G1 F240 X6.144 Y18.695 Z-0.100
G1 F240 X6.142 Y18.667 Z-0.100
G1 F240 X6.129 Y18.602 Z-0.100
G1 F240 X6.106 Y18.554 Z-0.100
G1 F240 X6.093 Y18.525 Z-0.100
G1 F240 X6.061 Y18.472 Z-0.100
G1 F240 X6.022 Y18.434 Z-0.100
G1 F240 X6.000 Y18.411 Z-0.100
G1 F240 X5.965 Y18.382 Z-0.100
G1 F240 X5.835 Y18.296 Z-0.100
G1 F240 X5.523 Y17.828 Z-0.100
G1 F240 X5.413 Y17.277 Z-0.100
G1 F240 X5.523 Y16.725 Z-0.100
G1 F240 X5.835 Y16.257 Z-0.100
G1 F240 X6.303 Y15.945 Z-0.100
G1 F240 X6.715 Y15.863 Z-0.100
G1 F240 X6.994 Y15.863 Z-0.100
G1 F240 X7.406 Y15.945 Z-0.100
G1 F240 X7.888 Y16.267 Z-0.100
G1 F240 X7.949 Y16.301 Z-0.100
G1 F240 X7.980 Y16.311 Z-0.100
G1 F240 X7.992 Y16.316 Z-0.100
G1 F240 X8.081 Y16.339 Z-0.100
G1 F240 X8.125 Y16.336 Z-0.100
G1 F240 X8.137 Y16.337 Z-0.100
G1 F240 X8.230 Y16.328 Z-0.100
G1 F240 X8.269 Y16.311 Z-0.100
G1 F240 X8.280 Y16.308 Z-0.100
G1 F240 X8.348 Y16.275 Z-0.100
G1 F240 X8.843 Y15.945 Z-0.100
G1 F240 X9.255 Y15.863 Z-0.100
G1 F240 X9.534 Y15.863 Z-0.100
G1 F240 X9.946 Y15.945 Z-0.100
G1 F240 X10.414 Y16.257 Z-0.100
G1 F240 X10.726 Y16.725 Z-0.100
G1 F240 X10.836 Y17.277 Z-0.100
G1 F240 X10.726 Y17.828 Z-0.100
G1 F240 X10.404 Y18.310 Z-0.100
G1 F240 X10.369 Y18.370 Z-0.100
G1 F240 X10.359 Y18.405 Z-0.100
G1 F240 X10.354 Y18.418 Z-0.100
G1 F240 X10.331 Y18.504 Z-0.100
G1 F240 X10.335 Y18.547 Z-0.100
G1 F240 X10.334 Y18.555 Z-0.100
G1 F240 X10.343 Y18.648 Z-0.100
G1 F240 X10.359 Y18.688 Z-0.100
G1 F240 X10.364 Y18.703 Z-0.100
G1 F240 X10.396 Y18.771 Z-0.100
G1 F240 X10.726 Y19.265 Z-0.100
G1 F240 X10.836 Y19.817 Z-0.100
G1 F240 X10.726 Y20.368 Z-0.100
G1 F240 X10.404 Y20.850 Z-0.100
G1 F240 X10.369 Y20.910 Z-0.100
G1 F240 X10.359 Y20.945 Z-0.100
G1 F240 X10.354 Y20.958 Z-0.100
G1 F240 X10.331 Y21.044 Z-0.100
G1 F240 X10.335 Y21.087 Z-0.100
G1 F240 X10.334 Y21.095 Z-0.100
G1 F240 X10.343 Y21.188 Z-0.100
G1 F240 X10.359 Y21.228 Z-0.100
G1 F240 X10.364 Y21.243 Z-0.100
G1 F240 X10.396 Y21.311 Z-0.100
G1 F240 X10.726 Y21.805 Z-0.100
G1 F240 X10.836 Y22.357 Z-0.100
G1 F240 X10.726 Y22.908 Z-0.100
G1 F240 X10.404 Y23.390 Z-0.100
G1 F240 X10.369 Y23.450 Z-0.100
G1 F240 X10.359 Y23.485 Z-0.100
G1 F240 X10.354 Y23.498 Z-0.100
G1 F240 X10.331 Y23.584 Z-0.100
G1 F240 X10.335 Y23.627 Z-0.100
G1 F240 X10.334 Y23.635 Z-0.100
G1 F240 X10.343 Y23.728 Z-0.100
G1 F240 X10.359 Y23.768 Z-0.100
G1 F240 X10.364 Y23.783 Z-0.100
G1 F240 X10.396 Y23.851 Z-0.100
G1 F240 X10.726 Y24.345 Z-0.100
G1 F240 X10.836 Y24.897 Z-0.100
G1 F240 X10.726 Y25.448 Z-0.100
G1 F240 X10.404 Y25.930 Z-0.100
G1 F240 X10.369 Y25.990 Z-0.100
G1 F240 X10.359 Y26.025 Z-0.100
G1 F240 X10.354 Y26.038 Z-0.100
G1 F240 X10.331 Y26.124 Z-0.100
G1 F240 X10.335 Y26.167 Z-0.100
G1 F240 X10.334 Y26.175 Z-0.100
G1 F240 X10.343 Y26.268 Z-0.100
G1 F240 X10.359 Y26.308 Z-0.100
G1 F240 X10.364 Y26.323 Z-0.100
G1 F240 X10.396 Y26.390 Z-0.100
G1 F240 X10.426 Y26.436 Z-0.100
G1 F240 X10.457 Y26.469 Z-0.100
G1 F240 X10.475 Y26.489 Z-0.100
G1 F240 X10.523 Y26.535 Z-0.100
G1 F240 X10.572 Y26.558 Z-0.100
G1 F240 X10.592 Y26.570 Z-0.100
G1 F240 X10.657 Y26.598 Z-0.100
G1 F240 X10.711 Y26.604 Z-0.100
G1 F240 X10.753 Y26.612 Z-0.100
G1 F240 X12.835 Y26.612 Z-0.100
G1 F240 X12.888 Y26.609 Z-0.100
G1 F240 X12.927 Y26.598 Z-0.100
G1 F240 X12.947 Y26.595 Z-0.100
G1 F240 X13.020 Y26.571 Z-0.100
G1 F240 X13.061 Y26.543 Z-0.100
G1 F240 X13.079 Y26.533 Z-0.100
G1 F240 X13.128 Y26.494 Z-0.100
G1 F240 X19.979 Y19.644 Z-0.100
G1 F240 X20.000 Y19.615 Z-0.100
G1 F240 X20.013 Y19.600 Z-0.100
G1 F240 X20.056 Y19.532 Z-0.100
G1 F240 X20.068 Y19.487 Z-0.100
G1 F240 X20.081 Y19.456 Z-0.100
G1 F240 X20.205 Y18.833 Z-0.100
G1 F240 X20.517 Y18.366 Z-0.100
G1 F240 X20.631 Y18.289 Z-0.100
G1 F240 X20.645 Y18.276 Z-0.100
G1 F240 X20.670 Y18.259 Z-0.100
G1 F240 X20.696 Y18.227 Z-0.100
G1 F240 X20.704 Y18.219 Z-0.100
G1 F240 X20.764 Y18.137 Z-0.100
G1 F240 X20.774 Y18.102 Z-0.100
G1 F240 X20.792 Y18.067 Z-0.100
G1 F240 X20.796 Y18.030 Z-0.100
G1 F240 X20.806 Y17.998 Z-0.100
G1 F240 X20.804 Y17.957 Z-0.100
G1 F240 X20.807 Y17.917 Z-0.100
G1 F240 X20.800 Y17.885 Z-0.100
G1 F240 X20.798 Y17.852 Z-0.100
G1 F240 X20.784 Y17.815 Z-0.100
G1 F240 X20.782 Y17.808 Z-0.100
G1 F240 X20.747 Y17.729 Z-0.100
G1 F240 X20.471 Y17.299 Z-0.100
G1 F240 X20.569 Y17.299 Z-0.100
G1 F240 X20.600 Y17.385 Z-0.100
G1 F240 X20.842 Y17.672 Z-0.100
G1 F240 X21.167 Y17.860 Z-0.100
G1 F240 X21.443 Y17.908 Z-0.100
G1 F240 X21.934 Y17.908 Z-0.100
G1 F240 X22.210 Y17.860 Z-0.100
G1 F240 X22.535 Y17.672 Z-0.100
G1 F240 X22.776 Y17.385 Z-0.100
G1 F240 X22.807 Y17.299 Z-0.100
G1 F240 X22.905 Y17.299 Z-0.100
G1 F240 X22.638 Y17.715 Z-0.100
G1 F240 X22.600 Y17.787 Z-0.100
G1 F240 X22.593 Y17.815 Z-0.100
G1 F240 X22.579 Y17.852 Z-0.100
G1 F240 X22.577 Y17.885 Z-0.100
G1 F240 X22.569 Y17.917 Z-0.100
G1 F240 X22.573 Y17.957 Z-0.100
G1 F240 X22.571 Y17.998 Z-0.100
G1 F240 X22.581 Y18.030 Z-0.100
G1 F240 X22.585 Y18.067 Z-0.100
G1 F240 X22.603 Y18.102 Z-0.100
G1 F240 X22.603 Y18.104 Z-0.100
G1 F240 X22.650 Y18.197 Z-0.100
G1 F240 X22.680 Y18.227 Z-0.100
G1 F240 X22.706 Y18.259 Z-0.100
G1 F240 X22.732 Y18.276 Z-0.100
G1 F240 X22.746 Y18.289 Z-0.100
G1 F240 X22.860 Y18.366 Z-0.100
G1 F240 X23.172 Y18.833 Z-0.100
G1 F240 X23.282 Y19.385 Z-0.100
G1 F240 X23.172 Y19.936 Z-0.100
G1 F240 X22.850 Y20.419 Z-0.100
G1 F240 X22.815 Y20.479 Z-0.100
G1 F240 X22.805 Y20.513 Z-0.100
G1 F240 X22.800 Y20.527 Z-0.100
G1 F240 X22.777 Y20.613 Z-0.100
G1 F240 X22.781 Y20.655 Z-0.100
G1 F240 X22.780 Y20.663 Z-0.100
G1 F240 X22.789 Y20.757 Z-0.100
G1 F240 X22.805 Y20.796 Z-0.100
G1 F240 X22.810 Y20.811 Z-0.100
G1 F240 X22.842 Y20.879 Z-0.100
G1 F240 X23.172 Y21.373 Z-0.100
G1 F240 X23.282 Y21.925 Z-0.100
G1 F240 X23.172 Y22.476 Z-0.100
G1 F240 X22.850 Y22.959 Z-0.100
G1 F240 X22.815 Y23.019 Z-0.100
G1 F240 X22.805 Y23.053 Z-0.100
G1 F240 X22.800 Y23.067 Z-0.100
G1 F240 X22.777 Y23.153 Z-0.100
G1 F240 X22.781 Y23.195 Z-0.100
G1 F240 X22.780 Y23.203 Z-0.100
G1 F240 X22.789 Y23.297 Z-0.100
G1 F240 X22.805 Y23.336 Z-0.100
G1 F240 X22.810 Y23.351 Z-0.100
G1 F240 X22.842 Y23.419 Z-0.100
G1 F240 X23.172 Y23.913 Z-0.100
G1 F240 X23.282 Y24.465 Z-0.100
G1 F240 X23.172 Y25.016 Z-0.100
G1 F240 X22.850 Y25.499 Z-0.100
G1 F240 X22.815 Y25.559 Z-0.100
G1 F240 X22.805 Y25.593 Z-0.100
G1 F240 X22.800 Y25.607 Z-0.100
G1 F240 X22.777 Y25.693 Z-0.100
G1 F240 X22.781 Y25.735 Z-0.100
G1 F240 X22.780 Y25.743 Z-0.100
G1 F240 X22.789 Y25.837 Z-0.100
G1 F240 X22.805 Y25.876 Z-0.100
G1 F240 X22.810 Y25.891 Z-0.100
G1 F240 X22.842 Y25.959 Z-0.100
G1 F240 X23.172 Y26.453 Z-0.100
G1 F240 X23.282 Y27.005 Z-0.100
G1 F240 X23.172 Y27.556 Z-0.100
G1 F240 X22.850 Y28.039 Z-0.100
G1 F240 X22.815 Y28.099 Z-0.100
G1 F240 X22.805 Y28.133 Z-0.100
G1 F240 X22.800 Y28.147 Z-0.100
G1 F240 X22.777 Y28.233 Z-0.100
G1 F240 X22.781 Y28.275 Z-0.100
G1 F240 X22.780 Y28.283 Z-0.100
G1 F240 X22.789 Y28.377 Z-0.100
G1 F240 X22.805 Y28.416 Z-0.100
G1 F240 X22.810 Y28.431 Z-0.100
G1 F240 X22.842 Y28.499 Z-0.100
G1 F240 X23.172 Y28.993 Z-0.100
G1 F240 X23.282 Y29.545 Z-0.100
G1 F240 X23.172 Y30.096 Z-0.100
G1 F240 X22.850 Y30.579 Z-0.100
G1 F240 X22.815 Y30.639 Z-0.100
G1 F240 X22.805 Y30.673 Z-0.100
G1 F240 X22.800 Y30.687 Z-0.100
G1 F240 X22.777 Y30.773 Z-0.100
G1 F240 X22.781 Y30.815 Z-0.100
G1 F240 X22.780 Y30.823 Z-0.100
G1 F240 X22.789 Y30.917 Z-0.100
G1 F240 X22.805 Y30.956 Z-0.100
G1 F240 X22.810 Y30.971 Z-0.100
G1 F240 X22.842 Y31.039 Z-0.100
G1 F240 X23.172 Y31.533 Z-0.100
G1 F240 X23.282 Y32.085 Z-0.100
G1 F240 X23.172 Y32.636 Z-0.100
G1 F240 X22.850 Y33.119 Z-0.100
G1 F240 X22.815 Y33.179 Z-0.100
G1 F240 X22.805 Y33.213 Z-0.100
G1 F240 X22.800 Y33.227 Z-0.100
G1 F240 X22.777 Y33.313 Z-0.100
G1 F240 X22.781 Y33.355 Z-0.100
G1 F240 X22.780 Y33.363 Z-0.100
G1 F240 X22.789 Y33.457 Z-0.100
G1 F240 X22.805 Y33.496 Z-0.100
G1 F240 X22.810 Y33.511 Z-0.100
G1 F240 X22.842 Y33.579 Z-0.100
G1 F240 X23.172 Y34.073 Z-0.100
G1 F240 X23.282 Y34.625 Z-0.100
G1 F240 X23.172 Y35.176 Z-0.100
G1 F240 X22.850 Y35.659 Z-0.100
G1 F240 X22.815 Y35.719 Z-0.100
G1 F240 X22.805 Y35.753 Z-0.100
G1 F240 X22.800 Y35.767 Z-0.100
G1 F240 X22.777 Y35.853 Z-0.100
G1 F240 X22.781 Y35.895 Z-0.100
G1 F240 X22.780 Y35.903 Z-0.100
G1 F240 X22.789 Y35.997 Z-0.100
G1 F240 X22.805 Y36.036 Z-0.100
G1 F240 X22.810 Y36.051 Z-0.100
G1 F240 X22.842 Y36.119 Z-0.100
G1 F240 X23.172 Y36.613 Z-0.100
G1 F240 X23.282 Y37.165 Z-0.100
G1 F240 X23.172 Y37.716 Z-0.100
G1 F240 X22.850 Y38.199 Z-0.100
G1 F240 X22.815 Y38.258 Z-0.100
G1 F240 X22.805 Y38.294 Z-0.100
G1 F240 X22.799 Y38.309 Z-0.100
G1 F240 X22.777 Y38.394 Z-0.100
G1 F240 X22.781 Y38.435 Z-0.100
G1 F240 X22.780 Y38.442 Z-0.100
G1 F240 X22.789 Y38.535 Z-0.100
G1 F240 X22.805 Y38.575 Z-0.100
G1 F240 X22.809 Y38.591 Z-0.100
G1 F240 X22.842 Y38.659 Z-0.100
G1 F240 X23.172 Y39.153 Z-0.100
G1 F240 X23.282 Y39.705 Z-0.100
G1 F240 X23.172 Y40.257 Z-0.100
G1 F240 X22.850 Y40.739 Z-0.100
G1 F240 X22.815 Y40.798 Z-0.100
G1 F240 X22.805 Y40.834 Z-0.100
G1 F240 X22.799 Y40.849 Z-0.100
G1 F240 X22.777 Y40.934 Z-0.100
G1 F240 X22.781 Y40.975 Z-0.100
G1 F240 X22.780 Y40.982 Z-0.100
G1 F240 X22.789 Y41.075 Z-0.100
G1 F240 X22.805 Y41.115 Z-0.100
G1 F240 X22.809 Y41.131 Z-0.100
G1 F240 X22.842 Y41.199 Z-0.100
G1 F240 X23.172 Y41.693 Z-0.100
G1 F240 X23.282 Y42.245 Z-0.100
G1 F240 X23.172 Y42.797 Z-0.100
G1 F240 X22.850 Y43.279 Z-0.100
G1 F240 X22.815 Y43.338 Z-0.100
G1 F240 X22.805 Y43.374 Z-0.100
G1 F240 X22.799 Y43.389 Z-0.100
G1 F240 X22.777 Y43.474 Z-0.100
G1 F240 X22.781 Y43.515 Z-0.100
G1 F240 X22.780 Y43.522 Z-0.100
G1 F240 X22.789 Y43.615 Z-0.100
G1 F240 X22.805 Y43.655 Z-0.100
G1 F240 X22.809 Y43.671 Z-0.100
G1 F240 X22.842 Y43.739 Z-0.100
G1 F240 X23.172 Y44.233 Z-0.100
G1 F240 X23.282 Y44.785 Z-0.100
G1 F240 X23.172 Y45.337 Z-0.100
G1 F240 X22.996 Y45.599 Z-0.100
G1 F240 X22.975 Y45.648 Z-0.100
G1 F240 X22.960 Y45.680 Z-0.100
G1 F240 X22.944 Y45.733 Z-0.100
G1 F240 X22.939 Y45.787 Z-0.100
G1 F240 X22.936 Y45.825 Z-0.100
G1 F240 X22.940 Y45.887 Z-0.100
G1 F240 X22.953 Y45.933 Z-0.100
G1 F240 X22.962 Y45.966 Z-0.100
G1 F240 X22.978 Y46.016 Z-0.100
G1 F240 X23.018 Y46.068 Z-0.100
G1 F240 X23.046 Y46.109 Z-0.100
G1 F240 X23.231 Y46.294 Z-0.100
G1 F240 X23.508 Y46.963 Z-0.100
G1 F240 X23.508 Y47.687 Z-0.100
G1 F240 X23.236 Y48.342 Z-0.100
G1 F240 X23.230 Y48.372 Z-0.100
G1 F240 X23.226 Y48.383 Z-0.100
G1 F240 X23.208 Y48.474 Z-0.100
G1 F240 X23.215 Y48.519 Z-0.100
G1 F240 X23.215 Y48.527 Z-0.100
G1 F240 X23.230 Y48.619 Z-0.100
G1 F240 X23.249 Y48.656 Z-0.100
G1 F240 X23.252 Y48.665 Z-0.100
G1 F240 X23.298 Y48.749 Z-0.100
G1 F240 X23.333 Y48.781 Z-0.100
G1 F240 X23.343 Y48.793 Z-0.100
G1 F240 X23.410 Y48.851 Z-0.100
G1 F240 X23.452 Y48.868 Z-0.100
G1 F240 X23.460 Y48.872 Z-0.100
G1 F240 X23.547 Y48.906 Z-0.100
G1 F240 X23.592 Y48.908 Z-0.100
G1 F240 X23.620 Y48.913 Z-0.100
G1 F240 X25.234 Y48.913 Z-0.100
G1 F240 X25.285 Y48.910 Z-0.100
G1 F240 X25.327 Y48.900 Z-0.100
G1 F240 X25.352 Y48.895 Z-0.100
G1 F240 X25.420 Y48.873 Z-0.100
G1 F240 X25.461 Y48.843 Z-0.100
G1 F240 X25.479 Y48.833 Z-0.100
G1 F240 X25.527 Y48.796 Z-0.100
G1 F240 X32.423 Y41.900 Z-0.100
G1 F240 X32.457 Y41.863 Z-0.100
G1 F240 X32.478 Y41.827 Z-0.100
G1 F240 X32.490 Y41.810 Z-0.100
G1 F240 X32.524 Y41.742 Z-0.100
G1 F240 X32.534 Y41.692 Z-0.100
G1 F240 X32.540 Y41.668 Z-0.100
G1 F240 X32.547 Y41.612 Z-0.100
G1 F240 X32.547 Y18.940 Z-0.100
G1 F240 X32.543 Y18.918 Z-0.100
G1 F240 X32.543 Y18.894 Z-0.100
G1 F240 X32.531 Y18.834 Z-0.100
G1 F240 X32.593 Y18.524 Z-0.100
G1 F240 X32.595 Y18.513 Z-0.100
G1 F240 X32.689 Y18.371 Z-0.100
G1 F240 X32.754 Y18.274 Z-0.100
G1 F240 X32.778 Y18.240 Z-0.100
G1 F240 X32.826 Y18.207 Z-0.100
G1 F240 X32.844 Y18.191 Z-0.100
G1 F240 X32.864 Y18.176 Z-0.100
G1 F240 X34.703 Y16.337 Z-0.100
G1 F240 X34.718 Y16.316 Z-0.100
G1 F240 X34.735 Y16.298 Z-0.100
G1 F240 X34.767 Y16.250 Z-0.100
G1 F240 X35.040 Y16.068 Z-0.100
G1 F240 X35.322 Y16.012 Z-0.100
G1 F240 X35.368 Y16.002 Z-0.100
G1 F240 X35.418 Y16.003 Z-0.100
G1 F240 X35.428 Y16.002 Z-0.100
G1 F240 X35.440 Y16.002 Z-0.100
G1 F240 X35.533 Y15.990 Z-0.100
G1 F240 X35.573 Y15.970 Z-0.100
G1 F240 X35.583 Y15.966 Z-0.100
G1 F240 X35.665 Y15.923 Z-0.100
G1 F240 X35.692 Y15.896 Z-0.100
G1 F240 X35.710 Y15.880 Z-0.100
G1 F240 X35.759 Y15.823 Z-0.100
G1 F240 X35.772 Y15.803 Z-0.100
G1 F240 X35.803 Y15.745 Z-0.100
G1 F240 X35.811 Y15.718 Z-0.100
G1 F240 X35.817 Y15.703 Z-0.100
G1 F240 X35.839 Y15.617 Z-0.100
G1 F240 X35.836 Y15.575 Z-0.100
G1 F240 X35.837 Y15.566 Z-0.100
G1 F240 X35.827 Y15.473 Z-0.100
G1 F240 X35.811 Y15.433 Z-0.100
G1 F240 X35.807 Y15.418 Z-0.100
G1 F240 X35.774 Y15.350 Z-0.100
G1 F240 X35.445 Y14.856 Z-0.100
G1 F240 X35.334 Y14.305 Z-0.100
G1 F240 X35.445 Y13.753 Z-0.100
G1 F240 X35.757 Y13.286 Z-0.100
G1 F240 X35.871 Y13.209 Z-0.100
G1 F240 X35.885 Y13.196 Z-0.100
G1 F240 X35.910 Y13.179 Z-0.100
G1 F240 X35.936 Y13.147 Z-0.100
G1 F240 X35.944 Y13.139 Z-0.100
G1 F240 X36.004 Y13.057 Z-0.100
G1 F240 X36.014 Y13.022 Z-0.100
G1 F240 X36.032 Y12.987 Z-0.100
G1 F240 X36.036 Y12.950 Z-0.100
G1 F240 X36.046 Y12.918 Z-0.100
G1 F240 X36.044 Y12.877 Z-0.100
G1 F240 X36.047 Y12.837 Z-0.100
G1 F240 X36.040 Y12.805 Z-0.100
G1 F240 X36.038 Y12.772 Z-0.100
G1 F240 X36.024 Y12.735 Z-0.100
G1 F240 X36.022 Y12.728 Z-0.100
G1 F240 X35.987 Y12.649 Z-0.100
G1 F240 X35.711 Y12.219 Z-0.100
G1 F240 X35.809 Y12.219 Z-0.100
G1 F240 X35.840 Y12.305 Z-0.100
G1 F240 X36.082 Y12.592 Z-0.100
G1 F240 X36.407 Y12.780 Z-0.100
G1 F240 X36.683 Y12.828 Z-0.100
G1 F240 X37.174 Y12.828 Z-0.100
G1 F240 X37.450 Y12.780 Z-0.100
G1 F240 X37.775 Y12.592 Z-0.100
G1 F240 X38.016 Y12.305 Z-0.100
G1 F240 X38.047 Y12.219 Z-0.100
G1 F240 X38.145 Y12.219 Z-0.100
G1 F240 X37.878 Y12.635 Z-0.100
G1 F240 X37.840 Y12.707 Z-0.100
G1 F240 X37.833 Y12.735 Z-0.100
G1 F240 X37.819 Y12.772 Z-0.100
G1 F240 X37.817 Y12.805 Z-0.100
G1 F240 X37.809 Y12.837 Z-0.100
G1 F240 X37.813 Y12.877 Z-0.100
G1 F240 X37.811 Y12.918 Z-0.100
G1 F240 X37.821 Y12.950 Z-0.100
G1 F240 X37.825 Y12.987 Z-0.100
G1 F240 X37.843 Y13.022 Z-0.100
G1 F240 X37.843 Y13.024 Z-0.100
G1 F240 X37.890 Y13.117 Z-0.100
G1 F240 X37.920 Y13.147 Z-0.100
G1 F240 X37.946 Y13.179 Z-0.100
G1 F240 X37.972 Y13.196 Z-0.100
G1 F240 X37.986 Y13.209 Z-0.100
G1 F240 X38.100 Y13.286 Z-0.100
G1 F240 X38.344 Y13.651 Z-0.100
G1 F240 X38.380 Y13.698 Z-0.100
G1 F240 X38.408 Y13.722 Z-0.100
G1 F240 X38.421 Y13.736 Z-0.100
G1 F240 X38.488 Y13.787 Z-0.100
G1 F240 X38.531 Y13.803 Z-0.100
G1 F240 X38.545 Y13.810 Z-0.100
G1 F240 X38.627 Y13.836 Z-0.100
G1 F240 X38.675 Y13.836 Z-0.100
G1 F240 X38.691 Y13.838 Z-0.100
G1 F240 X38.776 Y13.835 Z-0.100
G1 F240 X38.819 Y13.819 Z-0.100
G1 F240 X38.834 Y13.815 Z-0.100
G1 F240 X38.916 Y13.783 Z-0.100
G1 F240 X38.951 Y13.752 Z-0.100
G1 F240 X38.962 Y13.745 Z-0.100
G1 F240 X39.026 Y13.687 Z-0.100
G1 F240 X39.050 Y13.647 Z-0.100
G1 F240 X39.061 Y13.633 Z-0.100
G1 F240 X39.100 Y13.557 Z-0.100
G1 F240 X39.108 Y13.513 Z-0.100
G1 F240 X39.112 Y13.498 Z-0.100
G1 F240 X39.122 Y13.428 Z-0.100
G1 F240 X39.122 Y10.115 Z-0.100
G1 F240 X39.119 Y10.053 Z-0.100
G1 F240 X39.108 Y10.016 Z-0.100
G1 F240 X39.105 Y10.001 Z-0.100
G1 F240 X39.080 Y9.923 Z-0.100
G1 F240 X39.050 Y9.882 Z-0.100
G1 F240 X39.041 Y9.867 Z-0.100
G1 F240 X38.990 Y9.802 Z-0.100
G1 F240 X38.951 Y9.777 Z-0.100
G1 F240 X38.942 Y9.769 Z-0.100
G1 F240 X38.866 Y9.722 Z-0.100
G1 F240 X38.819 Y9.710 Z-0.100
G1 F240 X38.805 Y9.705 Z-0.100
G1 F240 X38.722 Y9.688 Z-0.100
G1 F240 X38.675 Y9.693 Z-0.100
G1 F240 X38.658 Y9.693 Z-0.100
G1 F240 X38.574 Y9.705 Z-0.100
G1 F240 X38.531 Y9.727 Z-0.100
G1 F240 X38.516 Y9.732 Z-0.100
G1 F240 X38.443 Y9.772 Z-0.100
G1 F240 X38.408 Y9.807 Z-0.100
G1 F240 X38.394 Y9.819 Z-0.100
G1 F240 X38.351 Y9.867 Z-0.100
G1 F240 X38.100 Y10.244 Z-0.100
G1 F240 X37.986 Y10.320 Z-0.100
G1 F240 X37.972 Y10.333 Z-0.100
G1 F240 X37.946 Y10.350 Z-0.100
G1 F240 X37.920 Y10.382 Z-0.100
G1 F240 X37.912 Y10.390 Z-0.100
G1 F240 X37.853 Y10.472 Z-0.100
G1 F240 X37.843 Y10.508 Z-0.100
G1 F240 X37.825 Y10.542 Z-0.100
G1 F240 X37.821 Y10.579 Z-0.100
G1 F240 X37.811 Y10.611 Z-0.100
G1 F240 X37.813 Y10.653 Z-0.100
G1 F240 X37.809 Y10.693 Z-0.100
G1 F240 X37.817 Y10.725 Z-0.100
G1 F240 X37.819 Y10.758 Z-0.100
G1 F240 X37.833 Y10.794 Z-0.100
G1 F240 X37.835 Y10.801 Z-0.100
G1 F240 X37.869 Y10.881 Z-0.100
G1 F240 X38.145 Y11.311 Z-0.100
G1 F240 X38.047 Y11.311 Z-0.100
G1 F240 X38.016 Y11.225 Z-0.100
G1 F240 X37.775 Y10.937 Z-0.100
G1 F240 X37.450 Y10.750 Z-0.100
G1 F240 X37.174 Y10.701 Z-0.100
G1 F240 X36.683 Y10.701 Z-0.100
G1 F240 X36.407 Y10.750 Z-0.100
G1 F240 X36.082 Y10.937 Z-0.100
G1 F240 X35.840 Y11.225 Z-0.100
G1 F240 X35.809 Y11.311 Z-0.100
G1 F240 X35.711 Y11.311 Z-0.100
G1 F240 X35.979 Y10.894 Z-0.100
G1 F240 X36.017 Y10.823 Z-0.100
G1 F240 X36.024 Y10.794 Z-0.100
G1 F240 X36.038 Y10.758 Z-0.100
G1 F240 X36.040 Y10.725 Z-0.100
G1 F240 X36.047 Y10.693 Z-0.100
G1 F240 X36.044 Y10.653 Z-0.100
G1 F240 X36.046 Y10.611 Z-0.100
G1 F240 X36.036 Y10.579 Z-0.100
G1 F240 X36.032 Y10.542 Z-0.100
G1 F240 X36.014 Y10.508 Z-0.100
G1 F240 X36.013 Y10.506 Z-0.100
G1 F240 X35.966 Y10.413 Z-0.100
G1 F240 X35.936 Y10.382 Z-0.100
G1 F240 X35.910 Y10.350 Z-0.100
G1 F240 X35.885 Y10.333 Z-0.100
G1 F240 X35.871 Y10.320 Z-0.100
G1 F240 X35.757 Y10.244 Z-0.100
G1 F240 X35.445 Y9.776 Z-0.100
G1 F240 X35.334 Y9.225 Z-0.100
G1 F240 X35.445 Y8.673 Z-0.100
G1 F240 X35.620 Y8.410 Z-0.100
G1 F240 X35.642 Y8.362 Z-0.100
G1 F240 X35.657 Y8.329 Z-0.100
G1 F240 X35.673 Y8.278 Z-0.100
G1 F240 X35.678 Y8.222 Z-0.100
G1 F240 X35.681 Y8.185 Z-0.100
G1 F240 X35.677 Y8.123 Z-0.100
G1 F240 X35.663 Y8.077 Z-0.100
G1 F240 X35.655 Y8.044 Z-0.100
G1 F240 X35.637 Y7.992 Z-0.100
G1 F240 X35.600 Y7.942 Z-0.100
G1 F240 X35.570 Y7.900 Z-0.100
G1 F240 X35.386 Y7.716 Z-0.100
G1 F240 X35.108 Y7.047 Z-0.100
G1 F240 X35.108 Y6.323 Z-0.100
G1 F240 X35.386 Y5.654 Z-0.100
G1 F240 X35.708 Y5.331 Z-0.100
G1 F240 X35.730 Y5.300 Z-0.100
G1 F240 X35.743 Y5.284 Z-0.100
G1 F240 X35.784 Y5.220 Z-0.100
G1 F240 X35.798 Y5.171 Z-0.100
G1 F240 X35.805 Y5.150 Z-0.100
G1 F240 X35.821 Y5.075 Z-0.100
G1 F240 X35.817 Y5.026 Z-0.100
G1 F240 X35.817 Y5.004 Z-0.100
G1 F240 X35.805 Y4.926 Z-0.100
G1 F240 X35.786 Y4.883 Z-0.100
G1 F240 X35.778 Y4.862 Z-0.100
G1 F240 X35.742 Y4.794 Z-0.100
G1 F240 X35.708 Y4.759 Z-0.100
G1 F240 X35.693 Y4.742 Z-0.100
G1 F240 X35.636 Y4.690 Z-0.100
G1 F240 X35.591 Y4.668 Z-0.100
G1 F240 X35.571 Y4.657 Z-0.100
G1 F240 X35.500 Y4.629 Z-0.100
G1 F240 X35.451 Y4.624 Z-0.100
G1 F240 X35.413 Y4.618 Z-0.100
G1 F240 X23.204 Y4.618 Z-0.100
G1 F240 X23.166 Y4.624 Z-0.100
G1 F240 X23.145 Y4.626 Z-0.100
G1 F240 X23.070 Y4.643 Z-0.100
G1 F240 X23.027 Y4.668 Z-0.100
G1 F240 X23.009 Y4.677 Z-0.100
G1 F240 X22.943 Y4.718 Z-0.100
G1 F240 X22.909 Y4.759 Z-0.100
G1 F240 X22.893 Y4.775 Z-0.100
G1 F240 X22.849 Y4.833 Z-0.100
G1 F240 X22.831 Y4.883 Z-0.100
G1 F240 X22.822 Y4.903 Z-0.100
G1 F240 X22.799 Y4.972 Z-0.100
G1 F240 X22.799 Y5.026 Z-0.100
G1 F240 X22.798 Y5.049 Z-0.100
G1 F240 X22.801 Y5.121 Z-0.100
G1 F240 X22.819 Y5.171 Z-0.100
G1 F240 X22.825 Y5.192 Z-0.100
G1 F240 X22.854 Y5.261 Z-0.100
G1 F240 X22.887 Y5.300 Z-0.100
G1 F240 X22.909 Y5.331 Z-0.100
G1 F240 X23.231 Y5.654 Z-0.100
G1 F240 X23.508 Y6.323 Z-0.100
G1 F240 X23.508 Y7.047 Z-0.100
G1 F240 X23.231 Y7.716 Z-0.100
G1 F240 X23.046 Y7.900 Z-0.100
G1 F240 X23.017 Y7.942 Z-0.100
G1 F240 X22.997 Y7.970 Z-0.100
G1 F240 X22.968 Y8.020 Z-0.100
G1 F240 X22.953 Y8.077 Z-0.100
G1 F240 X22.944 Y8.109 Z-0.100
G1 F240 X22.933 Y8.154 Z-0.100
G1 F240 X22.939 Y8.222 Z-0.100
G1 F240 X22.942 Y8.258 Z-0.100
G1 F240 X22.949 Y8.305 Z-0.100
G1 F240 X22.975 Y8.362 Z-0.100
G1 F240 X22.997 Y8.410 Z-0.100
G1 F240 X23.172 Y8.673 Z-0.100
G1 F240 X23.282 Y9.225 Z-0.100
G1 F240 X23.172 Y9.776 Z-0.100
G1 F240 X22.850 Y10.259 Z-0.100
G1 F240 X22.815 Y10.319 Z-0.100
G1 F240 X22.805 Y10.353 Z-0.100
G1 F240 X22.800 Y10.367 Z-0.100
G1 F240 X22.777 Y10.453 Z-0.100
G1 F240 X22.781 Y10.495 Z-0.100
G1 F240 X22.780 Y10.503 Z-0.100
G1 F240 X22.789 Y10.597 Z-0.100
G1 F240 X22.805 Y10.636 Z-0.100
G1 F240 X22.810 Y10.651 Z-0.100
G1 F240 X22.842 Y10.719 Z-0.100
G1 F240 X23.172 Y11.213 Z-0.100
G1 F240 X23.282 Y11.765 Z-0.100
G1 F240 X23.172 Y12.316 Z-0.100
G1 F240 X22.850 Y12.799 Z-0.100
G1 F240 X22.815 Y12.859 Z-0.100
G1 F240 X22.805 Y12.893 Z-0.100
G1 F240 X22.800 Y12.907 Z-0.100
G1 F240 X22.777 Y12.993 Z-0.100
G1 F240 X22.781 Y13.035 Z-0.100
G1 F240 X22.780 Y13.043 Z-0.100
G1 F240 X22.789 Y13.137 Z-0.100
G1 F240 X22.805 Y13.176 Z-0.100
G1 F240 X22.810 Y13.191 Z-0.100
G1 F240 X22.842 Y13.259 Z-0.100
G1 F240 X23.172 Y13.753 Z-0.100
G1 F240 X23.282 Y14.305 Z-0.100
G1 F240 X23.172 Y14.856 Z-0.100
G1 F240 X22.860 Y15.324 Z-0.100
G1 F240 X22.746 Y15.400 Z-0.100
G1 F240 X22.732 Y15.413 Z-0.100
G1 F240 X22.706 Y15.430 Z-0.100
G1 F240 X22.680 Y15.462 Z-0.100
G1 F240 X22.672 Y15.470 Z-0.100
G1 F240 X22.613 Y15.552 Z-0.100
G1 F240 X22.603 Y15.588 Z-0.100
G1 F240 X22.585 Y15.622 Z-0.100
G1 F240 X22.581 Y15.659 Z-0.100
G1 F240 X22.571 Y15.691 Z-0.100
G1 F240 X22.573 Y15.733 Z-0.100
G1 F240 X22.569 Y15.773 Z-0.100
G1 F240 X22.577 Y15.805 Z-0.100
G1 F240 X22.579 Y15.838 Z-0.100
G1 F240 X22.593 Y15.874 Z-0.100
G1 F240 X22.595 Y15.881 Z-0.100
G1 F240 X22.629 Y15.961 Z-0.100
G1 F240 X22.905 Y16.391 Z-0.100
G1 F240 X22.807 Y16.391 Z-0.100
G1 F240 X22.776 Y16.305 Z-0.100
G1 F240 X22.535 Y16.017 Z-0.100
G1 F240 X22.210 Y15.830 Z-0.100
G1 F240 X21.934 Y15.781 Z-0.100
G1 F240 X21.443 Y15.781 Z-0.100
G1 F240 X21.167 Y15.830 Z-0.100
G1 F240 X20.842 Y16.017 Z-0.100
G1 F240 X20.600 Y16.305 Z-0.100
G1 F240 X20.569 Y16.391 Z-0.100
G1 F240 X20.471 Y16.391 Z-0.100
G1 F240 X20.739 Y15.974 Z-0.100
G1 F240 X20.777 Y15.903 Z-0.100
G1 F240 X20.784 Y15.874 Z-0.100
G1 F240 X20.798 Y15.838 Z-0.100
G1 F240 X20.800 Y15.805 Z-0.100
G1 F240 X20.807 Y15.773 Z-0.100
G1 F240 X20.804 Y15.733 Z-0.100
G1 F240 X20.806 Y15.691 Z-0.100
G1 F240 X20.796 Y15.659 Z-0.100
G1 F240 X20.792 Y15.622 Z-0.100
G1 F240 X20.774 Y15.588 Z-0.100
G1 F240 X20.773 Y15.586 Z-0.100
G1 F240 X20.726 Y15.493 Z-0.100
G1 F240 X20.696 Y15.462 Z-0.100
G1 F240 X20.670 Y15.430 Z-0.100
G1 F240 X20.645 Y15.413 Z-0.100
G1 F240 X20.631 Y15.400 Z-0.100
G1 F240 X20.517 Y15.324 Z-0.100
G1 F240 X20.205 Y14.856 Z-0.100
G1 F240 X20.094 Y14.305 Z-0.100
G1 F240 X20.205 Y13.753 Z-0.100
G1 F240 X20.527 Y13.271 Z-0.100
G1 F240 X20.561 Y13.211 Z-0.100
G1 F240 X20.571 Y13.176 Z-0.100
G1 F240 X20.577 Y13.163 Z-0.100
G1 F240 X20.599 Y13.077 Z-0.100
G1 F240 X20.596 Y13.035 Z-0.100
G1 F240 X20.597 Y13.026 Z-0.100
G1 F240 X20.587 Y12.933 Z-0.100
G1 F240 X20.571 Y12.893 Z-0.100
G1 F240 X20.567 Y12.878 Z-0.100
G1 F240 X20.535 Y12.810 Z-0.100
G1 F240 X20.205 Y12.316 Z-0.100
G1 F240 X20.094 Y11.765 Z-0.100
G1 F240 X20.205 Y11.213 Z-0.100
G1 F240 X20.527 Y10.731 Z-0.100
G1 F240 X20.561 Y10.671 Z-0.100
G1 F240 X20.571 Y10.636 Z-0.100
G1 F240 X20.577 Y10.623 Z-0.100
G1 F240 X20.599 Y10.537 Z-0.100
G1 F240 X20.596 Y10.495 Z-0.100
G1 F240 X20.597 Y10.486 Z-0.100
G1 F240 X20.587 Y10.393 Z-0.100
G1 F240 X20.571 Y10.353 Z-0.100
G1 F240 X20.567 Y10.338 Z-0.100
G1 F240 X20.535 Y10.270 Z-0.100
G1 F240 X20.205 Y9.776 Z-0.100
G1 F240 X20.094 Y9.225 Z-0.100
G1 F240 X20.205 Y8.673 Z-0.100
G1 F240 X20.380 Y8.410 Z-0.100
G1 F240 X20.402 Y8.362 Z-0.100
G1 F240 X20.417 Y8.329 Z-0.100
G1 F240 X20.433 Y8.278 Z-0.100
G1 F240 X20.438 Y8.222 Z-0.100
G1 F240 X20.441 Y8.185 Z-0.100
G1 F240 X20.437 Y8.123 Z-0.100
G1 F240 X20.423 Y8.077 Z-0.100
G1 F240 X20.415 Y8.044 Z-0.100
G1 F240 X20.397 Y7.992 Z-0.100
G1 F240 X20.360 Y7.942 Z-0.100
G1 F240 X20.330 Y7.900 Z-0.100
G1 F240 X20.146 Y7.716 Z-0.100
G1 F240 X19.868 Y7.047 Z-0.100
G1 F240 X19.868 Y6.323 Z-0.100
G1 F240 X20.146 Y5.654 Z-0.100
G1 F240 X20.468 Y5.331 Z-0.100
G1 F240 X20.490 Y5.300 Z-0.100
G1 F240 X20.503 Y5.284 Z-0.100
G1 F240 X20.544 Y5.220 Z-0.100
G1 F240 X20.558 Y5.171 Z-0.100
G1 F240 X20.565 Y5.150 Z-0.100
G1 F240 X20.581 Y5.075 Z-0.100
G1 F240 X20.577 Y5.026 Z-0.100
G1 F240 X20.577 Y5.004 Z-0.100
G1 F240 X20.565 Y4.926 Z-0.100
G1 F240 X20.546 Y4.883 Z-0.100
G1 F240 X20.538 Y4.862 Z-0.100
G1 F240 X20.502 Y4.794 Z-0.100
G1 F240 X20.468 Y4.759 Z-0.100
G1 F240 X20.453 Y4.742 Z-0.100
G1 F240 X20.396 Y4.690 Z-0.100
G1 F240 X20.351 Y4.668 Z-0.100
G1 F240 X20.331 Y4.657 Z-0.100
G1 F240 X20.260 Y4.629 Z-0.100
G1 F240 X20.211 Y4.624 Z-0.100
G1 F240 X20.173 Y4.618 Z-0.100
G1 F240 X4.207 Y4.618 Z-0.100
G1 F240 X4.167 Y4.620 Z-0.100
G1 F240 X4.112 Y4.624 Z-0.100
G1 F240 X4.075 Y4.634 Z-0.100
G1 F240 X4.036 Y4.641 Z-0.100
G1 F240 X3.885 Y4.696 Z-0.100
G1 F240 X3.788 Y4.753 Z-0.100
G1 F240 X3.699 Y4.827 Z-0.100
G1 F240 X3.681 Y4.850 Z-0.100
G1 F240 X3.628 Y4.913 Z-0.100
G1 F240 X3.571 Y5.010 Z-0.100
G1 F240 X3.553 Y5.059 Z-0.100
G1 F240 X3.531 Y5.119 Z-0.100
G1 F240 X3.495 Y5.321 Z-0.100
G1 F240 X3.495 Y5.343 Z-0.100
G0 X3.495 Y5.343 Z6.000
G0 X7.224 Y16.262 Z6.000
G1 F240 X7.224 Y16.262 Z0.000
G1 F240 X6.948 Y16.213 Z-0.002
G1 F240 X6.762 Y16.213 Z-0.003
G1 F240 X6.485 Y16.262 Z-0.006
G1 F240 X6.161 Y16.449 Z-0.008
G1 F240 X5.919 Y16.736 Z-0.011
G1 F240 X5.791 Y17.089 Z-0.014
G1 F240 X5.791 Y17.464 Z-0.017
G1 F240 X5.919 Y17.817 Z-0.019
G1 F240 X6.161 Y18.104 Z-0.022
G1 F240 X6.485 Y18.291 Z-0.025
G1 F240 X6.762 Y18.340 Z-0.027
G1 F240 X6.948 Y18.340 Z-0.028
G1 F240 X7.224 Y18.291 Z-0.031
G1 F240 X7.549 Y18.104 Z-0.033
G1 F240 X7.790 Y17.817 Z-0.036
G1 F240 X7.918 Y17.464 Z-0.039
G1 F240 X7.918 Y17.089 Z-0.042
G1 F240 X7.790 Y16.736 Z-0.044
G1 F240 X7.549 Y16.449 Z-0.047
G1 F240 X7.224 Y16.262 Z-0.050
G1 F240 X7.549 Y16.449 Z-0.053
G1 F240 X7.790 Y16.736 Z-0.056
G1 F240 X7.918 Y17.089 Z-0.058
G1 F240 X7.918 Y17.464 Z-0.061
G1 F240 X7.790 Y17.817 Z-0.064
G1 F240 X7.549 Y18.104 Z-0.067
G1 F240 X7.224 Y18.291 Z-0.069
G1 F240 X6.948 Y18.340 Z-0.072
G1 F240 X6.762 Y18.340 Z-0.073
G1 F240 X6.485 Y18.291 Z-0.075
G1 F240 X6.161 Y18.104 Z-0.078
G1 F240 X5.919 Y17.817 Z-0.081
G1 F240 X5.791 Y17.464 Z-0.083
G1 F240 X5.791 Y17.089 Z-0.086
G1 F240 X5.919 Y16.736 Z-0.089
G1 F240 X6.161 Y16.449 Z-0.092
G1 F240 X6.485 Y16.262 Z-0.094
G1 F240 X6.762 Y16.213 Z-0.097
G1 F240 X6.948 Y16.213 Z-0.098
G1 F240 X7.224 Y16.262 Z-0.100
G1 F240 X6.948 Y16.213 Z-0.100
G1 F240 X6.762 Y16.213 Z-0.100
G1 F240 X6.485 Y16.262 Z-0.100
G1 F240 X6.161 Y16.449 Z-0.100
G1 F240 X5.919 Y16.736 Z-0.100
G1 F240 X5.791 Y17.089 Z-0.100
G1 F240 X5.791 Y17.464 Z-0.100
G1 F240 X5.919 Y17.817 Z-0.100
G1 F240 X6.161 Y18.104 Z-0.100
G1 F240 X6.485 Y18.291 Z-0.100
G1 F240 X6.762 Y18.340 Z-0.100
G1 F240 X6.948 Y18.340 Z-0.100
G1 F240 X7.224 Y18.291 Z-0.100
G1 F240 X7.549 Y18.104 Z-0.100
G1 F240 X7.790 Y17.817 Z-0.100
G1 F240 X7.918 Y17.464 Z-0.100
G1 F240 X7.918 Y17.089 Z-0.100
G1 F240 X7.790 Y16.736 Z-0.100
G1 F240 X7.549 Y16.449 Z-0.100
G1 F240 X7.224 Y16.262 Z-0.100
G0 X7.224 Y16.262 Z6.000
G0 X9.764 Y16.262 Z6.000
G1 F240 X9.764 Y16.262 Z0.000
G1 F240 X9.488 Y16.213 Z-0.002
G1 F240 X9.302 Y16.213 Z-0.003
G1 F240 X9.025 Y16.262 Z-0.006
G1 F240 X8.701 Y16.449 Z-0.008
G1 F240 X8.459 Y16.736 Z-0.011
G1 F240 X8.331 Y17.089 Z-0.014
G1 F240 X8.331 Y17.464 Z-0.017
G1 F240 X8.459 Y17.817 Z-0.019
G1 F240 X8.701 Y18.104 Z-0.022
G1 F240 X9.025 Y18.291 Z-0.025
G1 F240 X9.302 Y18.340 Z-0.027
G1 F240 X9.488 Y18.340 Z-0.028
G1 F240 X9.764 Y18.291 Z-0.031
G1 F240 X10.089 Y18.104 Z-0.033
G1 F240 X10.330 Y17.817 Z-0.036
G1 F240 X10.458 Y17.464 Z-0.039
G1 F240 X10.458 Y17.089 Z-0.042
G1 F240 X10.330 Y16.736 Z-0.044
G1 F240 X10.089 Y16.449 Z-0.047
G1 F240 X9.764 Y16.262 Z-0.050
G1 F240 X10.089 Y16.449 Z-0.053
G1 F240 X10.330 Y16.736 Z-0.056
G1 F240 X10.458 Y17.089 Z-0.058
G1 F240 X10.458 Y17.464 Z-0.061
G1 F240 X10.330 Y17.817 Z-0.064
G1 F240 X10.089 Y18.104 Z-0.067
G1 F240 X9.764 Y18.291 Z-0.069
G1 F240 X9.488 Y18.340 Z-0.072
G1 F240 X9.302 Y18.340 Z-0.073
G1 F240 X9.025 Y18.291 Z-0.075
G1 F240 X8.701 Y18.104 Z-0.078
G1 F240 X8.459 Y17.817 Z-0.081
G1 F240 X8.331 Y17.464 Z-0.083
G1 F240 X8.331 Y17.089 Z-0.086
G1 F240 X8.459 Y16.736 Z-0.089
G1 F240 X8.701 Y16.449 Z-0.092
G1 F240 X9.025 Y16.262 Z-0.094
G1 F240 X9.302 Y16.213 Z-0.097
G1 F240 X9.488 Y16.213 Z-0.098
G1 F240 X9.764 Y16.262 Z-0.100
G1 F240 X9.488 Y16.213 Z-0.100
G1 F240 X9.302 Y16.213 Z-0.100
G1 F240 X9.025 Y16.262 Z-0.100
G1 F240 X8.701 Y16.449 Z-0.100
G1 F240 X8.459 Y16.736 Z-0.100
G1 F240 X8.331 Y17.089 Z-0.100
G1 F240 X8.331 Y17.464 Z-0.100
G1 F240 X8.459 Y17.817 Z-0.100
G1 F240 X8.701 Y18.104 Z-0.100
G1 F240 X9.025 Y18.291 Z-0.100
G1 F240 X9.302 Y18.340 Z-0.100
G1 F240 X9.488 Y18.340 Z-0.100
G1 F240 X9.764 Y18.291 Z-0.100
G1 F240 X10.089 Y18.104 Z-0.100
G1 F240 X10.330 Y17.817 Z-0.100
G1 F240 X10.458 Y17.464 Z-0.100
G1 F240 X10.458 Y17.089 Z-0.100
G1 F240 X10.330 Y16.736 Z-0.100
G1 F240 X10.089 Y16.449 Z-0.100
G1 F240 X9.764 Y16.262 Z-0.100
G0 X9.764 Y16.262 Z6.000
G0 X9.764 Y18.802 Z6.000
G1 F240 X9.764 Y18.802 Z0.000
G1 F240 X9.488 Y18.753 Z-0.002
G1 F240 X9.302 Y18.753 Z-0.003
G1 F240 X9.025 Y18.802 Z-0.006
G1 F240 X8.701 Y18.989 Z-0.008
G1 F240 X8.459 Y19.276 Z-0.011
G1 F240 X8.331 Y19.629 Z-0.014
G1 F240 X8.331 Y20.004 Z-0.017
G1 F240 X8.459 Y20.357 Z-0.019
G1 F240 X8.701 Y20.644 Z-0.022
G1 F240 X9.025 Y20.831 Z-0.025
G1 F240 X9.302 Y20.880 Z-0.027
G1 F240 X9.488 Y20.880 Z-0.028
G1 F240 X9.764 Y20.831 Z-0.031
G1 F240 X10.089 Y20.644 Z-0.033
G1 F240 X10.330 Y20.357 Z-0.036
G1 F240 X10.458 Y20.004 Z-0.039
G1 F240 X10.458 Y19.629 Z-0.042
G1 F240 X10.330 Y19.276 Z-0.044
G1 F240 X10.089 Y18.989 Z-0.047
G1 F240 X9.764 Y18.802 Z-0.050
G1 F240 X10.089 Y18.989 Z-0.053
G1 F240 X10.330 Y19.276 Z-0.056
G1 F240 X10.458 Y19.629 Z-0.058
G1 F240 X10.458 Y20.004 Z-0.061
G1 F240 X10.330 Y20.357 Z-0.064
G1 F240 X10.089 Y20.644 Z-0.067
G1 F240 X9.764 Y20.831 Z-0.069
G1 F240 X9.488 Y20.880 Z-0.072
G1 F240 X9.302 Y20.880 Z-0.073
G1 F240 X9.025 Y20.831 Z-0.075
G1 F240 X8.701 Y20.644 Z-0.078
G1 F240 X8.459 Y20.357 Z-0.081
G1 F240 X8.331 Y20.004 Z-0.083
G1 F240 X8.331 Y19.629 Z-0.086
G1 F240 X8.459 Y19.276 Z-0.089
G1 F240 X8.701 Y18.989 Z-0.092
G1 F240 X9.025 Y18.802 Z-0.094
G1 F240 X9.302 Y18.753 Z-0.097
G1 F240 X9.488 Y18.753 Z-0.098
G1 F240 X9.764 Y18.802 Z-0.100
G1 F240 X9.488 Y18.753 Z-0.100
G1 F240 X9.302 Y18.753 Z-0.100
G1 F240 X9.025 Y18.802 Z-0.100
G1 F240 X8.701 Y18.989 Z-0.100
G1 F240 X8.459 Y19.276 Z-0.100
G1 F240 X8.331 Y19.629 Z-0.100
G1 F240 X8.331 Y20.004 Z-0.100
G1 F240 X8.459 Y20.357 Z-0.100
G1 F240 X8.701 Y20.644 Z-0.100
G1 F240 X9.025 Y20.831 Z-0.100
G1 F240 X9.302 Y20.880 Z-0.100
G1 F240 X9.488 Y20.880 Z-0.100
G1 F240 X9.764 Y20.831 Z-0.100
G1 F240 X10.089 Y20.644 Z-0.100
G1 F240 X10.330 Y20.357 Z-0.100
G1 F240 X10.458 Y20.004 Z-0.100
G1 F240 X10.458 Y19.629 Z-0.100
G1 F240 X10.330 Y19.276 Z-0.100
G1 F240 X10.089 Y18.989 Z-0.100
G1 F240 X9.764 Y18.802 Z-0.100
G0 X9.764 Y18.802 Z6.000
G0 X9.764 Y21.342 Z6.000
G1 F240 X9.764 Y21.342 Z0.000
G1 F240 X9.488 Y21.293 Z-0.002
G1 F240 X9.302 Y21.293 Z-0.003
G1 F240 X9.025 Y21.342 Z-0.006
G1 F240 X8.701 Y21.529 Z-0.008
G1 F240 X8.459 Y21.816 Z-0.011
G1 F240 X8.331 Y22.169 Z-0.014
G1 F240 X8.331 Y22.544 Z-0.017
G1 F240 X8.459 Y22.897 Z-0.019
G1 F240 X8.701 Y23.184 Z-0.022
G1 F240 X9.025 Y23.371 Z-0.025
G1 F240 X9.302 Y23.420 Z-0.027
G1 F240 X9.488 Y23.420 Z-0.028
G1 F240 X9.764 Y23.371 Z-0.031
G1 F240 X10.089 Y23.184 Z-0.033
G1 F240 X10.330 Y22.897 Z-0.036
G1 F240 X10.458 Y22.544 Z-0.039
G1 F240 X10.458 Y22.169 Z-0.042
G1 F240 X10.330 Y21.816 Z-0.044
G1 F240 X10.089 Y21.529 Z-0.047
G1 F240 X9.764 Y21.342 Z-0.050
G1 F240 X10.089 Y21.529 Z-0.053
G1 F240 X10.330 Y21.816 Z-0.056
G1 F240 X10.458 Y22.169 Z-0.058
G1 F240 X10.458 Y22.544 Z-0.061
G1 F240 X10.330 Y22.897 Z-0.064
G1 F240 X10.089 Y23.184 Z-0.067
G1 F240 X9.764 Y23.371 Z-0.069
G1 F240 X9.488 Y23.420 Z-0.072
G1 F240 X9.302 Y23.420 Z-0.073
G1 F240 X9.025 Y23.371 Z-0.075
G1 F240 X8.701 Y23.184 Z-0.078
G1 F240 X8.459 Y22.897 Z-0.081
G1 F240 X8.331 Y22.544 Z-0.083
G1 F240 X8.331 Y22.169 Z-0.086
G1 F240 X8.459 Y21.816 Z-0.089
G1 F240 X8.701 Y21.529 Z-0.092
G1 F240 X9.025 Y21.342 Z-0.094
G1 F240 X9.302 Y21.293 Z-0.097
G1 F240 X9.488 Y21.293 Z-0.098
G1 F240 X9.764 Y21.342 Z-0.100
G1 F240 X9.488 Y21.293 Z-0.100
G1 F240 X9.302 Y21.293 Z-0.100
G1 F240 X9.025 Y21.342 Z-0.100
G1 F240 X8.701 Y21.529 Z-0.100
G1 F240 X8.459 Y21.816 Z-0.100
G1 F240 X8.331 Y22.169 Z-0.100
G1 F240 X8.331 Y22.544 Z-0.100
G1 F240 X8.459 Y22.897 Z-0.100
G1 F240 X8.701 Y23.184 Z-0.100
G1 F240 X9.025 Y23.371 Z-0.100
G1 F240 X9.302 Y23.420 Z-0.100
G1 F240 X9.488 Y23.420 Z-0.100
G1 F240 X9.764 Y23.371 Z-0.100
G1 F240 X10.089 Y23.184 Z-0.100
G1 F240 X10.330 Y22.897 Z-0.100
G1 F240 X10.458 Y22.544 Z-0.100
G1 F240 X10.458 Y22.169 Z-0.100
G1 F240 X10.330 Y21.816 Z-0.100
G1 F240 X10.089 Y21.529 Z-0.100
G1 F240 X9.764 Y21.342 Z-0.100
G0 X9.764 Y21.342 Z6.000
G0 X9.764 Y23.882 Z6.000
G1 F240 X9.764 Y23.882 Z0.000
G1 F240 X9.488 Y23.833 Z-0.002
G1 F240 X9.302 Y23.833 Z-0.003
G1 F240 X9.025 Y23.882 Z-0.006
G1 F240 X8.701 Y24.069 Z-0.008
G1 F240 X8.459 Y24.356 Z-0.011
G1 F240 X8.331 Y24.709 Z-0.014
G1 F240 X8.331 Y25.084 Z-0.017
G1 F240 X8.459 Y25.437 Z-0.019
G1 F240 X8.701 Y25.724 Z-0.022
G1 F240 X9.025 Y25.911 Z-0.025
G1 F240 X9.302 Y25.960 Z-0.027
G1 F240 X9.488 Y25.960 Z-0.028
G1 F240 X9.764 Y25.911 Z-0.031
G1 F240 X10.089 Y25.724 Z-0.033
G1 F240 X10.330 Y25.437 Z-0.036
G1 F240 X10.458 Y25.084 Z-0.039
G1 F240 X10.458 Y24.709 Z-0.042
G1 F240 X10.330 Y24.356 Z-0.044
G1 F240 X10.089 Y24.069 Z-0.047
G1 F240 X9.764 Y23.882 Z-0.050
G1 F240 X10.089 Y24.069 Z-0.053
G1 F240 X10.330 Y24.356 Z-0.056
G1 F240 X10.458 Y24.709 Z-0.058
G1 F240 X10.458 Y25.084 Z-0.061
G1 F240 X10.330 Y25.437 Z-0.064
G1 F240 X10.089 Y25.724 Z-0.067
G1 F240 X9.764 Y25.911 Z-0.069
G1 F240 X9.488 Y25.960 Z-0.072
G1 F240 X9.302 Y25.960 Z-0.073
G1 F240 X9.025 Y25.911 Z-0.075
G1 F240 X8.701 Y25.724 Z-0.078
G1 F240 X8.459 Y25.437 Z-0.081
G1 F240 X8.331 Y25.084 Z-0.083
G1 F240 X8.331 Y24.709 Z-0.086
G1 F240 X8.459 Y24.356 Z-0.089
G1 F240 X8.701 Y24.069 Z-0.092
G1 F240 X9.025 Y23.882 Z-0.094
G1 F240 X9.302 Y23.833 Z-0.097
G1 F240 X9.488 Y23.833 Z-0.098
G1 F240 X9.764 Y23.882 Z-0.100
G1 F240 X9.488 Y23.833 Z-0.100
G1 F240 X9.302 Y23.833 Z-0.100
G1 F240 X9.025 Y23.882 Z-0.100
G1 F240 X8.701 Y24.069 Z-0.100
G1 F240 X8.459 Y24.356 Z-0.100
G1 F240 X8.331 Y24.709 Z-0.100
G1 F240 X8.331 Y25.084 Z-0.100
G1 F240 X8.459 Y25.437 Z-0.100
G1 F240 X8.701 Y25.724 Z-0.100
G1 F240 X9.025 Y25.911 Z-0.100
G1 F240 X9.302 Y25.960 Z-0.100
G1 F240 X9.488 Y25.960 Z-0.100
G1 F240 X9.764 Y25.911 Z-0.100
G1 F240 X10.089 Y25.724 Z-0.100
G1 F240 X10.330 Y25.437 Z-0.100
G1 F240 X10.458 Y25.084 Z-0.100
G1 F240 X10.458 Y24.709 Z-0.100
G1 F240 X10.330 Y24.356 Z-0.100
G1 F240 X10.089 Y24.069 Z-0.100
G1 F240 X9.764 Y23.882 Z-0.100
G0 X9.764 Y23.882 Z6.000
G0 X10.354 Y30.452 Z6.000
G1 F240 X10.354 Y30.452 Z0.000
G1 F240 X12.631 Y30.452 Z-0.005
G1 F240 X12.694 Y30.457 Z-0.005
G1 F240 X12.755 Y30.441 Z-0.005
G1 F240 X12.782 Y30.436 Z-0.005
G1 F240 X12.860 Y30.410 Z-0.005
G1 F240 X12.906 Y30.378 Z-0.005
G1 F240 X12.962 Y30.346 Z-0.005
G1 F240 X13.003 Y30.297 Z-0.005
G1 F240 X15.820 Y27.480 Z-0.013
G1 F240 X20.577 Y27.480 Z-0.023
G1 F240 X20.600 Y27.545 Z-0.023
G1 F240 X20.842 Y27.832 Z-0.024
G1 F240 X21.167 Y28.020 Z-0.025
G1 F240 X21.443 Y28.068 Z-0.025
G1 F240 X21.934 Y28.068 Z-0.026
G1 F240 X22.210 Y28.020 Z-0.027
G1 F240 X22.535 Y27.832 Z-0.027
G1 F240 X22.776 Y27.545 Z-0.028
G1 F240 X22.904 Y27.192 Z-0.029
G1 F240 X22.904 Y26.817 Z-0.030
G1 F240 X22.776 Y26.465 Z-0.030
G1 F240 X22.535 Y26.177 Z-0.031
G1 F240 X22.210 Y25.990 Z-0.032
G1 F240 X21.934 Y25.941 Z-0.032
G1 F240 X21.443 Y25.941 Z-0.033
G1 F240 X21.167 Y25.990 Z-0.034
G1 F240 X20.842 Y26.177 Z-0.035
G1 F240 X20.600 Y26.465 Z-0.035
G1 F240 X20.577 Y26.530 Z-0.036
G1 F240 X15.644 Y26.530 Z-0.045
G1 F240 X15.581 Y26.524 Z-0.046
G1 F240 X15.521 Y26.541 Z-0.046
G1 F240 X15.494 Y26.545 Z-0.046
G1 F240 X15.416 Y26.570 Z-0.046
G1 F240 X15.367 Y26.604 Z-0.046
G1 F240 X15.314 Y26.635 Z-0.046
G1 F240 X15.274 Y26.683 Z-0.046
G1 F240 X13.971 Y27.985 Z-0.050
G1 F240 X15.274 Y26.683 Z-0.054
G1 F240 X15.314 Y26.635 Z-0.054
G1 F240 X15.367 Y26.604 Z-0.054
G1 F240 X15.416 Y26.570 Z-0.054
G1 F240 X15.494 Y26.545 Z-0.054
G1 F240 X15.521 Y26.541 Z-0.054
G1 F240 X15.581 Y26.524 Z-0.054
G1 F240 X15.644 Y26.530 Z-0.055
G1 F240 X20.577 Y26.530 Z-0.064
G1 F240 X20.600 Y26.465 Z-0.065
G1 F240 X20.842 Y26.177 Z-0.065
G1 F240 X21.167 Y25.990 Z-0.066
G1 F240 X21.443 Y25.941 Z-0.067
G1 F240 X21.934 Y25.941 Z-0.068
G1 F240 X22.210 Y25.990 Z-0.068
G1 F240 X22.535 Y26.177 Z-0.069
G1 F240 X22.776 Y26.465 Z-0.070
G1 F240 X22.904 Y26.817 Z-0.070
G1 F240 X22.904 Y27.192 Z-0.071
G1 F240 X22.776 Y27.545 Z-0.072
G1 F240 X22.535 Y27.832 Z-0.073
G1 F240 X22.210 Y28.020 Z-0.073
G1 F240 X21.934 Y28.068 Z-0.074
G1 F240 X21.443 Y28.068 Z-0.075
G1 F240 X21.167 Y28.020 Z-0.075
G1 F240 X20.842 Y27.832 Z-0.076
G1 F240 X20.600 Y27.545 Z-0.077
G1 F240 X20.577 Y27.480 Z-0.077
G1 F240 X15.820 Y27.480 Z-0.087
G1 F240 X13.003 Y30.297 Z-0.095
G1 F240 X12.962 Y30.346 Z-0.095
G1 F240 X12.906 Y30.378 Z-0.095
G1 F240 X12.860 Y30.410 Z-0.095
G1 F240 X12.782 Y30.436 Z-0.095
G1 F240 X12.755 Y30.441 Z-0.095
G1 F240 X12.694 Y30.457 Z-0.095
G1 F240 X12.631 Y30.452 Z-0.095
G1 F240 X10.354 Y30.452 Z-0.100
G1 F240 X12.631 Y30.452 Z-0.100
G1 F240 X12.694 Y30.457 Z-0.100
G1 F240 X12.755 Y30.441 Z-0.100
G1 F240 X12.782 Y30.436 Z-0.100
G1 F240 X12.860 Y30.410 Z-0.100
G1 F240 X12.906 Y30.378 Z-0.100
G1 F240 X12.962 Y30.346 Z-0.100
G1 F240 X13.003 Y30.297 Z-0.100
G1 F240 X15.820 Y27.480 Z-0.100
G1 F240 X20.577 Y27.480 Z-0.100
G1 F240 X20.600 Y27.545 Z-0.100
G1 F240 X20.842 Y27.832 Z-0.100
G1 F240 X21.167 Y28.020 Z-0.100
G1 F240 X21.443 Y28.068 Z-0.100
G1 F240 X21.934 Y28.068 Z-0.100
G1 F240 X22.210 Y28.020 Z-0.100
G1 F240 X22.535 Y27.832 Z-0.100
G1 F240 X22.776 Y27.545 Z-0.100
G1 F240 X22.904 Y27.192 Z-0.100
G1 F240 X22.904 Y26.817 Z-0.100
G1 F240 X22.776 Y26.465 Z-0.100
G1 F240 X22.535 Y26.177 Z-0.100
G1 F240 X22.210 Y25.990 Z-0.100
G1 F240 X21.934 Y25.941 Z-0.100
G1 F240 X21.443 Y25.941 Z-0.100
G1 F240 X21.167 Y25.990 Z-0.100
G1 F240 X20.842 Y26.177 Z-0.100
G1 F240 X20.600 Y26.465 Z-0.100
G1 F240 X20.577 Y26.530 Z-0.100
G1 F240 X15.644 Y26.530 Z-0.100
G1 F240 X15.581 Y26.524 Z-0.100
G1 F240 X15.521 Y26.541 Z-0.100
G1 F240 X15.494 Y26.545 Z-0.100
G1 F240 X15.416 Y26.570 Z-0.100
G1 F240 X15.367 Y26.604 Z-0.100
G1 F240 X15.314 Y26.635 Z-0.100
G1 F240 X15.274 Y26.683 Z-0.100
G1 F240 X12.454 Y29.502 Z-0.100
G1 F240 X10.354 Y29.502 Z-0.100
G1 F240 X10.330 Y29.437 Z-0.100
G1 F240 X10.089 Y29.149 Z-0.100
G1 F240 X9.764 Y28.962 Z-0.100
G1 F240 X9.488 Y28.913 Z-0.100
G1 F240 X9.302 Y28.913 Z-0.100
G1 F240 X9.025 Y28.962 Z-0.100
G1 F240 X8.701 Y29.149 Z-0.100
G1 F240 X8.459 Y29.436 Z-0.100
G1 F240 X8.331 Y29.789 Z-0.100
G1 F240 X8.331 Y30.164 Z-0.100
G1 F240 X8.459 Y30.517 Z-0.100
G1 F240 X8.701 Y30.804 Z-0.100
G1 F240 X9.025 Y30.991 Z-0.100
G1 F240 X9.302 Y31.040 Z-0.100
G1 F240 X9.488 Y31.040 Z-0.100
G1 F240 X9.764 Y30.991 Z-0.100
G1 F240 X10.089 Y30.804 Z-0.100
G1 F240 X10.330 Y30.516 Z-0.100
G1 F240 X10.354 Y30.452 Z-0.100
G0 X10.354 Y30.452 Z6.000
G0 X22.210 Y31.070 Z6.000
G1 F240 X22.210 Y31.070 Z0.000
G1 F240 X21.934 Y31.021 Z-0.002
G1 F240 X21.443 Y31.021 Z-0.005
G1 F240 X21.167 Y31.070 Z-0.007
G1 F240 X20.842 Y31.257 Z-0.010
G1 F240 X20.600 Y31.545 Z-0.012
G1 F240 X20.472 Y31.897 Z-0.015
G1 F240 X20.472 Y32.272 Z-0.017
G1 F240 X20.600 Y32.625 Z-0.020
G1 F240 X20.842 Y32.912 Z-0.022
G1 F240 X21.167 Y33.100 Z-0.025
G1 F240 X21.443 Y33.148 Z-0.027
G1 F240 X21.934 Y33.148 Z-0.030
G1 F240 X22.210 Y33.100 Z-0.032
G1 F240 X22.535 Y32.912 Z-0.035
G1 F240 X22.776 Y32.625 Z-0.037
G1 F240 X22.904 Y32.272 Z-0.040
G1 F240 X22.904 Y31.897 Z-0.042
G1 F240 X22.776 Y31.545 Z-0.045
G1 F240 X22.535 Y31.257 Z-0.047
G1 F240 X22.210 Y31.070 Z-0.050
G1 F240 X22.535 Y31.257 Z-0.053
G1 F240 X22.776 Y31.545 Z-0.055
G1 F240 X22.904 Y31.897 Z-0.058
G1 F240 X22.904 Y32.272 Z-0.060
G1 F240 X22.776 Y32.625 Z-0.063
G1 F240 X22.535 Y32.912 Z-0.065
G1 F240 X22.210 Y33.100 Z-0.068
G1 F240 X21.934 Y33.148 Z-0.070
G1 F240 X21.443 Y33.148 Z-0.073
G1 F240 X21.167 Y33.100 Z-0.075
G1 F240 X20.842 Y32.912 Z-0.078
G1 F240 X20.600 Y32.625 Z-0.080
G1 F240 X20.472 Y32.272 Z-0.083
G1 F240 X20.472 Y31.897 Z-0.085
G1 F240 X20.600 Y31.545 Z-0.088
G1 F240 X20.842 Y31.257 Z-0.090
G1 F240 X21.167 Y31.070 Z-0.093
G1 F240 X21.443 Y31.021 Z-0.095
G1 F240 X21.934 Y31.021 Z-0.098
G1 F240 X22.210 Y31.070 Z-0.100
G1 F240 X21.934 Y31.021 Z-0.100
G1 F240 X21.443 Y31.021 Z-0.100
G1 F240 X21.167 Y31.070 Z-0.100
G1 F240 X20.842 Y31.257 Z-0.100
G1 F240 X20.600 Y31.545 Z-0.100
G1 F240 X20.472 Y31.897 Z-0.100
G1 F240 X20.472 Y32.272 Z-0.100
G1 F240 X20.600 Y32.625 Z-0.100
G1 F240 X20.842 Y32.912 Z-0.100
G1 F240 X21.167 Y33.100 Z-0.100
G1 F240 X21.443 Y33.148 Z-0.100
G1 F240 X21.934 Y33.148 Z-0.100
G1 F240 X22.210 Y33.100 Z-0.100
G1 F240 X22.535 Y32.912 Z-0.100
G1 F240 X22.776 Y32.625 Z-0.100
G1 F240 X22.904 Y32.272 Z-0.100
G1 F240 X22.904 Y31.897 Z-0.100
G1 F240 X22.776 Y31.545 Z-0.100
G1 F240 X22.535 Y31.257 Z-0.100
G1 F240 X22.210 Y31.070 Z-0.100
G0 X22.210 Y31.070 Z6.000
G0 X22.210 Y33.610 Z6.000
G1 F240 X22.210 Y33.610 Z0.000
G1 F240 X21.934 Y33.561 Z-0.002
G1 F240 X21.443 Y33.561 Z-0.005
G1 F240 X21.167 Y33.610 Z-0.007
G1 F240 X20.842 Y33.797 Z-0.010
G1 F240 X20.600 Y34.085 Z-0.012
G1 F240 X20.472 Y34.437 Z-0.015
G1 F240 X20.472 Y34.812 Z-0.017
G1 F240 X20.600 Y35.165 Z-0.020
G1 F240 X20.842 Y35.452 Z-0.022
G1 F240 X21.167 Y35.640 Z-0.025
G1 F240 X21.443 Y35.688 Z-0.027
G1 F240 X21.934 Y35.688 Z-0.030
G1 F240 X22.210 Y35.640 Z-0.032
G1 F240 X22.535 Y35.452 Z-0.035
G1 F240 X22.776 Y35.165 Z-0.037
G1 F240 X22.904 Y34.812 Z-0.040
G1 F240 X22.904 Y34.437 Z-0.042
G1 F240 X22.776 Y34.085 Z-0.045
G1 F240 X22.535 Y33.797 Z-0.047
G1 F240 X22.210 Y33.610 Z-0.050
G1 F240 X22.535 Y33.797 Z-0.053
G1 F240 X22.776 Y34.085 Z-0.055
G1 F240 X22.904 Y34.437 Z-0.058
G1 F240 X22.904 Y34.812 Z-0.060
G1 F240 X22.776 Y35.165 Z-0.063
G1 F240 X22.535 Y35.452 Z-0.065
G1 F240 X22.210 Y35.640 Z-0.068
G1 F240 X21.934 Y35.688 Z-0.070
G1 F240 X21.443 Y35.688 Z-0.073
G1 F240 X21.167 Y35.640 Z-0.075
G1 F240 X20.842 Y35.452 Z-0.078
G1 F240 X20.600 Y35.165 Z-0.080
G1 F240 X20.472 Y34.812 Z-0.083
G1 F240 X20.472 Y34.437 Z-0.085
G1 F240 X20.600 Y34.085 Z-0.088
G1 F240 X20.842 Y33.797 Z-0.090
G1 F240 X21.167 Y33.610 Z-0.093
G1 F240 X21.443 Y33.561 Z-0.095
G1 F240 X21.934 Y33.561 Z-0.098
G1 F240 X22.210 Y33.610 Z-0.100
G1 F240 X21.934 Y33.561 Z-0.100
G1 F240 X21.443 Y33.561 Z-0.100
G1 F240 X21.167 Y33.610 Z-0.100
G1 F240 X20.842 Y33.797 Z-0.100
G1 F240 X20.600 Y34.085 Z-0.100
G1 F240 X20.472 Y34.437 Z-0.100
G1 F240 X20.472 Y34.812 Z-0.100
G1 F240 X20.600 Y35.165 Z-0.100
G1 F240 X20.842 Y35.452 Z-0.100
G1 F240 X21.167 Y35.640 Z-0.100
G1 F240 X21.443 Y35.688 Z-0.100
G1 F240 X21.934 Y35.688 Z-0.100
G1 F240 X22.210 Y35.640 Z-0.100
G1 F240 X22.535 Y35.452 Z-0.100
G1 F240 X22.776 Y35.165 Z-0.100
G1 F240 X22.904 Y34.812 Z-0.100
G1 F240 X22.904 Y34.437 Z-0.100
G1 F240 X22.776 Y34.085 Z-0.100
G1 F240 X22.535 Y33.797 Z-0.100
G1 F240 X22.210 Y33.610 Z-0.100
G0 X22.210 Y33.610 Z6.000
G0 X22.210 Y36.150 Z6.000
G1 F240 X22.210 Y36.150 Z0.000
G1 F240 X21.934 Y36.101 Z-0.002
G1 F240 X21.443 Y36.101 Z-0.005
G1 F240 X21.167 Y36.150 Z-0.007
G1 F240 X20.842 Y36.337 Z-0.010
G1 F240 X20.600 Y36.625 Z-0.012
G1 F240 X20.472 Y36.977 Z-0.015
G1 F240 X20.472 Y37.352 Z-0.017
G1 F240 X20.600 Y37.705 Z-0.020
G1 F240 X20.842 Y37.992 Z-0.022
G1 F240 X21.167 Y38.179 Z-0.025
G1 F240 X21.443 Y38.229 Z-0.027
G1 F240 X21.934 Y38.229 Z-0.030
G1 F240 X22.210 Y38.179 Z-0.032
G1 F240 X22.535 Y37.992 Z-0.035
G1 F240 X22.776 Y37.705 Z-0.037
G1 F240 X22.904 Y37.352 Z-0.040
G1 F240 X22.904 Y36.977 Z-0.042
G1 F240 X22.776 Y36.625 Z-0.045
G1 F240 X22.535 Y36.337 Z-0.047
G1 F240 X22.210 Y36.150 Z-0.050
G1 F240 X22.535 Y36.337 Z-0.053
G1 F240 X22.776 Y36.625 Z-0.055
G1 F240 X22.904 Y36.977 Z-0.058
G1 F240 X22.904 Y37.352 Z-0.060
G1 F240 X22.776 Y37.705 Z-0.063
G1 F240 X22.535 Y37.992 Z-0.065
G1 F240 X22.210 Y38.179 Z-0.068
G1 F240 X21.934 Y38.229 Z-0.070
G1 F240 X21.443 Y38.229 Z-0.073
G1 F240 X21.167 Y38.179 Z-0.075
G1 F240 X20.842 Y37.992 Z-0.078
G1 F240 X20.600 Y37.705 Z-0.080
G1 F240 X20.472 Y37.352 Z-0.083
G1 F240 X20.472 Y36.977 Z-0.085
G1 F240 X20.600 Y36.625 Z-0.088
G1 F240 X20.842 Y36.337 Z-0.090
G1 F240 X21.167 Y36.150 Z-0.093
G1 F240 X21.443 Y36.101 Z-0.095
G1 F240 X21.934 Y36.101 Z-0.098
G1 F240 X22.210 Y36.150 Z-0.100
G1 F240 X21.934 Y36.101 Z-0.100
G1 F240 X21.443 Y36.101 Z-0.100
G1 F240 X21.167 Y36.150 Z-0.100
G1 F240 X20.842 Y36.337 Z-0.100
G1 F240 X20.600 Y36.625 Z-0.100
G1 F240 X20.472 Y36.977 Z-0.100
G1 F240 X20.472 Y37.352 Z-0.100
G1 F240 X20.600 Y37.705 Z-0.100
G1 F240 X20.842 Y37.992 Z-0.100
G1 F240 X21.167 Y38.179 Z-0.100
G1 F240 X21.443 Y38.229 Z-0.100
G1 F240 X21.934 Y38.229 Z-0.100
G1 F240 X22.210 Y38.179 Z-0.100
G1 F240 X22.535 Y37.992 Z-0.100
G1 F240 X22.776 Y37.705 Z-0.100
G1 F240 X22.904 Y37.352 Z-0.100
G1 F240 X22.904 Y36.977 Z-0.100
G1 F240 X22.776 Y36.625 Z-0.100
G1 F240 X22.535 Y36.337 Z-0.100
G1 F240 X22.210 Y36.150 Z-0.100
G0 X22.210 Y36.150 Z6.000
G0 X22.210 Y38.690 Z6.000
G1 F240 X22.210 Y38.690 Z0.000
G1 F240 X21.934 Y38.641 Z-0.002
G1 F240 X21.443 Y38.641 Z-0.005
G1 F240 X21.167 Y38.690 Z-0.007
G1 F240 X20.842 Y38.877 Z-0.010
G1 F240 X20.600 Y39.165 Z-0.012
G1 F240 X20.472 Y39.517 Z-0.015
G1 F240 X20.472 Y39.892 Z-0.017
G1 F240 X20.600 Y40.244 Z-0.020
G1 F240 X20.842 Y40.532 Z-0.022
G1 F240 X21.167 Y40.719 Z-0.025
G1 F240 X21.443 Y40.769 Z-0.027
G1 F240 X21.934 Y40.769 Z-0.030
G1 F240 X22.210 Y40.719 Z-0.032
G1 F240 X22.535 Y40.532 Z-0.035
G1 F240 X22.776 Y40.244 Z-0.037
G1 F240 X22.904 Y39.892 Z-0.040
G1 F240 X22.904 Y39.517 Z-0.042
G1 F240 X22.776 Y39.165 Z-0.045
G1 F240 X22.535 Y38.877 Z-0.047
G1 F240 X22.210 Y38.690 Z-0.050
G1 F240 X22.535 Y38.877 Z-0.053
G1 F240 X22.776 Y39.165 Z-0.055
G1 F240 X22.904 Y39.517 Z-0.058
G1 F240 X22.904 Y39.892 Z-0.060
G1 F240 X22.776 Y40.244 Z-0.063
G1 F240 X22.535 Y40.532 Z-0.065
G1 F240 X22.210 Y40.719 Z-0.068
G1 F240 X21.934 Y40.769 Z-0.070
G1 F240 X21.443 Y40.769 Z-0.073
G1 F240 X21.167 Y40.719 Z-0.075
G1 F240 X20.842 Y40.532 Z-0.078
G1 F240 X20.600 Y40.244 Z-0.080
G1 F240 X20.472 Y39.892 Z-0.083
G1 F240 X20.472 Y39.517 Z-0.085
G1 F240 X20.600 Y39.165 Z-0.088
G1 F240 X20.842 Y38.877 Z-0.090
G1 F240 X21.167 Y38.690 Z-0.093
G1 F240 X21.443 Y38.641 Z-0.095
G1 F240 X21.934 Y38.641 Z-0.098
G1 F240 X22.210 Y38.690 Z-0.100
G1 F240 X21.934 Y38.641 Z-0.100
G1 F240 X21.443 Y38.641 Z-0.100
G1 F240 X21.167 Y38.690 Z-0.100
G1 F240 X20.842 Y38.877 Z-0.100
G1 F240 X20.600 Y39.165 Z-0.100
G1 F240 X20.472 Y39.517 Z-0.100
G1 F240 X20.472 Y39.892 Z-0.100
G1 F240 X20.600 Y40.244 Z-0.100
G1 F240 X20.842 Y40.532 Z-0.100
G1 F240 X21.167 Y40.719 Z-0.100
G1 F240 X21.443 Y40.769 Z-0.100
G1 F240 X21.934 Y40.769 Z-0.100
G1 F240 X22.210 Y40.719 Z-0.100
G1 F240 X22.535 Y40.532 Z-0.100
G1 F240 X22.776 Y40.244 Z-0.100
G1 F240 X22.904 Y39.892 Z-0.100
G1 F240 X22.904 Y39.517 Z-0.100
G1 F240 X22.776 Y39.165 Z-0.100
G1 F240 X22.535 Y38.877 Z-0.100
G1 F240 X22.210 Y38.690 Z-0.100
G0 X22.210 Y38.690 Z6.000
G0 X22.210 Y41.230 Z6.000
G1 F240 X22.210 Y41.230 Z0.000
G1 F240 X21.934 Y41.181 Z-0.002
G1 F240 X21.443 Y41.181 Z-0.005
G1 F240 X21.167 Y41.230 Z-0.007
G1 F240 X20.842 Y41.417 Z-0.010
G1 F240 X20.600 Y41.705 Z-0.012
G1 F240 X20.472 Y42.057 Z-0.015
G1 F240 X20.472 Y42.432 Z-0.017
G1 F240 X20.600 Y42.784 Z-0.020
G1 F240 X20.842 Y43.072 Z-0.022
G1 F240 X21.167 Y43.259 Z-0.025
G1 F240 X21.443 Y43.309 Z-0.027
G1 F240 X21.934 Y43.309 Z-0.030
G1 F240 X22.210 Y43.259 Z-0.032
G1 F240 X22.535 Y43.072 Z-0.035
G1 F240 X22.776 Y42.784 Z-0.037
G1 F240 X22.904 Y42.432 Z-0.040
G1 F240 X22.904 Y42.057 Z-0.042
G1 F240 X22.776 Y41.705 Z-0.045
G1 F240 X22.535 Y41.417 Z-0.047
G1 F240 X22.210 Y41.230 Z-0.050
G1 F240 X22.535 Y41.417 Z-0.053
G1 F240 X22.776 Y41.705 Z-0.055
G1 F240 X22.904 Y42.057 Z-0.058
G1 F240 X22.904 Y42.432 Z-0.060
G1 F240 X22.776 Y42.784 Z-0.063
G1 F240 X22.535 Y43.072 Z-0.065
G1 F240 X22.210 Y43.259 Z-0.068
G1 F240 X21.934 Y43.309 Z-0.070
G1 F240 X21.443 Y43.309 Z-0.073
G1 F240 X21.167 Y43.259 Z-0.075
G1 F240 X20.842 Y43.072 Z-0.078
G1 F240 X20.600 Y42.784 Z-0.080
G1 F240 X20.472 Y42.432 Z-0.083
G1 F240 X20.472 Y42.057 Z-0.085
G1 F240 X20.600 Y41.705 Z-0.088
G1 F240 X20.842 Y41.417 Z-0.090
G1 F240 X21.167 Y41.230 Z-0.093
G1 F240 X21.443 Y41.181 Z-0.095
G1 F240 X21.934 Y41.181 Z-0.098
G1 F240 X22.210 Y41.230 Z-0.100
G1 F240 X21.934 Y41.181 Z-0.100
G1 F240 X21.443 Y41.181 Z-0.100
G1 F240 X21.167 Y41.230 Z-0.100
G1 F240 X20.842 Y41.417 Z-0.100
G1 F240 X20.600 Y41.705 Z-0.100
G1 F240 X20.472 Y42.057 Z-0.100
G1 F240 X20.472 Y42.432 Z-0.100
G1 F240 X20.600 Y42.784 Z-0.100
G1 F240 X20.842 Y43.072 Z-0.100
G1 F240 X21.167 Y43.259 Z-0.100
G1 F240 X21.443 Y43.309 Z-0.100
G1 F240 X21.934 Y43.309 Z-0.100
G1 F240 X22.210 Y43.259 Z-0.100
G1 F240 X22.535 Y43.072 Z-0.100
G1 F240 X22.776 Y42.784 Z-0.100
G1 F240 X22.904 Y42.432 Z-0.100
G1 F240 X22.904 Y42.057 Z-0.100
G1 F240 X22.776 Y41.705 Z-0.100
G1 F240 X22.535 Y41.417 Z-0.100
G1 F240 X22.210 Y41.230 Z-0.100
G0 X22.210 Y41.230 Z6.000
G0 X22.210 Y43.770 Z6.000
G1 F240 X22.210 Y43.770 Z0.000
G1 F240 X21.934 Y43.721 Z-0.001
G1 F240 X21.443 Y43.721 Z-0.002
G1 F240 X21.167 Y43.770 Z-0.003
G1 F240 X20.842 Y43.957 Z-0.004
G1 F240 X20.600 Y44.245 Z-0.006
G1 F240 X20.472 Y44.597 Z-0.007
G1 F240 X20.472 Y44.972 Z-0.008
G1 F240 X20.600 Y45.324 Z-0.009
G1 F240 X20.842 Y45.612 Z-0.010
G1 F240 X21.167 Y45.799 Z-0.011
G1 F240 X21.443 Y45.849 Z-0.012
G1 F240 X21.592 Y45.849 Z-0.013
G1 F240 X21.178 Y45.922 Z-0.014
G1 F240 X20.729 Y46.181 Z-0.015
G1 F240 X20.395 Y46.578 Z-0.017
G1 F240 X20.218 Y47.065 Z-0.019
G1 F240 X20.218 Y47.584 Z-0.020
G1 F240 X20.395 Y48.071 Z-0.022
G1 F240 X20.729 Y48.468 Z-0.023
G1 F240 X21.178 Y48.728 Z-0.025
G1 F240 X21.688 Y48.818 Z-0.027
G1 F240 X22.199 Y48.728 Z-0.028
G1 F240 X22.648 Y48.468 Z-0.030
G1 F240 X22.981 Y48.071 Z-0.031
G1 F240 X23.158 Y47.584 Z-0.033
G1 F240 X23.158 Y47.065 Z-0.035
G1 F240 X22.981 Y46.578 Z-0.036
G1 F240 X22.648 Y46.181 Z-0.038
G1 F240 X22.199 Y45.922 Z-0.039
G1 F240 X21.785 Y45.849 Z-0.041
G1 F240 X21.934 Y45.849 Z-0.041
G1 F240 X22.210 Y45.799 Z-0.042
G1 F240 X22.535 Y45.612 Z-0.043
G1 F240 X22.776 Y45.324 Z-0.044
G1 F240 X22.904 Y44.972 Z-0.045
G1 F240 X22.904 Y44.597 Z-0.047
G1 F240 X22.776 Y44.245 Z-0.048
G1 F240 X22.535 Y43.957 Z-0.049
G1 F240 X22.210 Y43.770 Z-0.050
G1 F240 X22.535 Y43.957 Z-0.051
G1 F240 X22.776 Y44.245 Z-0.052
G1 F240 X22.904 Y44.597 Z-0.053
G1 F240 X22.904 Y44.972 Z-0.055
G1 F240 X22.776 Y45.324 Z-0.056
G1 F240 X22.535 Y45.612 Z-0.057
G1 F240 X22.210 Y45.799 Z-0.058
G1 F240 X21.934 Y45.849 Z-0.059
G1 F240 X21.785 Y45.849 Z-0.059
G1 F240 X22.199 Y45.922 Z-0.061
G1 F240 X22.648 Y46.181 Z-0.062
G1 F240 X22.981 Y46.578 Z-0.064
G1 F240 X23.158 Y47.065 Z-0.065
G1 F240 X23.158 Y47.584 Z-0.067
G1 F240 X22.981 Y48.071 Z-0.069
G1 F240 X22.648 Y48.468 Z-0.070
G1 F240 X22.199 Y48.728 Z-0.072
G1 F240 X21.688 Y48.818 Z-0.073
G1 F240 X21.178 Y48.728 Z-0.075
G1 F240 X20.729 Y48.468 Z-0.077
G1 F240 X20.395 Y48.071 Z-0.078
G1 F240 X20.218 Y47.584 Z-0.080
G1 F240 X20.218 Y47.065 Z-0.081
G1 F240 X20.395 Y46.578 Z-0.083
G1 F240 X20.729 Y46.181 Z-0.085
G1 F240 X21.178 Y45.922 Z-0.086
G1 F240 X21.592 Y45.849 Z-0.087
G1 F240 X21.443 Y45.849 Z-0.088
G1 F240 X21.167 Y45.799 Z-0.089
G1 F240 X20.842 Y45.612 Z-0.090
G1 F240 X20.600 Y45.324 Z-0.091
G1 F240 X20.472 Y44.972 Z-0.092
G1 F240 X20.472 Y44.597 Z-0.093
G1 F240 X20.600 Y44.245 Z-0.094
G1 F240 X20.842 Y43.957 Z-0.096
G1 F240 X21.167 Y43.770 Z-0.097
G1 F240 X21.443 Y43.721 Z-0.098
G1 F240 X21.934 Y43.721 Z-0.099
G1 F240 X22.210 Y43.770 Z-0.100
G1 F240 X21.934 Y43.721 Z-0.100
G1 F240 X21.443 Y43.721 Z-0.100
G1 F240 X21.167 Y43.770 Z-0.100
G1 F240 X20.842 Y43.957 Z-0.100
G1 F240 X20.600 Y44.245 Z-0.100
G1 F240 X20.472 Y44.597 Z-0.100
G1 F240 X20.472 Y44.972 Z-0.100
G1 F240 X20.600 Y45.324 Z-0.100
G1 F240 X20.842 Y45.612 Z-0.100
G1 F240 X21.167 Y45.799 Z-0.100
G1 F240 X21.443 Y45.849 Z-0.100
G1 F240 X21.592 Y45.849 Z-0.100
G1 F240 X21.178 Y45.922 Z-0.100
G1 F240 X20.729 Y46.181 Z-0.100
G1 F240 X20.395 Y46.578 Z-0.100
G1 F240 X20.218 Y47.065 Z-0.100
G1 F240 X20.218 Y47.584 Z-0.100
G1 F240 X20.395 Y48.071 Z-0.100
G1 F240 X20.729 Y48.468 Z-0.100
G1 F240 X21.178 Y48.728 Z-0.100
G1 F240 X21.688 Y48.818 Z-0.100
G1 F240 X22.199 Y48.728 Z-0.100
G1 F240 X22.648 Y48.468 Z-0.100
G1 F240 X22.981 Y48.071 Z-0.100
G1 F240 X23.158 Y47.584 Z-0.100
G1 F240 X23.158 Y47.065 Z-0.100
G1 F240 X22.981 Y46.578 Z-0.100
G1 F240 X22.648 Y46.181 Z-0.100
G1 F240 X22.199 Y45.922 Z-0.100
G1 F240 X21.785 Y45.849 Z-0.100
G1 F240 X21.934 Y45.849 Z-0.100
G1 F240 X22.210 Y45.799 Z-0.100
G1 F240 X22.535 Y45.612 Z-0.100
G1 F240 X22.776 Y45.324 Z-0.100
G1 F240 X22.904 Y44.972 Z-0.100
G1 F240 X22.904 Y44.597 Z-0.100
G1 F240 X22.776 Y44.245 Z-0.100
G1 F240 X22.535 Y43.957 Z-0.100
G1 F240 X22.210 Y43.770 Z-0.100
G0 X22.210 Y43.770 Z6.000
G0 X37.450 Y43.770 Z6.000
G1 F240 X37.450 Y43.770 Z0.000
G1 F240 X37.174 Y43.721 Z-0.001
G1 F240 X36.683 Y43.721 Z-0.002
G1 F240 X36.407 Y43.770 Z-0.003
G1 F240 X36.082 Y43.957 Z-0.004
G1 F240 X35.840 Y44.245 Z-0.006
G1 F240 X35.712 Y44.597 Z-0.007
G1 F240 X35.712 Y44.972 Z-0.008
G1 F240 X35.840 Y45.324 Z-0.009
G1 F240 X36.082 Y45.612 Z-0.010
G1 F240 X36.407 Y45.799 Z-0.011
G1 F240 X36.683 Y45.849 Z-0.012
G1 F240 X36.832 Y45.849 Z-0.013
G1 F240 X36.418 Y45.922 Z-0.014
G1 F240 X35.969 Y46.181 Z-0.015
G1 F240 X35.635 Y46.578 Z-0.017
G1 F240 X35.458 Y47.065 Z-0.019
G1 F240 X35.458 Y47.584 Z-0.020
G1 F240 X35.635 Y48.071 Z-0.022
G1 F240 X35.969 Y48.468 Z-0.023
G1 F240 X36.418 Y48.728 Z-0.025
G1 F240 X36.928 Y48.818 Z-0.027
G1 F240 X37.439 Y48.728 Z-0.028
G1 F240 X37.888 Y48.468 Z-0.030
G1 F240 X38.221 Y48.071 Z-0.031
G1 F240 X38.398 Y47.584 Z-0.033
G1 F240 X38.398 Y47.065 Z-0.035
G1 F240 X38.221 Y46.578 Z-0.036
G1 F240 X37.888 Y46.181 Z-0.038
G1 F240 X37.439 Y45.922 Z-0.039
G1 F240 X37.025 Y45.849 Z-0.041
G1 F240 X37.174 Y45.849 Z-0.041
G1 F240 X37.450 Y45.799 Z-0.042
G1 F240 X37.775 Y45.612 Z-0.043
G1 F240 X38.016 Y45.324 Z-0.044
G1 F240 X38.144 Y44.972 Z-0.045
G1 F240 X38.144 Y44.597 Z-0.047
G1 F240 X38.016 Y44.245 Z-0.048
G1 F240 X37.775 Y43.957 Z-0.049
G1 F240 X37.450 Y43.770 Z-0.050
G1 F240 X37.775 Y43.957 Z-0.051
G1 F240 X38.016 Y44.245 Z-0.052
G1 F240 X38.144 Y44.597 Z-0.053
G1 F240 X38.144 Y44.972 Z-0.055
G1 F240 X38.016 Y45.324 Z-0.056
G1 F240 X37.775 Y45.612 Z-0.057
G1 F240 X37.450 Y45.799 Z-0.058
G1 F240 X37.174 Y45.849 Z-0.059
G1 F240 X37.025 Y45.849 Z-0.059
G1 F240 X37.439 Y45.922 Z-0.061
G1 F240 X37.888 Y46.181 Z-0.062
G1 F240 X38.221 Y46.578 Z-0.064
G1 F240 X38.398 Y47.065 Z-0.065
G1 F240 X38.398 Y47.584 Z-0.067
G1 F240 X38.221 Y48.071 Z-0.069
G1 F240 X37.888 Y48.468 Z-0.070
G1 F240 X37.439 Y48.728 Z-0.072
G1 F240 X36.928 Y48.818 Z-0.073
G1 F240 X36.418 Y48.728 Z-0.075
G1 F240 X35.969 Y48.468 Z-0.077
G1 F240 X35.635 Y48.071 Z-0.078
G1 F240 X35.458 Y47.584 Z-0.080
G1 F240 X35.458 Y47.065 Z-0.081
G1 F240 X35.635 Y46.578 Z-0.083
G1 F240 X35.969 Y46.181 Z-0.085
G1 F240 X36.418 Y45.922 Z-0.086
G1 F240 X36.832 Y45.849 Z-0.087
G1 F240 X36.683 Y45.849 Z-0.088
G1 F240 X36.407 Y45.799 Z-0.089
G1 F240 X36.082 Y45.612 Z-0.090
G1 F240 X35.840 Y45.324 Z-0.091
G1 F240 X35.712 Y44.972 Z-0.092
G1 F240 X35.712 Y44.597 Z-0.093
G1 F240 X35.840 Y44.245 Z-0.094
G1 F240 X36.082 Y43.957 Z-0.096
G1 F240 X36.407 Y43.770 Z-0.097
G1 F240 X36.683 Y43.721 Z-0.098
G1 F240 X37.174 Y43.721 Z-0.099
G1 F240 X37.450 Y43.770 Z-0.100
G1 F240 X37.174 Y43.721 Z-0.100
G1 F240 X36.683 Y43.721 Z-0.100
G1 F240 X36.407 Y43.770 Z-0.100
G1 F240 X36.082 Y43.957 Z-0.100
G1 F240 X35.840 Y44.245 Z-0.100
G1 F240 X35.712 Y44.597 Z-0.100
G1 F240 X35.712 Y44.972 Z-0.100
G1 F240 X35.840 Y45.324 Z-0.100
G1 F240 X36.082 Y45.612 Z-0.100
G1 F240 X36.407 Y45.799 Z-0.100
G1 F240 X36.683 Y45.849 Z-0.100
G1 F240 X36.832 Y45.849 Z-0.100
G1 F240 X36.418 Y45.922 Z-0.100
G1 F240 X35.969 Y46.181 Z-0.100
G1 F240 X35.635 Y46.578 Z-0.100
G1 F240 X35.458 Y47.065 Z-0.100
G1 F240 X35.458 Y47.584 Z-0.100
G1 F240 X35.635 Y48.071 Z-0.100
G1 F240 X35.969 Y48.468 Z-0.100
G1 F240 X36.418 Y48.728 Z-0.100
G1 F240 X36.928 Y48.818 Z-0.100
G1 F240 X37.439 Y48.728 Z-0.100
G1 F240 X37.888 Y48.468 Z-0.100
G1 F240 X38.221 Y48.071 Z-0.100
G1 F240 X38.398 Y47.584 Z-0.100
G1 F240 X38.398 Y47.065 Z-0.100
G1 F240 X38.221 Y46.578 Z-0.100
G1 F240 X37.888 Y46.181 Z-0.100
G1 F240 X37.439 Y45.922 Z-0.100
G1 F240 X37.025 Y45.849 Z-0.100
G1 F240 X37.174 Y45.849 Z-0.100
G1 F240 X37.450 Y45.799 Z-0.100
G1 F240 X37.775 Y45.612 Z-0.100
G1 F240 X38.016 Y45.324 Z-0.100
G1 F240 X38.144 Y44.972 Z-0.100
G1 F240 X38.144 Y44.597 Z-0.100
G1 F240 X38.016 Y44.245 Z-0.100
G1 F240 X37.775 Y43.957 Z-0.100
G1 F240 X37.450 Y43.770 Z-0.100
G0 X37.450 Y43.770 Z6.000
G0 X37.450 Y41.230 Z6.000
G1 F240 X37.450 Y41.230 Z0.000
G1 F240 X37.174 Y41.181 Z-0.002
G1 F240 X36.683 Y41.181 Z-0.005
G1 F240 X36.407 Y41.230 Z-0.007
G1 F240 X36.082 Y41.417 Z-0.010
G1 F240 X35.840 Y41.705 Z-0.012
G1 F240 X35.712 Y42.057 Z-0.015
G1 F240 X35.712 Y42.432 Z-0.017
G1 F240 X35.840 Y42.784 Z-0.020
G1 F240 X36.082 Y43.072 Z-0.022
G1 F240 X36.407 Y43.259 Z-0.025
G1 F240 X36.683 Y43.309 Z-0.027
G1 F240 X37.174 Y43.309 Z-0.030
G1 F240 X37.450 Y43.259 Z-0.032
G1 F240 X37.775 Y43.072 Z-0.035
G1 F240 X38.016 Y42.784 Z-0.037
G1 F240 X38.144 Y42.432 Z-0.040
G1 F240 X38.144 Y42.057 Z-0.042
G1 F240 X38.016 Y41.705 Z-0.045
G1 F240 X37.775 Y41.417 Z-0.047
G1 F240 X37.450 Y41.230 Z-0.050
G1 F240 X37.775 Y41.417 Z-0.053
G1 F240 X38.016 Y41.705 Z-0.055
G1 F240 X38.144 Y42.057 Z-0.058
G1 F240 X38.144 Y42.432 Z-0.060
G1 F240 X38.016 Y42.784 Z-0.063
G1 F240 X37.775 Y43.072 Z-0.065
G1 F240 X37.450 Y43.259 Z-0.068
G1 F240 X37.174 Y43.309 Z-0.070
G1 F240 X36.683 Y43.309 Z-0.073
G1 F240 X36.407 Y43.259 Z-0.075
G1 F240 X36.082 Y43.072 Z-0.078
G1 F240 X35.840 Y42.784 Z-0.080
G1 F240 X35.712 Y42.432 Z-0.083
G1 F240 X35.712 Y42.057 Z-0.085
G1 F240 X35.840 Y41.705 Z-0.088
G1 F240 X36.082 Y41.417 Z-0.090
G1 F240 X36.407 Y41.230 Z-0.093
G1 F240 X36.683 Y41.181 Z-0.095
G1 F240 X37.174 Y41.181 Z-0.098
G1 F240 X37.450 Y41.230 Z-0.100
G1 F240 X37.174 Y41.181 Z-0.100
G1 F240 X36.683 Y41.181 Z-0.100
G1 F240 X36.407 Y41.230 Z-0.100
G1 F240 X36.082 Y41.417 Z-0.100
G1 F240 X35.840 Y41.705 Z-0.100
G1 F240 X35.712 Y42.057 Z-0.100
G1 F240 X35.712 Y42.432 Z-0.100
G1 F240 X35.840 Y42.784 Z-0.100
G1 F240 X36.082 Y43.072 Z-0.100
G1 F240 X36.407 Y43.259 Z-0.100
G1 F240 X36.683 Y43.309 Z-0.100
G1 F240 X37.174 Y43.309 Z-0.100
G1 F240 X37.450 Y43.259 Z-0.100
G1 F240 X37.775 Y43.072 Z-0.100
G1 F240 X38.016 Y42.784 Z-0.100
G1 F240 X38.144 Y42.432 Z-0.100
G1 F240 X38.144 Y42.057 Z-0.100
G1 F240 X38.016 Y41.705 Z-0.100
G1 F240 X37.775 Y41.417 Z-0.100
G1 F240 X37.450 Y41.230 Z-0.100
G0 X37.450 Y41.230 Z6.000
G0 X37.450 Y38.690 Z6.000
G1 F240 X37.450 Y38.690 Z0.000
G1 F240 X37.174 Y38.641 Z-0.002
G1 F240 X36.683 Y38.641 Z-0.005
G1 F240 X36.407 Y38.690 Z-0.007
G1 F240 X36.082 Y38.877 Z-0.010
G1 F240 X35.840 Y39.165 Z-0.012
G1 F240 X35.712 Y39.517 Z-0.015
G1 F240 X35.712 Y39.892 Z-0.017
G1 F240 X35.840 Y40.244 Z-0.020
G1 F240 X36.082 Y40.532 Z-0.022
G1 F240 X36.407 Y40.719 Z-0.025
G1 F240 X36.683 Y40.769 Z-0.027
G1 F240 X37.174 Y40.769 Z-0.030
G1 F240 X37.450 Y40.719 Z-0.032
G1 F240 X37.775 Y40.532 Z-0.035
G1 F240 X38.016 Y40.244 Z-0.037
G1 F240 X38.144 Y39.892 Z-0.040
G1 F240 X38.144 Y39.517 Z-0.042
G1 F240 X38.016 Y39.165 Z-0.045
G1 F240 X37.775 Y38.877 Z-0.047
G1 F240 X37.450 Y38.690 Z-0.050
G1 F240 X37.775 Y38.877 Z-0.053
G1 F240 X38.016 Y39.165 Z-0.055
G1 F240 X38.144 Y39.517 Z-0.058
G1 F240 X38.144 Y39.892 Z-0.060
G1 F240 X38.016 Y40.244 Z-0.063
G1 F240 X37.775 Y40.532 Z-0.065
G1 F240 X37.450 Y40.719 Z-0.068
G1 F240 X37.174 Y40.769 Z-0.070
G1 F240 X36.683 Y40.769 Z-0.073
G1 F240 X36.407 Y40.719 Z-0.075
G1 F240 X36.082 Y40.532 Z-0.078
G1 F240 X35.840 Y40.244 Z-0.080
G1 F240 X35.712 Y39.892 Z-0.083
G1 F240 X35.712 Y39.517 Z-0.085
G1 F240 X35.840 Y39.165 Z-0.088
G1 F240 X36.082 Y38.877 Z-0.090
G1 F240 X36.407 Y38.690 Z-0.093
G1 F240 X36.683 Y38.641 Z-0.095
G1 F240 X37.174 Y38.641 Z-0.098
G1 F240 X37.450 Y38.690 Z-0.100
G1 F240 X37.174 Y38.641 Z-0.100
G1 F240 X36.683 Y38.641 Z-0.100
G1 F240 X36.407 Y38.690 Z-0.100
G1 F240 X36.082 Y38.877 Z-0.100
G1 F240 X35.840 Y39.165 Z-0.100
G1 F240 X35.712 Y39.517 Z-0.100
G1 F240 X35.712 Y39.892 Z-0.100
G1 F240 X35.840 Y40.244 Z-0.100
G1 F240 X36.082 Y40.532 Z-0.100
G1 F240 X36.407 Y40.719 Z-0.100
G1 F240 X36.683 Y40.769 Z-0.100
G1 F240 X37.174 Y40.769 Z-0.100
G1 F240 X37.450 Y40.719 Z-0.100
G1 F240 X37.775 Y40.532 Z-0.100
G1 F240 X38.016 Y40.244 Z-0.100
G1 F240 X38.144 Y39.892 Z-0.100
G1 F240 X38.144 Y39.517 Z-0.100
G1 F240 X38.016 Y39.165 Z-0.100
G1 F240 X37.775 Y38.877 Z-0.100
G1 F240 X37.450 Y38.690 Z-0.100
G0 X37.450 Y38.690 Z6.000
G0 X37.450 Y36.150 Z6.000
G1 F240 X37.450 Y36.150 Z0.000
G1 F240 X37.174 Y36.101 Z-0.002
G1 F240 X36.683 Y36.101 Z-0.005
G1 F240 X36.407 Y36.150 Z-0.007
G1 F240 X36.082 Y36.337 Z-0.010
G1 F240 X35.840 Y36.625 Z-0.012
G1 F240 X35.712 Y36.977 Z-0.015
G1 F240 X35.712 Y37.352 Z-0.017
G1 F240 X35.840 Y37.705 Z-0.020
G1 F240 X36.082 Y37.992 Z-0.022
G1 F240 X36.407 Y38.179 Z-0.025
G1 F240 X36.683 Y38.229 Z-0.027
G1 F240 X37.174 Y38.229 Z-0.030
G1 F240 X37.450 Y38.179 Z-0.032
G1 F240 X37.775 Y37.992 Z-0.035
G1 F240 X38.016 Y37.705 Z-0.037
G1 F240 X38.144 Y37.352 Z-0.040
G1 F240 X38.144 Y36.977 Z-0.042
G1 F240 X38.016 Y36.625 Z-0.045
G1 F240 X37.775 Y36.337 Z-0.047
G1 F240 X37.450 Y36.150 Z-0.050
G1 F240 X37.775 Y36.337 Z-0.053
G1 F240 X38.016 Y36.625 Z-0.055
G1 F240 X38.144 Y36.977 Z-0.058
G1 F240 X38.144 Y37.352 Z-0.060
G1 F240 X38.016 Y37.705 Z-0.063
G1 F240 X37.775 Y37.992 Z-0.065
G1 F240 X37.450 Y38.179 Z-0.068
G1 F240 X37.174 Y38.229 Z-0.070
G1 F240 X36.683 Y38.229 Z-0.073
G1 F240 X36.407 Y38.179 Z-0.075
G1 F240 X36.082 Y37.992 Z-0.078
G1 F240 X35.840 Y37.705 Z-0.080
G1 F240 X35.712 Y37.352 Z-0.083
G1 F240 X35.712 Y36.977 Z-0.085
G1 F240 X35.840 Y36.625 Z-0.088
G1 F240 X36.082 Y36.337 Z-0.090
G1 F240 X36.407 Y36.150 Z-0.093
G1 F240 X36.683 Y36.101 Z-0.095
G1 F240 X37.174 Y36.101 Z-0.098
G1 F240 X37.450 Y36.150 Z-0.100
G1 F240 X37.174 Y36.101 Z-0.100
G1 F240 X36.683 Y36.101 Z-0.100
G1 F240 X36.407 Y36.150 Z-0.100
G1 F240 X36.082 Y36.337 Z-0.100
G1 F240 X35.840 Y36.625 Z-0.100
G1 F240 X35.712 Y36.977 Z-0.100
G1 F240 X35.712 Y37.352 Z-0.100
G1 F240 X35.840 Y37.705 Z-0.100
G1 F240 X36.082 Y37.992 Z-0.100
G1 F240 X36.407 Y38.179 Z-0.100
G1 F240 X36.683 Y38.229 Z-0.100
G1 F240 X37.174 Y38.229 Z-0.100
G1 F240 X37.450 Y38.179 Z-0.100
G1 F240 X37.775 Y37.992 Z-0.100
G1 F240 X38.016 Y37.705 Z-0.100
G1 F240 X38.144 Y37.352 Z-0.100
G1 F240 X38.144 Y36.977 Z-0.100
G1 F240 X38.016 Y36.625 Z-0.100
G1 F240 X37.775 Y36.337 Z-0.100
G1 F240 X37.450 Y36.150 Z-0.100
G0 X37.450 Y36.150 Z6.000
G0 X37.450 Y33.610 Z6.000
G1 F240 X37.450 Y33.610 Z0.000
G1 F240 X37.174 Y33.561 Z-0.002
G1 F240 X36.683 Y33.561 Z-0.005
G1 F240 X36.407 Y33.610 Z-0.007
G1 F240 X36.082 Y33.797 Z-0.010
G1 F240 X35.840 Y34.085 Z-0.012
G1 F240 X35.712 Y34.437 Z-0.015
G1 F240 X35.712 Y34.812 Z-0.017
G1 F240 X35.840 Y35.165 Z-0.020
G1 F240 X36.082 Y35.452 Z-0.022
G1 F240 X36.407 Y35.640 Z-0.025
G1 F240 X36.683 Y35.688 Z-0.027
G1 F240 X37.174 Y35.688 Z-0.030
G1 F240 X37.450 Y35.640 Z-0.032
G1 F240 X37.775 Y35.452 Z-0.035
G1 F240 X38.016 Y35.165 Z-0.037
G1 F240 X38.144 Y34.812 Z-0.040
G1 F240 X38.144 Y34.437 Z-0.042
G1 F240 X38.016 Y34.085 Z-0.045
G1 F240 X37.775 Y33.797 Z-0.047
G1 F240 X37.450 Y33.610 Z-0.050
G1 F240 X37.775 Y33.797 Z-0.053
G1 F240 X38.016 Y34.085 Z-0.055
G1 F240 X38.144 Y34.437 Z-0.058
G1 F240 X38.144 Y34.812 Z-0.060
G1 F240 X38.016 Y35.165 Z-0.063
G1 F240 X37.775 Y35.452 Z-0.065
G1 F240 X37.450 Y35.640 Z-0.068
G1 F240 X37.174 Y35.688 Z-0.070
G1 F240 X36.683 Y35.688 Z-0.073
G1 F240 X36.407 Y35.640 Z-0.075
G1 F240 X36.082 Y35.452 Z-0.078
G1 F240 X35.840 Y35.165 Z-0.080
G1 F240 X35.712 Y34.812 Z-0.083
G1 F240 X35.712 Y34.437 Z-0.085
G1 F240 X35.840 Y34.085 Z-0.088
G1 F240 X36.082 Y33.797 Z-0.090
G1 F240 X36.407 Y33.610 Z-0.093
G1 F240 X36.683 Y33.561 Z-0.095
G1 F240 X37.174 Y33.561 Z-0.098
G1 F240 X37.450 Y33.610 Z-0.100
G1 F240 X37.174 Y33.561 Z-0.100
G1 F240 X36.683 Y33.561 Z-0.100
G1 F240 X36.407 Y33.610 Z-0.100
G1 F240 X36.082 Y33.797 Z-0.100
G1 F240 X35.840 Y34.085 Z-0.100
G1 F240 X35.712 Y34.437 Z-0.100
G1 F240 X35.712 Y34.812 Z-0.100
G1 F240 X35.840 Y35.165 Z-0.100
G1 F240 X36.082 Y35.452 Z-0.100
G1 F240 X36.407 Y35.640 Z-0.100
G1 F240 X36.683 Y35.688 Z-0.100
G1 F240 X37.174 Y35.688 Z-0.100
G1 F240 X37.450 Y35.640 Z-0.100
G1 F240 X37.775 Y35.452 Z-0.100
G1 F240 X38.016 Y35.165 Z-0.100
G1 F240 X38.144 Y34.812 Z-0.100
G1 F240 X38.144 Y34.437 Z-0.100
G1 F240 X38.016 Y34.085 Z-0.100
G1 F240 X37.775 Y33.797 Z-0.100
G1 F240 X37.450 Y33.610 Z-0.100
G0 X37.450 Y33.610 Z6.000
G0 X37.450 Y31.070 Z6.000
G1 F240 X37.450 Y31.070 Z0.000
G1 F240 X37.174 Y31.021 Z-0.002
G1 F240 X36.683 Y31.021 Z-0.005
G1 F240 X36.407 Y31.070 Z-0.007
G1 F240 X36.082 Y31.257 Z-0.010
G1 F240 X35.840 Y31.545 Z-0.012
G1 F240 X35.712 Y31.897 Z-0.015
G1 F240 X35.712 Y32.272 Z-0.017
G1 F240 X35.840 Y32.625 Z-0.020
G1 F240 X36.082 Y32.912 Z-0.022
G1 F240 X36.407 Y33.100 Z-0.025
G1 F240 X36.683 Y33.148 Z-0.027
G1 F240 X37.174 Y33.148 Z-0.030
G1 F240 X37.450 Y33.100 Z-0.032
G1 F240 X37.775 Y32.912 Z-0.035
G1 F240 X38.016 Y32.625 Z-0.037
G1 F240 X38.144 Y32.272 Z-0.040
G1 F240 X38.144 Y31.897 Z-0.042
G1 F240 X38.016 Y31.545 Z-0.045
G1 F240 X37.775 Y31.257 Z-0.047
G1 F240 X37.450 Y31.070 Z-0.050
G1 F240 X37.775 Y31.257 Z-0.053
G1 F240 X38.016 Y31.545 Z-0.055
G1 F240 X38.144 Y31.897 Z-0.058
G1 F240 X38.144 Y32.272 Z-0.060
G1 F240 X38.016 Y32.625 Z-0.063
G1 F240 X37.775 Y32.912 Z-0.065
G1 F240 X37.450 Y33.100 Z-0.068
G1 F240 X37.174 Y33.148 Z-0.070
G1 F240 X36.683 Y33.148 Z-0.073
G1 F240 X36.407 Y33.100 Z-0.075
G1 F240 X36.082 Y32.912 Z-0.078
G1 F240 X35.840 Y32.625 Z-0.080
G1 F240 X35.712 Y32.272 Z-0.083
G1 F240 X35.712 Y31.897 Z-0.085
G1 F240 X35.840 Y31.545 Z-0.088
G1 F240 X36.082 Y31.257 Z-0.090
G1 F240 X36.407 Y31.070 Z-0.093
G1 F240 X36.683 Y31.021 Z-0.095
G1 F240 X37.174 Y31.021 Z-0.098
G1 F240 X37.450 Y31.070 Z-0.100
G1 F240 X37.174 Y31.021 Z-0.100
G1 F240 X36.683 Y31.021 Z-0.100
G1 F240 X36.407 Y31.070 Z-0.100
G1 F240 X36.082 Y31.257 Z-0.100
G1 F240 X35.840 Y31.545 Z-0.100
G1 F240 X35.712 Y31.897 Z-0.100
G1 F240 X35.712 Y32.272 Z-0.100
G1 F240 X35.840 Y32.625 Z-0.100
G1 F240 X36.082 Y32.912 Z-0.100
G1 F240 X36.407 Y33.100 Z-0.100
G1 F240 X36.683 Y33.148 Z-0.100
G1 F240 X37.174 Y33.148 Z-0.100
G1 F240 X37.450 Y33.100 Z-0.100
G1 F240 X37.775 Y32.912 Z-0.100
G1 F240 X38.016 Y32.625 Z-0.100
G1 F240 X38.144 Y32.272 Z-0.100
G1 F240 X38.144 Y31.897 Z-0.100
G1 F240 X38.016 Y31.545 Z-0.100
G1 F240 X37.775 Y31.257 Z-0.100
G1 F240 X37.450 Y31.070 Z-0.100
G0 X37.450 Y31.070 Z6.000
G0 X37.450 Y28.530 Z6.000
G1 F240 X37.450 Y28.530 Z0.000
G1 F240 X37.174 Y28.481 Z-0.002
G1 F240 X36.683 Y28.481 Z-0.005
G1 F240 X36.407 Y28.530 Z-0.007
G1 F240 X36.082 Y28.717 Z-0.010
G1 F240 X35.840 Y29.005 Z-0.012
G1 F240 X35.712 Y29.357 Z-0.015
G1 F240 X35.712 Y29.732 Z-0.017
G1 F240 X35.840 Y30.085 Z-0.020
G1 F240 X36.082 Y30.372 Z-0.022
G1 F240 X36.407 Y30.560 Z-0.025
G1 F240 X36.683 Y30.608 Z-0.027
G1 F240 X37.174 Y30.608 Z-0.030
G1 F240 X37.450 Y30.560 Z-0.032
G1 F240 X37.775 Y30.372 Z-0.035
G1 F240 X38.016 Y30.085 Z-0.037
G1 F240 X38.144 Y29.732 Z-0.040
G1 F240 X38.144 Y29.357 Z-0.042
G1 F240 X38.016 Y29.005 Z-0.045
G1 F240 X37.775 Y28.717 Z-0.047
G1 F240 X37.450 Y28.530 Z-0.050
G1 F240 X37.775 Y28.717 Z-0.053
G1 F240 X38.016 Y29.005 Z-0.055
G1 F240 X38.144 Y29.357 Z-0.058
G1 F240 X38.144 Y29.732 Z-0.060
G1 F240 X38.016 Y30.085 Z-0.063
G1 F240 X37.775 Y30.372 Z-0.065
G1 F240 X37.450 Y30.560 Z-0.068
G1 F240 X37.174 Y30.608 Z-0.070
G1 F240 X36.683 Y30.608 Z-0.073
G1 F240 X36.407 Y30.560 Z-0.075
G1 F240 X36.082 Y30.372 Z-0.078
G1 F240 X35.840 Y30.085 Z-0.080
G1 F240 X35.712 Y29.732 Z-0.083
G1 F240 X35.712 Y29.357 Z-0.085
G1 F240 X35.840 Y29.005 Z-0.088
G1 F240 X36.082 Y28.717 Z-0.090
G1 F240 X36.407 Y28.530 Z-0.093
G1 F240 X36.683 Y28.481 Z-0.095
G1 F240 X37.174 Y28.481 Z-0.098
G1 F240 X37.450 Y28.530 Z-0.100
G1 F240 X37.174 Y28.481 Z-0.100
G1 F240 X36.683 Y28.481 Z-0.100
G1 F240 X36.407 Y28.530 Z-0.100
G1 F240 X36.082 Y28.717 Z-0.100
G1 F240 X35.840 Y29.005 Z-0.100
G1 F240 X35.712 Y29.357 Z-0.100
G1 F240 X35.712 Y29.732 Z-0.100
G1 F240 X35.840 Y30.085 Z-0.100
G1 F240 X36.082 Y30.372 Z-0.100
G1 F240 X36.407 Y30.560 Z-0.100
G1 F240 X36.683 Y30.608 Z-0.100
G1 F240 X37.174 Y30.608 Z-0.100
G1 F240 X37.450 Y30.560 Z-0.100
G1 F240 X37.775 Y30.372 Z-0.100
G1 F240 X38.016 Y30.085 Z-0.100
G1 F240 X38.144 Y29.732 Z-0.100
