;Toolpath Name = Cutout 3
;Tool Name   = 2mm - Single flute - Aluminium - Hattori
$H					;run GRBL homing cycle
G92 X-23.5 Y-2.5 Z0;set the difference between homing location and where we want X and Y home position to be
G0 X-16 Z-5		;quickly jog to a good position to start probing. X is important, Z negative is just to save some time
G38.2 F200 Z-50	;start probing downwards
G92 Z0				;make probe surface Z zero
G0 Z1				;move up 1 mm
G38.2 F50 Z-5		;probe again with extra slow speed for maximum precision
G92 Z0				;make probe surface Z zero again
G0 Z6.7			;move to the height of the bed
G92 Z-1.900	;set the top of material to be Z zero. Current postion (bed height) minus material thickness
G0 F480 Z20.000		;jog to safe Z height
M3 S24000			;start spindle and set spindle speed
G4 P5				;wait five seconds for spindle to reach full speed
G0 X4.121 Y3.068 Z6.000
G1 F660 X4.121 Y3.068 Z-0.500
G1 F660 X3.734 Y3.101 Z-0.500
G1 F660 X3.044 Y3.353 Z-0.500
G1 F660 X2.451 Y3.851 Z-0.500
G1 F660 X2.062 Y4.523 Z-0.500
G1 F660 X1.942 Y5.205 Z-0.500
G1 F660 X1.942 Y49.780 Z-0.500
G1 F660 X1.977 Y50.166 Z-0.500
G1 F660 X2.227 Y50.855 Z-0.500
G1 F660 X2.726 Y51.450 Z-0.500
G1 F660 X3.398 Y51.838 Z-0.500
G1 F660 X4.079 Y51.958 Z-0.500
G1 F660 X38.495 Y51.958 Z-0.500
G1 F660 X38.881 Y51.923 Z-0.500
G1 F660 X39.570 Y51.673 Z-0.500
G1 F660 X40.164 Y51.174 Z-0.500
G1 F660 X40.553 Y50.502 Z-0.500
G1 F660 X40.672 Y49.821 Z-0.500
G1 F660 X40.672 Y5.245 Z-0.500
G1 F660 X40.638 Y4.859 Z-0.500
G1 F660 X40.388 Y4.171 Z-0.500
G1 F660 X39.889 Y3.576 Z-0.500
G1 F660 X39.217 Y3.188 Z-0.500
G1 F660 X38.536 Y3.068 Z-0.500
G1 F660 X4.121 Y3.068 Z-0.500
G1 F660 X4.121 Y3.068 Z-1.000
G1 F660 X3.734 Y3.101 Z-1.000
G1 F660 X3.044 Y3.353 Z-1.000
G1 F660 X2.451 Y3.851 Z-1.000
G1 F660 X2.062 Y4.523 Z-1.000
G1 F660 X1.942 Y5.205 Z-1.000
G1 F660 X1.942 Y49.780 Z-1.000
G1 F660 X1.977 Y50.166 Z-1.000
G1 F660 X2.227 Y50.855 Z-1.000
G1 F660 X2.726 Y51.450 Z-1.000
G1 F660 X3.398 Y51.838 Z-1.000
G1 F660 X4.079 Y51.958 Z-1.000
G1 F660 X38.495 Y51.958 Z-1.000
G1 F660 X38.881 Y51.923 Z-1.000
G1 F660 X39.570 Y51.673 Z-1.000
G1 F660 X40.164 Y51.174 Z-1.000
G1 F660 X40.553 Y50.502 Z-1.000
G1 F660 X40.672 Y49.821 Z-1.000
G1 F660 X40.672 Y5.245 Z-1.000
G1 F660 X40.638 Y4.859 Z-1.000
G1 F660 X40.388 Y4.171 Z-1.000
G1 F660 X39.889 Y3.576 Z-1.000
G1 F660 X39.217 Y3.188 Z-1.000
G1 F660 X38.536 Y3.068 Z-1.000
G1 F660 X4.121 Y3.068 Z-1.000
G1 F660 X4.121 Y3.068 Z-1.500
G1 F660 X3.734 Y3.101 Z-1.500
G1 F660 X3.044 Y3.353 Z-1.500
G1 F660 X2.451 Y3.851 Z-1.500
G1 F660 X2.062 Y4.523 Z-1.500
G1 F660 X1.942 Y5.205 Z-1.500
G1 F660 X1.942 Y49.780 Z-1.500
G1 F660 X1.977 Y50.166 Z-1.500
G1 F660 X2.227 Y50.855 Z-1.500
G1 F660 X2.726 Y51.450 Z-1.500
G1 F660 X3.398 Y51.838 Z-1.500
G1 F660 X4.079 Y51.958 Z-1.500
G1 F660 X38.495 Y51.958 Z-1.500
G1 F660 X38.881 Y51.923 Z-1.500
G1 F660 X39.570 Y51.673 Z-1.500
G1 F660 X40.164 Y51.174 Z-1.500
G1 F660 X40.553 Y50.502 Z-1.500
G1 F660 X40.672 Y49.821 Z-1.500
G1 F660 X40.672 Y5.245 Z-1.500
G1 F660 X40.638 Y4.859 Z-1.500
G1 F660 X40.388 Y4.171 Z-1.500
G1 F660 X39.889 Y3.576 Z-1.500
G1 F660 X39.217 Y3.188 Z-1.500
G1 F660 X38.536 Y3.068 Z-1.500
G1 F660 X4.121 Y3.068 Z-1.500
G1 F660 X4.121 Y3.068 Z-2.000
G1 F660 X3.734 Y3.101 Z-2.000
G1 F660 X3.044 Y3.353 Z-2.000
G1 F660 X2.451 Y3.851 Z-2.000
G1 F660 X2.062 Y4.523 Z-2.000
G1 F660 X1.942 Y5.205 Z-2.000
G1 F660 X1.942 Y49.780 Z-2.000
G1 F660 X1.977 Y50.166 Z-2.000
G1 F660 X2.227 Y50.855 Z-2.000
G1 F660 X2.726 Y51.450 Z-2.000
G1 F660 X3.398 Y51.838 Z-2.000
G1 F660 X4.079 Y51.958 Z-2.000
G1 F660 X38.495 Y51.958 Z-2.000
G1 F660 X38.881 Y51.923 Z-2.000
G1 F660 X39.570 Y51.673 Z-2.000
G1 F660 X40.164 Y51.174 Z-2.000
G1 F660 X40.553 Y50.502 Z-2.000
G1 F660 X40.672 Y49.821 Z-2.000
G1 F660 X40.672 Y5.245 Z-2.000
G1 F660 X40.638 Y4.859 Z-2.000
G1 F660 X40.388 Y4.171 Z-2.000
G1 F660 X39.889 Y3.576 Z-2.000
G1 F660 X39.217 Y3.188 Z-2.000
G1 F660 X38.536 Y3.068 Z-2.000
G1 F660 X4.121 Y3.068 Z-2.000
G0 X4.121 Y3.068 Z6.000
G0 Z20.000
G0 X75 Y210
M5	;turn off spindle
