;Toolpath Name = drill PCB holes 1.5
;Tool Name   = 2mm - Single flute - Aluminium - Hattori
$H					;run GRBL homing cycle
G92 X-23.5 Y-2.5 Z0;set the difference between homing location and where we want X and Y home position to be
G0 X-16 Z-5		;quickly jog to a good position to start probing. X is important, Z negative is just to save some time
G38.2 F200 Z-50	;start probing downwards
G92 Z0				;make probe surface Z zero
G0 Z1				;move up 1 mm
G38.2 F50 Z-5		;probe again with extra slow speed for maximum precision
G92 Z0				;make probe surface Z zero again
G0 Z6.7			;move to the height of the bed
G92 Z-1.900	;set the top of material to be Z zero. Current postion (bed height) minus material thickness
G0 F480 Z20.000		;jog to safe Z height
M3 S24000			;start spindle and set spindle speed
G4 P5				;wait five seconds for spindle to reach full speed
G0 X6.854 Y17.277 Z6.000
G1 F660 X6.854 Y17.277 Z-2.000
G0 X6.854 Y17.277 Z6.000
G0 X9.394 Y17.277 Z6.000
G1 F660 X9.394 Y17.277 Z-2.000
G0 X9.394 Y17.277 Z6.000
G0 X9.394 Y19.817 Z6.000
G1 F660 X9.394 Y19.817 Z-2.000
G0 X9.394 Y19.817 Z6.000
G0 X9.394 Y22.357 Z6.000
G1 F660 X9.394 Y22.357 Z-2.000
G0 X9.394 Y22.357 Z6.000
G0 X6.854 Y22.357 Z6.000
G1 F660 X6.854 Y22.357 Z-2.000
G0 X6.854 Y22.357 Z6.000
G0 X6.854 Y19.817 Z6.000
G1 F660 X6.854 Y19.817 Z-2.000
G0 X6.854 Y19.817 Z6.000
G0 X6.854 Y24.897 Z6.000
G1 F660 X6.854 Y24.897 Z-2.000
G0 X6.854 Y24.897 Z6.000
G0 X9.394 Y24.897 Z6.000
G1 F660 X9.394 Y24.897 Z-2.000
G0 X9.394 Y24.897 Z6.000
G0 X9.394 Y27.437 Z6.000
G1 F660 X9.394 Y27.437 Z-2.000
G0 X9.394 Y27.437 Z6.000
G0 X9.394 Y29.977 Z6.000
G1 F660 X9.394 Y29.977 Z-2.000
G0 X9.394 Y29.977 Z6.000
G0 X9.394 Y32.517 Z6.000
G1 F660 X9.394 Y32.517 Z-2.000
G0 X9.394 Y32.517 Z6.000
G0 X6.854 Y32.517 Z6.000
G1 F660 X6.854 Y32.517 Z-2.000
G0 X6.854 Y32.517 Z6.000
G0 X6.854 Y29.977 Z6.000
G1 F660 X6.854 Y29.977 Z-2.000
G0 X6.854 Y29.977 Z6.000
G0 X6.854 Y27.437 Z6.000
G1 F660 X6.854 Y27.437 Z-2.000
G0 X6.854 Y27.437 Z6.000
G0 X6.854 Y35.057 Z6.000
G1 F660 X6.854 Y35.057 Z-2.000
G0 X6.854 Y35.057 Z6.000
G0 X9.394 Y35.057 Z6.000
G1 F660 X9.394 Y35.057 Z-2.000
G0 X9.394 Y35.057 Z6.000
G0 X21.688 Y34.625 Z6.000
G1 F660 X21.688 Y34.625 Z-2.000
G0 X21.688 Y34.625 Z6.000
G0 X21.688 Y37.165 Z6.000
G1 F660 X21.688 Y37.165 Z-2.000
G0 X21.688 Y37.165 Z6.000
G0 X21.688 Y39.705 Z6.000
G1 F660 X21.688 Y39.705 Z-2.000
G0 X21.688 Y39.705 Z6.000
G0 X21.688 Y42.245 Z6.000
G1 F660 X21.688 Y42.245 Z-2.000
G0 X21.688 Y42.245 Z6.000
G0 X21.688 Y44.785 Z6.000
G1 F660 X21.688 Y44.785 Z-2.000
G0 X21.688 Y44.785 Z6.000
G0 X21.688 Y47.325 Z6.000
G1 F660 X21.688 Y47.325 Z-2.000
G0 X21.688 Y47.325 Z6.000
G0 X36.928 Y47.325 Z6.000
G1 F660 X36.928 Y47.325 Z-2.000
G0 X36.928 Y47.325 Z6.000
G0 X36.928 Y44.785 Z6.000
G1 F660 X36.928 Y44.785 Z-2.000
G0 X36.928 Y44.785 Z6.000
G0 X36.928 Y42.245 Z6.000
G1 F660 X36.928 Y42.245 Z-2.000
G0 X36.928 Y42.245 Z6.000
G0 X36.928 Y39.705 Z6.000
G1 F660 X36.928 Y39.705 Z-2.000
G0 X36.928 Y39.705 Z6.000
G0 X36.928 Y37.165 Z6.000
G1 F660 X36.928 Y37.165 Z-2.000
G0 X36.928 Y37.165 Z6.000
G0 X36.928 Y34.625 Z6.000
G1 F660 X36.928 Y34.625 Z-2.000
G0 X36.928 Y34.625 Z6.000
G0 X36.928 Y32.085 Z6.000
G1 F660 X36.928 Y32.085 Z-2.000
G0 X36.928 Y32.085 Z6.000
G0 X36.928 Y29.545 Z6.000
G1 F660 X36.928 Y29.545 Z-2.000
G0 X36.928 Y29.545 Z6.000
G0 X36.928 Y27.005 Z6.000
G1 F660 X36.928 Y27.005 Z-2.000
G0 X36.928 Y27.005 Z6.000
G0 X36.928 Y24.465 Z6.000
G1 F660 X36.928 Y24.465 Z-2.000
G0 X36.928 Y24.465 Z6.000
G0 X36.928 Y21.925 Z6.000
G1 F660 X36.928 Y21.925 Z-2.000
G0 X36.928 Y21.925 Z6.000
G0 X36.928 Y19.385 Z6.000
G1 F660 X36.928 Y19.385 Z-2.000
G0 X36.928 Y19.385 Z6.000
G0 X36.928 Y16.845 Z6.000
G1 F660 X36.928 Y16.845 Z-2.000
G0 X36.928 Y16.845 Z6.000
G0 X36.928 Y14.305 Z6.000
G1 F660 X36.928 Y14.305 Z-2.000
G0 X36.928 Y14.305 Z6.000
G0 X36.928 Y11.765 Z6.000
G1 F660 X36.928 Y11.765 Z-2.000
G0 X36.928 Y11.765 Z6.000
G0 X36.928 Y9.225 Z6.000
G1 F660 X36.928 Y9.225 Z-2.000
G0 X36.928 Y9.225 Z6.000
G0 X36.928 Y6.685 Z6.000
G1 F660 X36.928 Y6.685 Z-2.000
G0 X36.928 Y6.685 Z6.000
G0 X21.688 Y6.685 Z6.000
G1 F660 X21.688 Y6.685 Z-2.000
G0 X21.688 Y6.685 Z6.000
G0 X21.688 Y9.225 Z6.000
G1 F660 X21.688 Y9.225 Z-2.000
G0 X21.688 Y9.225 Z6.000
G0 X21.688 Y11.765 Z6.000
G1 F660 X21.688 Y11.765 Z-2.000
G0 X21.688 Y11.765 Z6.000
G0 X21.688 Y14.305 Z6.000
G1 F660 X21.688 Y14.305 Z-2.000
G0 X21.688 Y14.305 Z6.000
G0 X21.688 Y16.845 Z6.000
G1 F660 X21.688 Y16.845 Z-2.000
G0 X21.688 Y16.845 Z6.000
G0 X21.688 Y19.385 Z6.000
G1 F660 X21.688 Y19.385 Z-2.000
G0 X21.688 Y19.385 Z6.000
G0 X21.688 Y21.925 Z6.000
G1 F660 X21.688 Y21.925 Z-2.000
G0 X21.688 Y21.925 Z6.000
G0 X21.688 Y24.465 Z6.000
G1 F660 X21.688 Y24.465 Z-2.000
G0 X21.688 Y24.465 Z6.000
G0 X21.688 Y27.005 Z6.000
G1 F660 X21.688 Y27.005 Z-2.000
G0 X21.688 Y27.005 Z6.000
G0 X21.688 Y29.545 Z6.000
G1 F660 X21.688 Y29.545 Z-2.000
G0 X21.688 Y29.545 Z6.000
G0 X21.688 Y32.085 Z6.000
G1 F660 X21.688 Y32.085 Z-2.000
G0 X21.688 Y32.085 Z6.000
G0 Z20.000
G0 X75 Y210
M5	;turn off spindle
