;Toolpath Name = PCB engrave 2
;Tool Name   = V-Bit (90 deg 0.5 mm)
$H					;run GRBL homing cycle
G92 X-23.5 Y-2.5 Z0;set the difference between homing location and where we want X and Y home position to be
G0 X-16 Z-5		;quickly jog to a good position to start probing. X is important, Z negative is just to save some time
G38.2 F200 Z-50	;start probing downwards
G92 Z0				;make probe surface Z zero
G0 Z1				;move up 1 mm
G38.2 F50 Z-5		;probe again with extra slow speed for maximum precision
G92 Z0				;make probe surface Z zero again
G0 Z6.7			;move to the height of the bed
G92 Z-1.900	;set the top of material to be Z zero. Current postion (bed height) minus material thickness
G0 F480 Z20.000		;jog to safe Z height
M3 S24000			;start spindle and set spindle speed
G4 P5				;wait five seconds for spindle to reach full speed
G0 X6.263 Y20.761 Z6.000
G1 F480 X6.263 Y20.761 Z0.000
G1 F480 X6.263 Y20.761 Z-0.250
G1 F480 X6.350 Y20.811 Z-0.250
G1 F480 X6.350 Y20.894 Z-0.250
G1 F480 X6.308 Y20.813 Z-0.250
G1 F480 X6.279 Y20.784 Z-0.250
G1 F480 X6.263 Y20.761 Z-0.250
G0 X6.263 Y20.761 Z6.000
G0 X6.350 Y21.291 Z6.000
G1 F480 X6.350 Y21.291 Z0.000
G1 F480 X6.350 Y21.291 Z-0.250
G1 F480 X6.350 Y21.362 Z-0.250
G1 F480 X6.263 Y21.412 Z-0.250
G1 F480 X6.279 Y21.389 Z-0.250
G1 F480 X6.283 Y21.385 Z-0.250
G1 F480 X6.350 Y21.291 Z-0.250
G0 X6.350 Y21.291 Z6.000
G0 X6.263 Y23.301 Z6.000
G1 F480 X6.263 Y23.301 Z0.000
G1 F480 X6.263 Y23.301 Z-0.250
G1 F480 X6.350 Y23.351 Z-0.250
G1 F480 X6.350 Y23.434 Z-0.250
G1 F480 X6.308 Y23.353 Z-0.250
G1 F480 X6.279 Y23.324 Z-0.250
G1 F480 X6.263 Y23.301 Z-0.250
G0 X6.263 Y23.301 Z6.000
G0 X6.350 Y23.831 Z6.000
G1 F480 X6.350 Y23.831 Z0.000
G1 F480 X6.350 Y23.831 Z-0.250
G1 F480 X6.350 Y23.902 Z-0.250
G1 F480 X6.263 Y23.952 Z-0.250
G1 F480 X6.279 Y23.929 Z-0.250
G1 F480 X6.283 Y23.925 Z-0.250
G1 F480 X6.350 Y23.831 Z-0.250
G0 X6.350 Y23.831 Z6.000
G0 X6.263 Y25.841 Z6.000
G1 F480 X6.263 Y25.841 Z0.000
G1 F480 X6.263 Y25.841 Z-0.250
G1 F480 X6.350 Y25.891 Z-0.250
G1 F480 X6.350 Y25.974 Z-0.250
G1 F480 X6.308 Y25.893 Z-0.250
G1 F480 X6.279 Y25.864 Z-0.250
G1 F480 X6.263 Y25.841 Z-0.250
G0 X6.263 Y25.841 Z6.000
G0 X6.350 Y26.371 Z6.000
G1 F480 X6.350 Y26.371 Z0.000
G1 F480 X6.350 Y26.371 Z-0.250
G1 F480 X6.350 Y26.442 Z-0.250
G1 F480 X6.263 Y26.492 Z-0.250
G1 F480 X6.279 Y26.469 Z-0.250
G1 F480 X6.283 Y26.465 Z-0.250
G1 F480 X6.350 Y26.371 Z-0.250
G0 X6.350 Y26.371 Z6.000
G0 X6.263 Y28.381 Z6.000
G1 F480 X6.263 Y28.381 Z0.000
G1 F480 X6.263 Y28.381 Z-0.250
G1 F480 X6.350 Y28.431 Z-0.250
G1 F480 X6.350 Y28.514 Z-0.250
G1 F480 X6.308 Y28.433 Z-0.250
G1 F480 X6.279 Y28.404 Z-0.250
G1 F480 X6.263 Y28.381 Z-0.250
G0 X6.263 Y28.381 Z6.000
G0 X6.350 Y28.911 Z6.000
G1 F480 X6.350 Y28.911 Z0.000
G1 F480 X6.350 Y28.911 Z-0.250
G1 F480 X6.350 Y28.982 Z-0.250
G1 F480 X6.263 Y29.032 Z-0.250
G1 F480 X6.279 Y29.009 Z-0.250
G1 F480 X6.283 Y29.005 Z-0.250
G1 F480 X6.350 Y28.911 Z-0.250
G0 X6.350 Y28.911 Z6.000
G0 X6.263 Y30.921 Z6.000
G1 F480 X6.263 Y30.921 Z0.000
G1 F480 X6.263 Y30.921 Z-0.250
G1 F480 X6.350 Y30.971 Z-0.250
G1 F480 X6.350 Y31.054 Z-0.250
G1 F480 X6.308 Y30.973 Z-0.250
G1 F480 X6.279 Y30.944 Z-0.250
G1 F480 X6.263 Y30.921 Z-0.250
G0 X6.263 Y30.921 Z6.000
G0 X6.350 Y31.451 Z6.000
G1 F480 X6.350 Y31.451 Z0.000
G1 F480 X6.350 Y31.451 Z-0.250
G1 F480 X6.350 Y31.522 Z-0.250
G1 F480 X6.263 Y31.572 Z-0.250
G1 F480 X6.279 Y31.549 Z-0.250
G1 F480 X6.283 Y31.545 Z-0.250
G1 F480 X6.350 Y31.451 Z-0.250
G0 X6.350 Y31.451 Z6.000
G0 X6.263 Y33.461 Z6.000
G1 F480 X6.263 Y33.461 Z0.000
G1 F480 X6.263 Y33.461 Z-0.250
G1 F480 X6.350 Y33.511 Z-0.250
G1 F480 X6.350 Y33.594 Z-0.250
G1 F480 X6.308 Y33.513 Z-0.250
G1 F480 X6.279 Y33.484 Z-0.250
G1 F480 X6.263 Y33.461 Z-0.250
G0 X6.263 Y33.461 Z6.000
G0 X6.350 Y33.991 Z6.000
G1 F480 X6.350 Y33.991 Z0.000
G1 F480 X6.350 Y33.991 Z-0.250
G1 F480 X6.350 Y34.062 Z-0.250
G1 F480 X6.263 Y34.112 Z-0.250
G1 F480 X6.279 Y34.089 Z-0.250
G1 F480 X6.283 Y34.085 Z-0.250
G1 F480 X6.350 Y33.991 Z-0.250
G0 X6.350 Y33.991 Z6.000
G0 X7.857 Y35.561 Z6.000
G1 F480 X7.857 Y35.561 Z0.000
G1 F480 X8.281 Y35.561 Z-0.016
G1 F480 X8.281 Y35.920 Z-0.030
G1 F480 X8.284 Y35.956 Z-0.032
G1 F480 X8.292 Y35.994 Z-0.033
G1 F480 X8.307 Y36.030 Z-0.035
G1 F480 X8.328 Y36.065 Z-0.036
G1 F480 X8.355 Y36.097 Z-0.038
G1 F480 X8.386 Y36.124 Z-0.039
G1 F480 X8.421 Y36.144 Z-0.041
G1 F480 X8.458 Y36.159 Z-0.043
G1 F480 X8.495 Y36.167 Z-0.044
G1 F480 X8.531 Y36.170 Z-0.045
G1 F480 X8.890 Y36.170 Z-0.059
G1 F480 X8.890 Y36.178 Z-0.060
G1 F480 X8.480 Y36.178 Z-0.075
G1 F480 X8.385 Y36.139 Z-0.079
G1 F480 X8.312 Y36.066 Z-0.083
G1 F480 X8.293 Y36.029 Z-0.085
G1 F480 X8.227 Y35.926 Z-0.090
G1 F480 X8.189 Y35.896 Z-0.092
G1 F480 X8.183 Y35.890 Z-0.092
G1 F480 X8.093 Y35.824 Z-0.096
G1 F480 X8.050 Y35.810 Z-0.098
G1 F480 X8.046 Y35.808 Z-0.098
G1 F480 X7.936 Y35.774 Z-0.103
G1 F480 X7.890 Y35.776 Z-0.104
G1 F480 X7.886 Y35.776 Z-0.104
G1 F480 X7.770 Y35.782 Z-0.109
G1 F480 X7.726 Y35.799 Z-0.111
G1 F480 X7.674 Y35.813 Z-0.113
G1 F480 X7.834 Y35.622 Z-0.122
G1 F480 X7.857 Y35.561 Z-0.125
G1 F480 X7.834 Y35.622 Z-0.128
G1 F480 X7.674 Y35.813 Z-0.137
G1 F480 X7.726 Y35.799 Z-0.139
G1 F480 X7.770 Y35.782 Z-0.141
G1 F480 X7.886 Y35.776 Z-0.146
G1 F480 X7.890 Y35.776 Z-0.146
G1 F480 X7.936 Y35.774 Z-0.147
G1 F480 X8.046 Y35.808 Z-0.152
G1 F480 X8.050 Y35.810 Z-0.152
G1 F480 X8.093 Y35.824 Z-0.154
G1 F480 X8.183 Y35.890 Z-0.158
G1 F480 X8.189 Y35.896 Z-0.158
G1 F480 X8.227 Y35.926 Z-0.160
G1 F480 X8.293 Y36.029 Z-0.165
G1 F480 X8.312 Y36.066 Z-0.167
G1 F480 X8.385 Y36.139 Z-0.171
G1 F480 X8.480 Y36.178 Z-0.175
G1 F480 X8.890 Y36.178 Z-0.190
G1 F480 X8.890 Y36.170 Z-0.191
G1 F480 X8.531 Y36.170 Z-0.205
G1 F480 X8.495 Y36.167 Z-0.206
G1 F480 X8.458 Y36.159 Z-0.207
G1 F480 X8.421 Y36.144 Z-0.209
G1 F480 X8.386 Y36.124 Z-0.211
G1 F480 X8.355 Y36.097 Z-0.212
G1 F480 X8.328 Y36.065 Z-0.214
G1 F480 X8.307 Y36.030 Z-0.215
G1 F480 X8.292 Y35.994 Z-0.217
G1 F480 X8.284 Y35.956 Z-0.218
G1 F480 X8.281 Y35.920 Z-0.220
G1 F480 X8.281 Y35.561 Z-0.234
G1 F480 X7.857 Y35.561 Z-0.250
G1 F480 X8.281 Y35.561 Z-0.250
G1 F480 X8.281 Y35.920 Z-0.250
G1 F480 X8.284 Y35.956 Z-0.250
G1 F480 X8.292 Y35.994 Z-0.250
G1 F480 X8.307 Y36.030 Z-0.250
G1 F480 X8.328 Y36.065 Z-0.250
G1 F480 X8.355 Y36.097 Z-0.250
G1 F480 X8.386 Y36.124 Z-0.250
G1 F480 X8.421 Y36.144 Z-0.250
G1 F480 X8.458 Y36.159 Z-0.250
G1 F480 X8.495 Y36.167 Z-0.250
G1 F480 X8.531 Y36.170 Z-0.250
G1 F480 X8.890 Y36.170 Z-0.250
G1 F480 X8.890 Y36.178 Z-0.250
G1 F480 X8.480 Y36.178 Z-0.250
G1 F480 X8.385 Y36.139 Z-0.250
G1 F480 X8.312 Y36.066 Z-0.250
G1 F480 X8.293 Y36.029 Z-0.250
G1 F480 X8.227 Y35.926 Z-0.250
G1 F480 X8.189 Y35.896 Z-0.250
G1 F480 X8.183 Y35.890 Z-0.250
G1 F480 X8.093 Y35.824 Z-0.250
G1 F480 X8.050 Y35.810 Z-0.250
G1 F480 X8.046 Y35.808 Z-0.250
G1 F480 X7.936 Y35.774 Z-0.250
G1 F480 X7.890 Y35.776 Z-0.250
G1 F480 X7.886 Y35.776 Z-0.250
G1 F480 X7.770 Y35.782 Z-0.250
G1 F480 X7.726 Y35.799 Z-0.250
G1 F480 X7.674 Y35.813 Z-0.250
G1 F480 X7.834 Y35.622 Z-0.250
G1 F480 X7.857 Y35.561 Z-0.250
G0 X7.857 Y35.561 Z6.000
G0 X10.508 Y35.561 Z6.000
G1 F480 X10.508 Y35.561 Z0.000
G1 F480 X10.516 Y35.561 Z0.000
G1 F480 X10.516 Y35.972 Z-0.023
G1 F480 X10.477 Y36.066 Z-0.029
G1 F480 X10.405 Y36.139 Z-0.035
G1 F480 X10.310 Y36.178 Z-0.040
G1 F480 X9.898 Y36.178 Z-0.063
G1 F480 X9.898 Y36.170 Z-0.063
G1 F480 X10.258 Y36.170 Z-0.083
G1 F480 X10.291 Y36.168 Z-0.085
G1 F480 X10.325 Y36.161 Z-0.087
G1 F480 X10.359 Y36.149 Z-0.089
G1 F480 X10.391 Y36.132 Z-0.091
G1 F480 X10.421 Y36.110 Z-0.093
G1 F480 X10.448 Y36.083 Z-0.095
G1 F480 X10.470 Y36.053 Z-0.097
G1 F480 X10.487 Y36.020 Z-0.099
G1 F480 X10.499 Y35.987 Z-0.101
G1 F480 X10.506 Y35.953 Z-0.103
G1 F480 X10.508 Y35.920 Z-0.105
G1 F480 X10.508 Y35.561 Z-0.125
G1 F480 X10.508 Y35.920 Z-0.145
G1 F480 X10.506 Y35.953 Z-0.147
G1 F480 X10.499 Y35.987 Z-0.149
G1 F480 X10.487 Y36.020 Z-0.151
G1 F480 X10.470 Y36.053 Z-0.153
G1 F480 X10.448 Y36.083 Z-0.155
G1 F480 X10.421 Y36.110 Z-0.157
G1 F480 X10.391 Y36.132 Z-0.159
G1 F480 X10.359 Y36.149 Z-0.161
G1 F480 X10.325 Y36.161 Z-0.163
G1 F480 X10.291 Y36.168 Z-0.165
G1 F480 X10.258 Y36.170 Z-0.167
G1 F480 X9.898 Y36.170 Z-0.187
G1 F480 X9.898 Y36.178 Z-0.187
G1 F480 X10.310 Y36.178 Z-0.210
G1 F480 X10.405 Y36.139 Z-0.215
G1 F480 X10.477 Y36.066 Z-0.221
G1 F480 X10.516 Y35.972 Z-0.227
G1 F480 X10.516 Y35.561 Z-0.250
G1 F480 X10.508 Y35.561 Z-0.250
G1 F480 X10.516 Y35.561 Z-0.250
G1 F480 X10.516 Y35.972 Z-0.250
G1 F480 X10.477 Y36.066 Z-0.250
G1 F480 X10.405 Y36.139 Z-0.250
G1 F480 X10.310 Y36.178 Z-0.250
G1 F480 X9.898 Y36.178 Z-0.250
G1 F480 X9.898 Y36.170 Z-0.250
G1 F480 X10.258 Y36.170 Z-0.250
G1 F480 X10.291 Y36.168 Z-0.250
G1 F480 X10.325 Y36.161 Z-0.250
G1 F480 X10.359 Y36.149 Z-0.250
G1 F480 X10.391 Y36.132 Z-0.250
G1 F480 X10.421 Y36.110 Z-0.250
G1 F480 X10.448 Y36.083 Z-0.250
G1 F480 X10.470 Y36.053 Z-0.250
G1 F480 X10.487 Y36.020 Z-0.250
G1 F480 X10.499 Y35.987 Z-0.250
G1 F480 X10.506 Y35.953 Z-0.250
G1 F480 X10.508 Y35.920 Z-0.250
G1 F480 X10.508 Y35.561 Z-0.250
G0 X10.508 Y35.561 Z6.000
G0 X3.445 Y5.339 Z6.000
G1 F480 X3.445 Y5.339 Z0.000
G1 F480 X3.442 Y5.358 Z0.000
G1 F480 X3.442 Y30.339 Z-0.125
G1 F480 X3.442 Y5.358 Z-0.250
G1 F480 X3.445 Y5.339 Z-0.250
G1 F480 X3.442 Y5.358 Z-0.250
G1 F480 X3.442 Y49.693 Z-0.250
G1 F480 X3.444 Y49.733 Z-0.250
G1 F480 X3.449 Y49.796 Z-0.250
G1 F480 X3.460 Y49.837 Z-0.250
G1 F480 X3.467 Y49.876 Z-0.250
G1 F480 X3.526 Y50.039 Z-0.250
G1 F480 X3.551 Y50.079 Z-0.250
G1 F480 X3.585 Y50.140 Z-0.250
G1 F480 X3.665 Y50.235 Z-0.250
G1 F480 X3.759 Y50.313 Z-0.250
G1 F480 X3.865 Y50.375 Z-0.250
G1 F480 X3.980 Y50.417 Z-0.250
G1 F480 X4.191 Y50.455 Z-0.250
G1 F480 X4.214 Y50.455 Z-0.250
G1 F480 X4.234 Y50.458 Z-0.250
G1 F480 X18.155 Y50.458 Z-0.250
G1 F480 X18.196 Y50.451 Z-0.250
G1 F480 X18.217 Y50.448 Z-0.250
G1 F480 X18.300 Y50.430 Z-0.250
G1 F480 X18.352 Y50.402 Z-0.250
G1 F480 X18.374 Y50.390 Z-0.250
G1 F480 X18.444 Y50.345 Z-0.250
G1 F480 X18.481 Y50.303 Z-0.250
G1 F480 X18.495 Y50.288 Z-0.250
G1 F480 X18.551 Y50.213 Z-0.250
G1 F480 X18.569 Y50.166 Z-0.250
G1 F480 X18.577 Y50.149 Z-0.250
G1 F480 X18.605 Y50.059 Z-0.250
G1 F480 X18.605 Y50.001 Z-0.250
G1 F480 X18.607 Y49.979 Z-0.250
G1 F480 X18.604 Y49.895 Z-0.250
G1 F480 X18.583 Y49.839 Z-0.250
G1 F480 X18.578 Y49.819 Z-0.250
G1 F480 X18.544 Y49.737 Z-0.250
G1 F480 X18.506 Y49.693 Z-0.250
G1 F480 X18.484 Y49.662 Z-0.250
G1 F480 X17.657 Y48.835 Z-0.250
G1 F480 X17.636 Y48.819 Z-0.250
G1 F480 X17.617 Y48.801 Z-0.250
G1 F480 X17.574 Y48.773 Z-0.250
G1 F480 X17.515 Y48.685 Z-0.250
G1 F480 X17.402 Y48.516 Z-0.250
G1 F480 X17.342 Y48.214 Z-0.250
G1 F480 X17.348 Y48.184 Z-0.250
G1 F480 X17.357 Y48.096 Z-0.250
G1 F480 X17.357 Y40.551 Z-0.250
G1 F480 X17.355 Y40.494 Z-0.250
G1 F480 X17.343 Y40.447 Z-0.250
G1 F480 X17.338 Y40.423 Z-0.250
G1 F480 X17.313 Y40.343 Z-0.250
G1 F480 X17.280 Y40.297 Z-0.250
G1 F480 X17.271 Y40.281 Z-0.250
G1 F480 X17.228 Y40.224 Z-0.250
G1 F480 X11.312 Y34.308 Z-0.250
G1 F480 X11.280 Y34.286 Z-0.250
G1 F480 X11.267 Y34.275 Z-0.250
G1 F480 X11.187 Y34.224 Z-0.250
G1 F480 X11.133 Y34.209 Z-0.250
G1 F480 X11.114 Y34.203 Z-0.250
G1 F480 X11.027 Y34.183 Z-0.250
G1 F480 X10.971 Y34.188 Z-0.250
G1 F480 X10.952 Y34.188 Z-0.250
G1 F480 X10.863 Y34.200 Z-0.250
G1 F480 X10.812 Y34.223 Z-0.250
G1 F480 X10.794 Y34.230 Z-0.250
G1 F480 X10.712 Y34.272 Z-0.250
G1 F480 X10.672 Y34.312 Z-0.250
G1 F480 X10.656 Y34.325 Z-0.250
G1 F480 X10.598 Y34.389 Z-0.250
G1 F480 X10.572 Y34.442 Z-0.250
G1 F480 X10.561 Y34.462 Z-0.250
G1 F480 X10.524 Y34.553 Z-0.250
G1 F480 X10.508 Y34.553 Z-0.250
G1 F480 X10.508 Y34.193 Z-0.250
G1 F480 X10.506 Y34.160 Z-0.250
G1 F480 X10.499 Y34.126 Z-0.250
G1 F480 X10.487 Y34.093 Z-0.250
G1 F480 X10.470 Y34.060 Z-0.250
G1 F480 X10.448 Y34.030 Z-0.250
G1 F480 X10.421 Y34.003 Z-0.250
G1 F480 X10.391 Y33.981 Z-0.250
G1 F480 X10.359 Y33.964 Z-0.250
G1 F480 X10.325 Y33.952 Z-0.250
G1 F480 X10.291 Y33.945 Z-0.250
G1 F480 X10.258 Y33.943 Z-0.250
G1 F480 X8.531 Y33.943 Z-0.250
G1 F480 X8.498 Y33.945 Z-0.250
G1 F480 X8.465 Y33.952 Z-0.250
G1 F480 X8.431 Y33.964 Z-0.250
G1 F480 X8.398 Y33.981 Z-0.250
G1 F480 X8.368 Y34.003 Z-0.250
G1 F480 X8.342 Y34.030 Z-0.250
G1 F480 X8.320 Y34.060 Z-0.250
G1 F480 X8.302 Y34.093 Z-0.250
G1 F480 X8.290 Y34.126 Z-0.250
G1 F480 X8.284 Y34.160 Z-0.250
G1 F480 X8.281 Y34.193 Z-0.250
G1 F480 X8.281 Y34.553 Z-0.250
G1 F480 X7.857 Y34.553 Z-0.250
G1 F480 X7.834 Y34.491 Z-0.250
G1 F480 X7.581 Y34.190 Z-0.250
G1 F480 X7.358 Y34.062 Z-0.250
G1 F480 X7.358 Y33.511 Z-0.250
G1 F480 X7.581 Y33.383 Z-0.250
G1 F480 X7.834 Y33.082 Z-0.250
G1 F480 X7.968 Y32.713 Z-0.250
G1 F480 X7.968 Y32.320 Z-0.250
G1 F480 X7.834 Y31.951 Z-0.250
G1 F480 X7.581 Y31.650 Z-0.250
G1 F480 X7.358 Y31.522 Z-0.250
G1 F480 X7.358 Y30.971 Z-0.250
G1 F480 X7.581 Y30.843 Z-0.250
G1 F480 X7.834 Y30.542 Z-0.250
G1 F480 X7.968 Y30.173 Z-0.250
G1 F480 X7.968 Y29.780 Z-0.250
G1 F480 X7.834 Y29.411 Z-0.250
G1 F480 X7.581 Y29.110 Z-0.250
G1 F480 X7.358 Y28.982 Z-0.250
G1 F480 X7.358 Y28.431 Z-0.250
G1 F480 X7.581 Y28.303 Z-0.250
G1 F480 X7.834 Y28.002 Z-0.250
G1 F480 X7.968 Y27.633 Z-0.250
G1 F480 X7.968 Y27.240 Z-0.250
G1 F480 X7.834 Y26.871 Z-0.250
G1 F480 X7.581 Y26.570 Z-0.250
G1 F480 X7.358 Y26.442 Z-0.250
G1 F480 X7.358 Y25.891 Z-0.250
G1 F480 X7.581 Y25.763 Z-0.250
G1 F480 X7.834 Y25.462 Z-0.250
G1 F480 X7.968 Y25.093 Z-0.250
G1 F480 X7.968 Y24.700 Z-0.250
G1 F480 X7.834 Y24.331 Z-0.250
G1 F480 X7.581 Y24.030 Z-0.250
G1 F480 X7.358 Y23.902 Z-0.250
G1 F480 X7.358 Y23.351 Z-0.250
G1 F480 X7.581 Y23.223 Z-0.250
G1 F480 X7.834 Y22.922 Z-0.250
G1 F480 X7.968 Y22.553 Z-0.250
G1 F480 X7.968 Y22.160 Z-0.250
G1 F480 X7.834 Y21.791 Z-0.250
G1 F480 X7.581 Y21.490 Z-0.250
G1 F480 X7.358 Y21.362 Z-0.250
G1 F480 X7.358 Y20.811 Z-0.250
G1 F480 X7.581 Y20.683 Z-0.250
G1 F480 X7.834 Y20.382 Z-0.250
G1 F480 X7.968 Y20.013 Z-0.250
G1 F480 X7.968 Y19.620 Z-0.250
G1 F480 X7.834 Y19.251 Z-0.250
G1 F480 X7.581 Y18.950 Z-0.250
G1 F480 X7.241 Y18.754 Z-0.250
G1 F480 X6.952 Y18.703 Z-0.250
G1 F480 X6.757 Y18.703 Z-0.250
G1 F480 X6.467 Y18.754 Z-0.250
G1 F480 X6.166 Y18.928 Z-0.250
G1 F480 X6.152 Y18.937 Z-0.250
G1 F480 X6.167 Y18.903 Z-0.250
G1 F480 X6.179 Y18.855 Z-0.250
G1 F480 X6.187 Y18.829 Z-0.250
G1 F480 X6.201 Y18.754 Z-0.250
G1 F480 X6.193 Y18.691 Z-0.250
G1 F480 X6.192 Y18.664 Z-0.250
G1 F480 X6.176 Y18.584 Z-0.250
G1 F480 X6.151 Y18.532 Z-0.250
G1 F480 X6.139 Y18.505 Z-0.250
G1 F480 X6.100 Y18.440 Z-0.250
G1 F480 X6.058 Y18.399 Z-0.250
G1 F480 X6.036 Y18.376 Z-0.250
G1 F480 X5.994 Y18.341 Z-0.250
G1 F480 X5.872 Y18.260 Z-0.250
G1 F480 X5.570 Y17.809 Z-0.250
G1 F480 X5.464 Y17.277 Z-0.250
G1 F480 X5.570 Y16.744 Z-0.250
G1 F480 X5.872 Y16.293 Z-0.250
G1 F480 X6.323 Y15.992 Z-0.250
G1 F480 X6.720 Y15.913 Z-0.250
G1 F480 X6.989 Y15.913 Z-0.250
G1 F480 X7.387 Y15.992 Z-0.250
G1 F480 X7.860 Y16.309 Z-0.250
G1 F480 X7.927 Y16.347 Z-0.250
G1 F480 X7.963 Y16.358 Z-0.250
G1 F480 X7.972 Y16.362 Z-0.250
G1 F480 X8.076 Y16.390 Z-0.250
G1 F480 X8.125 Y16.386 Z-0.250
G1 F480 X8.133 Y16.387 Z-0.250
G1 F480 X8.242 Y16.378 Z-0.250
G1 F480 X8.287 Y16.358 Z-0.250
G1 F480 X8.293 Y16.356 Z-0.250
G1 F480 X8.373 Y16.319 Z-0.250
G1 F480 X8.863 Y15.992 Z-0.250
G1 F480 X9.260 Y15.913 Z-0.250
G1 F480 X9.529 Y15.913 Z-0.250
G1 F480 X9.927 Y15.992 Z-0.250
G1 F480 X10.378 Y16.293 Z-0.250
G1 F480 X10.679 Y16.744 Z-0.250
G1 F480 X10.785 Y17.277 Z-0.250
G1 F480 X10.679 Y17.808 Z-0.250
G1 F480 X10.362 Y18.283 Z-0.250
G1 F480 X10.324 Y18.349 Z-0.250
G1 F480 X10.312 Y18.388 Z-0.250
G1 F480 X10.307 Y18.400 Z-0.250
G1 F480 X10.281 Y18.499 Z-0.250
G1 F480 X10.285 Y18.547 Z-0.250
G1 F480 X10.284 Y18.551 Z-0.250
G1 F480 X10.294 Y18.660 Z-0.250
G1 F480 X10.312 Y18.705 Z-0.250
G1 F480 X10.316 Y18.717 Z-0.250
G1 F480 X10.353 Y18.796 Z-0.250
G1 F480 X10.679 Y19.285 Z-0.250
G1 F480 X10.785 Y19.817 Z-0.250
G1 F480 X10.679 Y20.348 Z-0.250
G1 F480 X10.362 Y20.823 Z-0.250
G1 F480 X10.324 Y20.889 Z-0.250
G1 F480 X10.312 Y20.928 Z-0.250
G1 F480 X10.307 Y20.940 Z-0.250
G1 F480 X10.281 Y21.039 Z-0.250
G1 F480 X10.285 Y21.087 Z-0.250
G1 F480 X10.284 Y21.091 Z-0.250
G1 F480 X10.294 Y21.200 Z-0.250
G1 F480 X10.312 Y21.245 Z-0.250
G1 F480 X10.316 Y21.257 Z-0.250
G1 F480 X10.353 Y21.336 Z-0.250
G1 F480 X10.679 Y21.825 Z-0.250
G1 F480 X10.785 Y22.357 Z-0.250
G1 F480 X10.679 Y22.888 Z-0.250
G1 F480 X10.362 Y23.363 Z-0.250
G1 F480 X10.324 Y23.429 Z-0.250
G1 F480 X10.312 Y23.468 Z-0.250
G1 F480 X10.307 Y23.480 Z-0.250
G1 F480 X10.281 Y23.579 Z-0.250
G1 F480 X10.285 Y23.627 Z-0.250
G1 F480 X10.284 Y23.631 Z-0.250
G1 F480 X10.294 Y23.740 Z-0.250
G1 F480 X10.312 Y23.785 Z-0.250
G1 F480 X10.316 Y23.797 Z-0.250
G1 F480 X10.353 Y23.876 Z-0.250
G1 F480 X10.679 Y24.365 Z-0.250
G1 F480 X10.785 Y24.897 Z-0.250
G1 F480 X10.679 Y25.428 Z-0.250
G1 F480 X10.362 Y25.903 Z-0.250
G1 F480 X10.324 Y25.969 Z-0.250
G1 F480 X10.312 Y26.008 Z-0.250
G1 F480 X10.307 Y26.020 Z-0.250
G1 F480 X10.281 Y26.119 Z-0.250
G1 F480 X10.285 Y26.167 Z-0.250
G1 F480 X10.284 Y26.171 Z-0.250
G1 F480 X10.294 Y26.280 Z-0.250
G1 F480 X10.312 Y26.325 Z-0.250
G1 F480 X10.316 Y26.337 Z-0.250
G1 F480 X10.352 Y26.414 Z-0.250
G1 F480 X10.386 Y26.467 Z-0.250
G1 F480 X10.420 Y26.503 Z-0.250
G1 F480 X10.437 Y26.522 Z-0.250
G1 F480 X10.494 Y26.576 Z-0.250
G1 F480 X10.548 Y26.602 Z-0.250
G1 F480 X10.566 Y26.613 Z-0.250
G1 F480 X10.644 Y26.647 Z-0.250
G1 F480 X10.704 Y26.654 Z-0.250
G1 F480 X10.748 Y26.662 Z-0.250
G1 F480 X12.835 Y26.662 Z-0.250
G1 F480 X12.895 Y26.659 Z-0.250
G1 F480 X12.938 Y26.647 Z-0.250
G1 F480 X12.956 Y26.644 Z-0.250
G1 F480 X13.043 Y26.617 Z-0.250
G1 F480 X13.088 Y26.585 Z-0.250
G1 F480 X13.103 Y26.577 Z-0.250
G1 F480 X13.163 Y26.531 Z-0.250
G1 F480 X20.017 Y19.677 Z-0.250
G1 F480 X20.040 Y19.645 Z-0.250
G1 F480 X20.051 Y19.632 Z-0.250
G1 F480 X20.103 Y19.553 Z-0.250
G1 F480 X20.116 Y19.503 Z-0.250
G1 F480 X20.129 Y19.470 Z-0.250
G1 F480 X20.252 Y18.853 Z-0.250
G1 F480 X20.553 Y18.402 Z-0.250
G1 F480 X20.645 Y18.340 Z-0.250
G1 F480 X20.711 Y18.288 Z-0.250
G1 F480 X20.733 Y18.261 Z-0.250
G1 F480 X20.740 Y18.254 Z-0.250
G1 F480 X20.782 Y18.197 Z-0.250
G1 F480 X20.821 Y18.120 Z-0.250
G1 F480 X20.856 Y18.005 Z-0.250
G1 F480 X20.854 Y17.958 Z-0.250
G1 F480 X20.854 Y17.953 Z-0.250
G1 F480 X20.847 Y17.840 Z-0.250
G1 F480 X20.831 Y17.800 Z-0.250
G1 F480 X20.831 Y17.797 Z-0.250
G1 F480 X20.792 Y17.706 Z-0.250
G1 F480 X20.750 Y17.641 Z-0.250
G1 F480 X20.809 Y17.711 Z-0.250
G1 F480 X21.150 Y17.907 Z-0.250
G1 F480 X21.438 Y17.958 Z-0.250
G1 F480 X21.938 Y17.958 Z-0.250
G1 F480 X22.227 Y17.907 Z-0.250
G1 F480 X22.567 Y17.711 Z-0.250
G1 F480 X22.627 Y17.641 Z-0.250
G1 F480 X22.596 Y17.688 Z-0.250
G1 F480 X22.553 Y17.766 Z-0.250
G1 F480 X22.545 Y17.800 Z-0.250
G1 F480 X22.544 Y17.803 Z-0.250
G1 F480 X22.519 Y17.913 Z-0.250
G1 F480 X22.523 Y17.958 Z-0.250
G1 F480 X22.523 Y17.962 Z-0.250
G1 F480 X22.531 Y18.040 Z-0.250
G1 F480 X22.556 Y18.120 Z-0.250
G1 F480 X22.609 Y18.226 Z-0.250
G1 F480 X22.643 Y18.261 Z-0.250
G1 F480 X22.649 Y18.268 Z-0.250
G1 F480 X22.715 Y18.329 Z-0.250
G1 F480 X22.824 Y18.402 Z-0.250
G1 F480 X23.125 Y18.853 Z-0.250
G1 F480 X23.231 Y19.385 Z-0.250
G1 F480 X23.125 Y19.917 Z-0.250
G1 F480 X22.808 Y20.391 Z-0.250
G1 F480 X22.770 Y20.457 Z-0.250
G1 F480 X22.758 Y20.496 Z-0.250
G1 F480 X22.753 Y20.508 Z-0.250
G1 F480 X22.727 Y20.607 Z-0.250
G1 F480 X22.730 Y20.655 Z-0.250
G1 F480 X22.730 Y20.659 Z-0.250
G1 F480 X22.740 Y20.769 Z-0.250
G1 F480 X22.758 Y20.813 Z-0.250
G1 F480 X22.762 Y20.825 Z-0.250
G1 F480 X22.799 Y20.904 Z-0.250
G1 F480 X23.125 Y21.393 Z-0.250
G1 F480 X23.231 Y21.925 Z-0.250
G1 F480 X23.125 Y22.457 Z-0.250
G1 F480 X22.808 Y22.931 Z-0.250
G1 F480 X22.770 Y22.997 Z-0.250
G1 F480 X22.758 Y23.036 Z-0.250
G1 F480 X22.753 Y23.048 Z-0.250
G1 F480 X22.727 Y23.147 Z-0.250
G1 F480 X22.730 Y23.195 Z-0.250
G1 F480 X22.730 Y23.199 Z-0.250
G1 F480 X22.740 Y23.309 Z-0.250
G1 F480 X22.758 Y23.353 Z-0.250
G1 F480 X22.762 Y23.365 Z-0.250
G1 F480 X22.799 Y23.444 Z-0.250
G1 F480 X23.125 Y23.933 Z-0.250
G1 F480 X23.231 Y24.465 Z-0.250
G1 F480 X23.125 Y24.997 Z-0.250
G1 F480 X22.808 Y25.471 Z-0.250
G1 F480 X22.770 Y25.537 Z-0.250
G1 F480 X22.758 Y25.576 Z-0.250
G1 F480 X22.753 Y25.588 Z-0.250
G1 F480 X22.727 Y25.687 Z-0.250
G1 F480 X22.730 Y25.735 Z-0.250
G1 F480 X22.730 Y25.739 Z-0.250
G1 F480 X22.740 Y25.849 Z-0.250
G1 F480 X22.758 Y25.893 Z-0.250
G1 F480 X22.762 Y25.905 Z-0.250
G1 F480 X22.799 Y25.984 Z-0.250
G1 F480 X23.125 Y26.473 Z-0.250
G1 F480 X23.231 Y27.005 Z-0.250
G1 F480 X23.125 Y27.537 Z-0.250
G1 F480 X22.808 Y28.011 Z-0.250
G1 F480 X22.770 Y28.077 Z-0.250
G1 F480 X22.758 Y28.116 Z-0.250
G1 F480 X22.753 Y28.128 Z-0.250
G1 F480 X22.727 Y28.227 Z-0.250
G1 F480 X22.730 Y28.275 Z-0.250
G1 F480 X22.730 Y28.279 Z-0.250
G1 F480 X22.740 Y28.389 Z-0.250
G1 F480 X22.758 Y28.433 Z-0.250
G1 F480 X22.762 Y28.445 Z-0.250
G1 F480 X22.799 Y28.524 Z-0.250
G1 F480 X23.125 Y29.013 Z-0.250
G1 F480 X23.231 Y29.545 Z-0.250
G1 F480 X23.125 Y30.077 Z-0.250
G1 F480 X22.808 Y30.551 Z-0.250
G1 F480 X22.770 Y30.617 Z-0.250
G1 F480 X22.758 Y30.656 Z-0.250
G1 F480 X22.753 Y30.668 Z-0.250
G1 F480 X22.727 Y30.767 Z-0.250
G1 F480 X22.730 Y30.815 Z-0.250
G1 F480 X22.730 Y30.819 Z-0.250
G1 F480 X22.740 Y30.929 Z-0.250
G1 F480 X22.758 Y30.973 Z-0.250
G1 F480 X22.762 Y30.985 Z-0.250
G1 F480 X22.799 Y31.064 Z-0.250
G1 F480 X23.125 Y31.553 Z-0.250
G1 F480 X23.231 Y32.085 Z-0.250
G1 F480 X23.125 Y32.617 Z-0.250
G1 F480 X22.808 Y33.091 Z-0.250
G1 F480 X22.770 Y33.157 Z-0.250
G1 F480 X22.758 Y33.196 Z-0.250
G1 F480 X22.753 Y33.208 Z-0.250
G1 F480 X22.727 Y33.307 Z-0.250
G1 F480 X22.730 Y33.355 Z-0.250
G1 F480 X22.730 Y33.359 Z-0.250
G1 F480 X22.740 Y33.469 Z-0.250
G1 F480 X22.758 Y33.513 Z-0.250
G1 F480 X22.762 Y33.525 Z-0.250
G1 F480 X22.799 Y33.604 Z-0.250
G1 F480 X23.125 Y34.093 Z-0.250
G1 F480 X23.231 Y34.625 Z-0.250
G1 F480 X23.125 Y35.157 Z-0.250
G1 F480 X22.808 Y35.631 Z-0.250
G1 F480 X22.770 Y35.697 Z-0.250
G1 F480 X22.758 Y35.736 Z-0.250
G1 F480 X22.753 Y35.748 Z-0.250
G1 F480 X22.727 Y35.847 Z-0.250
G1 F480 X22.730 Y35.895 Z-0.250
G1 F480 X22.730 Y35.899 Z-0.250
G1 F480 X22.740 Y36.009 Z-0.250
G1 F480 X22.758 Y36.053 Z-0.250
G1 F480 X22.762 Y36.065 Z-0.250
G1 F480 X22.799 Y36.144 Z-0.250
G1 F480 X23.125 Y36.633 Z-0.250
G1 F480 X23.231 Y37.165 Z-0.250
G1 F480 X23.125 Y37.697 Z-0.250
G1 F480 X22.808 Y38.171 Z-0.250
G1 F480 X22.770 Y38.236 Z-0.250
G1 F480 X22.757 Y38.278 Z-0.250
G1 F480 X22.753 Y38.291 Z-0.250
G1 F480 X22.727 Y38.388 Z-0.250
G1 F480 X22.730 Y38.435 Z-0.250
G1 F480 X22.730 Y38.438 Z-0.250
G1 F480 X22.740 Y38.547 Z-0.250
G1 F480 X22.757 Y38.591 Z-0.250
G1 F480 X22.761 Y38.605 Z-0.250
G1 F480 X22.799 Y38.684 Z-0.250
G1 F480 X23.125 Y39.172 Z-0.250
G1 F480 X23.231 Y39.705 Z-0.250
G1 F480 X23.125 Y40.237 Z-0.250
G1 F480 X22.808 Y40.711 Z-0.250
G1 F480 X22.770 Y40.776 Z-0.250
G1 F480 X22.757 Y40.818 Z-0.250
G1 F480 X22.753 Y40.831 Z-0.250
G1 F480 X22.727 Y40.928 Z-0.250
G1 F480 X22.730 Y40.975 Z-0.250
G1 F480 X22.730 Y40.978 Z-0.250
G1 F480 X22.740 Y41.087 Z-0.250
G1 F480 X22.757 Y41.131 Z-0.250
G1 F480 X22.761 Y41.145 Z-0.250
G1 F480 X22.799 Y41.224 Z-0.250
G1 F480 X23.125 Y41.712 Z-0.250
G1 F480 X23.231 Y42.245 Z-0.250
G1 F480 X23.125 Y42.777 Z-0.250
G1 F480 X22.808 Y43.251 Z-0.250
G1 F480 X22.770 Y43.316 Z-0.250
G1 F480 X22.757 Y43.358 Z-0.250
G1 F480 X22.753 Y43.371 Z-0.250
G1 F480 X22.727 Y43.468 Z-0.250
G1 F480 X22.730 Y43.515 Z-0.250
G1 F480 X22.730 Y43.518 Z-0.250
G1 F480 X22.740 Y43.627 Z-0.250
G1 F480 X22.757 Y43.671 Z-0.250
G1 F480 X22.761 Y43.685 Z-0.250
G1 F480 X22.799 Y43.764 Z-0.250
G1 F480 X23.125 Y44.252 Z-0.250
G1 F480 X23.231 Y44.785 Z-0.250
G1 F480 X23.125 Y45.317 Z-0.250
G1 F480 X22.952 Y45.575 Z-0.250
G1 F480 X22.929 Y45.628 Z-0.250
G1 F480 X22.915 Y45.659 Z-0.250
G1 F480 X22.894 Y45.724 Z-0.250
G1 F480 X22.889 Y45.783 Z-0.250
G1 F480 X22.886 Y45.820 Z-0.250
G1 F480 X22.891 Y45.897 Z-0.250
G1 F480 X22.905 Y45.946 Z-0.250
G1 F480 X22.913 Y45.978 Z-0.250
G1 F480 X22.934 Y46.040 Z-0.250
G1 F480 X22.977 Y46.097 Z-0.250
G1 F480 X23.008 Y46.141 Z-0.250
G1 F480 X23.188 Y46.322 Z-0.250
G1 F480 X23.458 Y46.973 Z-0.250
G1 F480 X23.458 Y47.677 Z-0.250
G1 F480 X23.188 Y48.328 Z-0.250
G1 F480 X23.182 Y48.359 Z-0.250
G1 F480 X23.179 Y48.367 Z-0.250
G1 F480 X23.157 Y48.472 Z-0.250
G1 F480 X23.165 Y48.523 Z-0.250
G1 F480 X23.165 Y48.527 Z-0.250
G1 F480 X23.181 Y48.635 Z-0.250
G1 F480 X23.203 Y48.676 Z-0.250
G1 F480 X23.205 Y48.682 Z-0.250
G1 F480 X23.258 Y48.779 Z-0.250
G1 F480 X23.297 Y48.816 Z-0.250
G1 F480 X23.305 Y48.826 Z-0.250
G1 F480 X23.383 Y48.894 Z-0.250
G1 F480 X23.430 Y48.913 Z-0.250
G1 F480 X23.435 Y48.916 Z-0.250
G1 F480 X23.535 Y48.956 Z-0.250
G1 F480 X23.586 Y48.958 Z-0.250
G1 F480 X23.616 Y48.963 Z-0.250
G1 F480 X25.234 Y48.963 Z-0.250
G1 F480 X25.291 Y48.960 Z-0.250
G1 F480 X25.338 Y48.948 Z-0.250
G1 F480 X25.362 Y48.944 Z-0.250
G1 F480 X25.442 Y48.918 Z-0.250
G1 F480 X25.488 Y48.885 Z-0.250
G1 F480 X25.504 Y48.876 Z-0.250
G1 F480 X25.561 Y48.833 Z-0.250
G1 F480 X32.458 Y41.935 Z-0.250
G1 F480 X32.497 Y41.893 Z-0.250
G1 F480 X32.520 Y41.854 Z-0.250
G1 F480 X32.530 Y41.839 Z-0.250
G1 F480 X32.572 Y41.759 Z-0.250
G1 F480 X32.583 Y41.703 Z-0.250
G1 F480 X32.589 Y41.680 Z-0.250
G1 F480 X32.597 Y41.614 Z-0.250
G1 F480 X32.597 Y18.958 Z-0.250
G1 F480 X32.589 Y18.869 Z-0.250
G1 F480 X32.582 Y18.834 Z-0.250
G1 F480 X32.642 Y18.534 Z-0.250
G1 F480 X32.642 Y18.532 Z-0.250
G1 F480 X32.731 Y18.399 Z-0.250
G1 F480 X32.796 Y18.302 Z-0.250
G1 F480 X32.814 Y18.276 Z-0.250
G1 F480 X32.857 Y18.247 Z-0.250
G1 F480 X32.875 Y18.229 Z-0.250
G1 F480 X32.896 Y18.215 Z-0.250
G1 F480 X34.742 Y16.369 Z-0.250
G1 F480 X34.757 Y16.348 Z-0.250
G1 F480 X34.774 Y16.329 Z-0.250
G1 F480 X34.803 Y16.286 Z-0.250
G1 F480 X35.060 Y16.115 Z-0.250
G1 F480 X35.332 Y16.061 Z-0.250
G1 F480 X35.370 Y16.053 Z-0.250
G1 F480 X35.423 Y16.053 Z-0.250
G1 F480 X35.430 Y16.052 Z-0.250
G1 F480 X35.438 Y16.052 Z-0.250
G1 F480 X35.547 Y16.038 Z-0.250
G1 F480 X35.592 Y16.016 Z-0.250
G1 F480 X35.600 Y16.013 Z-0.250
G1 F480 X35.695 Y15.964 Z-0.250
G1 F480 X35.725 Y15.933 Z-0.250
G1 F480 X35.744 Y15.917 Z-0.250
G1 F480 X35.800 Y15.853 Z-0.250
G1 F480 X35.815 Y15.828 Z-0.250
G1 F480 X35.849 Y15.767 Z-0.250
G1 F480 X35.858 Y15.734 Z-0.250
G1 F480 X35.863 Y15.721 Z-0.250
G1 F480 X35.890 Y15.622 Z-0.250
G1 F480 X35.886 Y15.575 Z-0.250
G1 F480 X35.887 Y15.571 Z-0.250
G1 F480 X35.877 Y15.461 Z-0.250
G1 F480 X35.859 Y15.416 Z-0.250
G1 F480 X35.855 Y15.404 Z-0.250
G1 F480 X35.818 Y15.326 Z-0.250
G1 F480 X35.492 Y14.837 Z-0.250
G1 F480 X35.385 Y14.305 Z-0.250
G1 F480 X35.492 Y13.773 Z-0.250
G1 F480 X35.793 Y13.322 Z-0.250
G1 F480 X35.885 Y13.260 Z-0.250
G1 F480 X35.951 Y13.208 Z-0.250
G1 F480 X35.973 Y13.181 Z-0.250
G1 F480 X35.980 Y13.174 Z-0.250
G1 F480 X36.022 Y13.117 Z-0.250
G1 F480 X36.061 Y13.040 Z-0.250
G1 F480 X36.096 Y12.925 Z-0.250
G1 F480 X36.094 Y12.878 Z-0.250
G1 F480 X36.094 Y12.873 Z-0.250
G1 F480 X36.087 Y12.760 Z-0.250
G1 F480 X36.071 Y12.720 Z-0.250
G1 F480 X36.071 Y12.717 Z-0.250
G1 F480 X36.032 Y12.626 Z-0.250
G1 F480 X35.990 Y12.561 Z-0.250
G1 F480 X36.049 Y12.631 Z-0.250
G1 F480 X36.390 Y12.827 Z-0.250
G1 F480 X36.678 Y12.878 Z-0.250
G1 F480 X37.178 Y12.878 Z-0.250
G1 F480 X37.467 Y12.827 Z-0.250
G1 F480 X37.807 Y12.631 Z-0.250
G1 F480 X37.867 Y12.561 Z-0.250
G1 F480 X37.836 Y12.608 Z-0.250
G1 F480 X37.793 Y12.686 Z-0.250
G1 F480 X37.785 Y12.720 Z-0.250
G1 F480 X37.784 Y12.723 Z-0.250
G1 F480 X37.759 Y12.833 Z-0.250
G1 F480 X37.763 Y12.878 Z-0.250
G1 F480 X37.763 Y12.882 Z-0.250
G1 F480 X37.771 Y12.960 Z-0.250
G1 F480 X37.796 Y13.040 Z-0.250
G1 F480 X37.849 Y13.146 Z-0.250
G1 F480 X37.883 Y13.181 Z-0.250
G1 F480 X37.889 Y13.188 Z-0.250
G1 F480 X37.955 Y13.249 Z-0.250
G1 F480 X38.064 Y13.322 Z-0.250
G1 F480 X38.302 Y13.679 Z-0.250
G1 F480 X38.342 Y13.731 Z-0.250
G1 F480 X38.373 Y13.759 Z-0.250
G1 F480 X38.385 Y13.771 Z-0.250
G1 F480 X38.463 Y13.831 Z-0.250
G1 F480 X38.511 Y13.849 Z-0.250
G1 F480 X38.523 Y13.855 Z-0.250
G1 F480 X38.619 Y13.886 Z-0.250
G1 F480 X38.672 Y13.886 Z-0.250
G1 F480 X38.686 Y13.888 Z-0.250
G1 F480 X38.785 Y13.885 Z-0.250
G1 F480 X38.834 Y13.867 Z-0.250
G1 F480 X38.846 Y13.864 Z-0.250
G1 F480 X38.942 Y13.826 Z-0.250
G1 F480 X38.981 Y13.792 Z-0.250
G1 F480 X38.989 Y13.787 Z-0.250
G1 F480 X39.065 Y13.719 Z-0.250
G1 F480 X39.092 Y13.675 Z-0.250
G1 F480 X39.101 Y13.662 Z-0.250
G1 F480 X39.147 Y13.573 Z-0.250
G1 F480 X39.156 Y13.525 Z-0.250
G1 F480 X39.160 Y13.513 Z-0.250
G1 F480 X39.172 Y13.430 Z-0.250
G1 F480 X39.172 Y10.115 Z-0.250
G1 F480 X39.169 Y10.046 Z-0.250
G1 F480 X39.156 Y10.004 Z-0.250
G1 F480 X39.154 Y9.992 Z-0.250
G1 F480 X39.125 Y9.900 Z-0.250
G1 F480 X39.092 Y9.855 Z-0.250
G1 F480 X39.084 Y9.841 Z-0.250
G1 F480 X39.025 Y9.765 Z-0.250
G1 F480 X38.981 Y9.737 Z-0.250
G1 F480 X38.974 Y9.731 Z-0.250
G1 F480 X38.886 Y9.675 Z-0.250
G1 F480 X38.834 Y9.663 Z-0.250
G1 F480 X38.823 Y9.658 Z-0.250
G1 F480 X38.725 Y9.637 Z-0.250
G1 F480 X38.672 Y9.643 Z-0.250
G1 F480 X38.658 Y9.643 Z-0.250
G1 F480 X38.559 Y9.657 Z-0.250
G1 F480 X38.511 Y9.681 Z-0.250
G1 F480 X38.499 Y9.685 Z-0.250
G1 F480 X38.413 Y9.731 Z-0.250
G1 F480 X38.373 Y9.771 Z-0.250
G1 F480 X38.361 Y9.781 Z-0.250
G1 F480 X38.312 Y9.837 Z-0.250
G1 F480 X38.064 Y10.208 Z-0.250
G1 F480 X37.972 Y10.269 Z-0.250
G1 F480 X37.906 Y10.321 Z-0.250
G1 F480 X37.883 Y10.349 Z-0.250
G1 F480 X37.877 Y10.355 Z-0.250
G1 F480 X37.835 Y10.412 Z-0.250
G1 F480 X37.796 Y10.489 Z-0.250
G1 F480 X37.761 Y10.604 Z-0.250
G1 F480 X37.763 Y10.652 Z-0.250
G1 F480 X37.762 Y10.656 Z-0.250
G1 F480 X37.769 Y10.769 Z-0.250
G1 F480 X37.785 Y10.810 Z-0.250
G1 F480 X37.786 Y10.813 Z-0.250
G1 F480 X37.825 Y10.904 Z-0.250
G1 F480 X37.867 Y10.969 Z-0.250
G1 F480 X37.807 Y10.898 Z-0.250
G1 F480 X37.467 Y10.702 Z-0.250
G1 F480 X37.178 Y10.651 Z-0.250
G1 F480 X36.678 Y10.651 Z-0.250
G1 F480 X36.390 Y10.702 Z-0.250
G1 F480 X36.049 Y10.898 Z-0.250
G1 F480 X35.990 Y10.969 Z-0.250
G1 F480 X36.021 Y10.921 Z-0.250
G1 F480 X36.063 Y10.843 Z-0.250
G1 F480 X36.071 Y10.810 Z-0.250
G1 F480 X36.072 Y10.807 Z-0.250
G1 F480 X36.098 Y10.696 Z-0.250
G1 F480 X36.094 Y10.652 Z-0.250
G1 F480 X36.094 Y10.647 Z-0.250
G1 F480 X36.085 Y10.569 Z-0.250
G1 F480 X36.061 Y10.489 Z-0.250
G1 F480 X36.008 Y10.383 Z-0.250
G1 F480 X35.973 Y10.349 Z-0.250
G1 F480 X35.967 Y10.341 Z-0.250
G1 F480 X35.902 Y10.280 Z-0.250
G1 F480 X35.793 Y10.208 Z-0.250
G1 F480 X35.492 Y9.757 Z-0.250
G1 F480 X35.385 Y9.225 Z-0.250
G1 F480 X35.492 Y8.693 Z-0.250
G1 F480 X35.664 Y8.435 Z-0.250
G1 F480 X35.687 Y8.382 Z-0.250
G1 F480 X35.702 Y8.349 Z-0.250
G1 F480 X35.723 Y8.286 Z-0.250
G1 F480 X35.727 Y8.226 Z-0.250
G1 F480 X35.730 Y8.189 Z-0.250
G1 F480 X35.725 Y8.112 Z-0.250
G1 F480 X35.712 Y8.064 Z-0.250
G1 F480 X35.704 Y8.032 Z-0.250
G1 F480 X35.681 Y7.968 Z-0.250
G1 F480 X35.640 Y7.913 Z-0.250
G1 F480 X35.609 Y7.868 Z-0.250
G1 F480 X35.428 Y7.687 Z-0.250
G1 F480 X35.158 Y7.037 Z-0.250
G1 F480 X35.158 Y6.333 Z-0.250
G1 F480 X35.428 Y5.682 Z-0.250
G1 F480 X35.746 Y5.363 Z-0.250
G1 F480 X35.769 Y5.331 Z-0.250
G1 F480 X35.781 Y5.316 Z-0.250
G1 F480 X35.830 Y5.240 Z-0.250
G1 F480 X35.845 Y5.186 Z-0.250
G1 F480 X35.852 Y5.167 Z-0.250
G1 F480 X35.871 Y5.078 Z-0.250
G1 F480 X35.867 Y5.024 Z-0.250
G1 F480 X35.867 Y5.004 Z-0.250
G1 F480 X35.854 Y4.912 Z-0.250
G1 F480 X35.832 Y4.864 Z-0.250
G1 F480 X35.825 Y4.845 Z-0.250
G1 F480 X35.783 Y4.764 Z-0.250
G1 F480 X35.745 Y4.725 Z-0.250
G1 F480 X35.732 Y4.709 Z-0.250
G1 F480 X35.664 Y4.648 Z-0.250
G1 F480 X35.614 Y4.624 Z-0.250
G1 F480 X35.595 Y4.614 Z-0.250
G1 F480 X35.512 Y4.580 Z-0.250
G1 F480 X35.457 Y4.575 Z-0.250
G1 F480 X35.417 Y4.568 Z-0.250
G1 F480 X23.200 Y4.568 Z-0.250
G1 F480 X23.159 Y4.575 Z-0.250
G1 F480 X23.141 Y4.576 Z-0.250
G1 F480 X23.051 Y4.596 Z-0.250
G1 F480 X23.004 Y4.624 Z-0.250
G1 F480 X22.988 Y4.631 Z-0.250
G1 F480 X22.910 Y4.679 Z-0.250
G1 F480 X22.872 Y4.725 Z-0.250
G1 F480 X22.858 Y4.740 Z-0.250
G1 F480 X22.804 Y4.809 Z-0.250
G1 F480 X22.784 Y4.864 Z-0.250
G1 F480 X22.776 Y4.882 Z-0.250
G1 F480 X22.749 Y4.964 Z-0.250
G1 F480 X22.749 Y5.024 Z-0.250
G1 F480 X22.748 Y5.045 Z-0.250
G1 F480 X22.751 Y5.130 Z-0.250
G1 F480 X22.771 Y5.186 Z-0.250
G1 F480 X22.777 Y5.206 Z-0.250
G1 F480 X22.811 Y5.288 Z-0.250
G1 F480 X22.847 Y5.331 Z-0.250
G1 F480 X22.870 Y5.363 Z-0.250
G1 F480 X23.188 Y5.682 Z-0.250
G1 F480 X23.458 Y6.333 Z-0.250
G1 F480 X23.458 Y7.037 Z-0.250
G1 F480 X23.188 Y7.687 Z-0.250
G1 F480 X23.008 Y7.868 Z-0.250
G1 F480 X22.977 Y7.913 Z-0.250
G1 F480 X22.957 Y7.940 Z-0.250
G1 F480 X22.921 Y8.001 Z-0.250
G1 F480 X22.905 Y8.064 Z-0.250
G1 F480 X22.896 Y8.096 Z-0.250
G1 F480 X22.883 Y8.150 Z-0.250
G1 F480 X22.889 Y8.226 Z-0.250
G1 F480 X22.892 Y8.262 Z-0.250
G1 F480 X22.901 Y8.319 Z-0.250
G1 F480 X22.929 Y8.382 Z-0.250
G1 F480 X22.953 Y8.435 Z-0.250
G1 F480 X23.125 Y8.693 Z-0.250
G1 F480 X23.231 Y9.225 Z-0.250
G1 F480 X23.125 Y9.757 Z-0.250
G1 F480 X22.808 Y10.231 Z-0.250
G1 F480 X22.770 Y10.297 Z-0.250
G1 F480 X22.758 Y10.336 Z-0.250
G1 F480 X22.753 Y10.348 Z-0.250
G1 F480 X22.727 Y10.447 Z-0.250
G1 F480 X22.730 Y10.495 Z-0.250
G1 F480 X22.730 Y10.499 Z-0.250
G1 F480 X22.740 Y10.609 Z-0.250
G1 F480 X22.758 Y10.653 Z-0.250
G1 F480 X22.762 Y10.665 Z-0.250
G1 F480 X22.799 Y10.744 Z-0.250
G1 F480 X23.125 Y11.233 Z-0.250
G1 F480 X23.231 Y11.765 Z-0.250
G1 F480 X23.125 Y12.297 Z-0.250
G1 F480 X22.808 Y12.771 Z-0.250
G1 F480 X22.770 Y12.837 Z-0.250
G1 F480 X22.758 Y12.876 Z-0.250
G1 F480 X22.753 Y12.888 Z-0.250
G1 F480 X22.727 Y12.987 Z-0.250
G1 F480 X22.730 Y13.035 Z-0.250
G1 F480 X22.730 Y13.039 Z-0.250
G1 F480 X22.740 Y13.149 Z-0.250
G1 F480 X22.758 Y13.193 Z-0.250
G1 F480 X22.762 Y13.205 Z-0.250
G1 F480 X22.799 Y13.284 Z-0.250
G1 F480 X23.125 Y13.773 Z-0.250
G1 F480 X23.231 Y14.305 Z-0.250
G1 F480 X23.125 Y14.837 Z-0.250
G1 F480 X22.824 Y15.288 Z-0.250
G1 F480 X22.732 Y15.349 Z-0.250
G1 F480 X22.666 Y15.401 Z-0.250
G1 F480 X22.643 Y15.429 Z-0.250
G1 F480 X22.637 Y15.435 Z-0.250
G1 F480 X22.595 Y15.492 Z-0.250
G1 F480 X22.556 Y15.569 Z-0.250
G1 F480 X22.521 Y15.684 Z-0.250
G1 F480 X22.523 Y15.732 Z-0.250
G1 F480 X22.522 Y15.736 Z-0.250
G1 F480 X22.529 Y15.849 Z-0.250
G1 F480 X22.545 Y15.890 Z-0.250
G1 F480 X22.546 Y15.893 Z-0.250
G1 F480 X22.585 Y15.984 Z-0.250
G1 F480 X22.627 Y16.049 Z-0.250
G1 F480 X22.567 Y15.978 Z-0.250
G1 F480 X22.227 Y15.782 Z-0.250
G1 F480 X21.938 Y15.731 Z-0.250
G1 F480 X21.438 Y15.731 Z-0.250
G1 F480 X21.150 Y15.782 Z-0.250
G1 F480 X20.809 Y15.978 Z-0.250
G1 F480 X20.750 Y16.049 Z-0.250
G1 F480 X20.781 Y16.001 Z-0.250
G1 F480 X20.823 Y15.923 Z-0.250
G1 F480 X20.831 Y15.890 Z-0.250
G1 F480 X20.832 Y15.887 Z-0.250
G1 F480 X20.858 Y15.776 Z-0.250
G1 F480 X20.854 Y15.732 Z-0.250
G1 F480 X20.854 Y15.727 Z-0.250
G1 F480 X20.845 Y15.649 Z-0.250
G1 F480 X20.821 Y15.569 Z-0.250
G1 F480 X20.768 Y15.463 Z-0.250
G1 F480 X20.733 Y15.429 Z-0.250
G1 F480 X20.727 Y15.421 Z-0.250
G1 F480 X20.662 Y15.360 Z-0.250
G1 F480 X20.553 Y15.288 Z-0.250
G1 F480 X20.252 Y14.837 Z-0.250
G1 F480 X20.145 Y14.305 Z-0.250
G1 F480 X20.252 Y13.773 Z-0.250
G1 F480 X20.568 Y13.298 Z-0.250
G1 F480 X20.607 Y13.233 Z-0.250
G1 F480 X20.619 Y13.193 Z-0.250
G1 F480 X20.623 Y13.181 Z-0.250
G1 F480 X20.650 Y13.082 Z-0.250
G1 F480 X20.646 Y13.035 Z-0.250
G1 F480 X20.647 Y13.031 Z-0.250
G1 F480 X20.637 Y12.921 Z-0.250
G1 F480 X20.619 Y12.876 Z-0.250
G1 F480 X20.615 Y12.864 Z-0.250
G1 F480 X20.578 Y12.786 Z-0.250
G1 F480 X20.252 Y12.297 Z-0.250
G1 F480 X20.145 Y11.765 Z-0.250
G1 F480 X20.252 Y11.233 Z-0.250
G1 F480 X20.568 Y10.758 Z-0.250
G1 F480 X20.607 Y10.693 Z-0.250
G1 F480 X20.619 Y10.653 Z-0.250
G1 F480 X20.623 Y10.641 Z-0.250
G1 F480 X20.650 Y10.542 Z-0.250
G1 F480 X20.646 Y10.495 Z-0.250
G1 F480 X20.647 Y10.491 Z-0.250
G1 F480 X20.637 Y10.381 Z-0.250
G1 F480 X20.619 Y10.336 Z-0.250
G1 F480 X20.615 Y10.324 Z-0.250
G1 F480 X20.578 Y10.246 Z-0.250
G1 F480 X20.252 Y9.757 Z-0.250
G1 F480 X20.145 Y9.225 Z-0.250
G1 F480 X20.252 Y8.693 Z-0.250
G1 F480 X20.424 Y8.435 Z-0.250
G1 F480 X20.447 Y8.382 Z-0.250
G1 F480 X20.462 Y8.349 Z-0.250
G1 F480 X20.483 Y8.286 Z-0.250
G1 F480 X20.487 Y8.226 Z-0.250
G1 F480 X20.490 Y8.189 Z-0.250
G1 F480 X20.485 Y8.112 Z-0.250
G1 F480 X20.472 Y8.064 Z-0.250
G1 F480 X20.464 Y8.032 Z-0.250
G1 F480 X20.441 Y7.968 Z-0.250
G1 F480 X20.400 Y7.913 Z-0.250
G1 F480 X20.369 Y7.868 Z-0.250
G1 F480 X20.188 Y7.687 Z-0.250
G1 F480 X19.918 Y7.037 Z-0.250
G1 F480 X19.918 Y6.333 Z-0.250
G1 F480 X20.188 Y5.682 Z-0.250
G1 F480 X20.506 Y5.363 Z-0.250
G1 F480 X20.529 Y5.331 Z-0.250
G1 F480 X20.541 Y5.316 Z-0.250
G1 F480 X20.590 Y5.240 Z-0.250
G1 F480 X20.605 Y5.186 Z-0.250
G1 F480 X20.612 Y5.167 Z-0.250
G1 F480 X20.631 Y5.078 Z-0.250
G1 F480 X20.627 Y5.024 Z-0.250
G1 F480 X20.627 Y5.004 Z-0.250
G1 F480 X20.614 Y4.912 Z-0.250
G1 F480 X20.592 Y4.864 Z-0.250
G1 F480 X20.585 Y4.845 Z-0.250
G1 F480 X20.543 Y4.764 Z-0.250
G1 F480 X20.505 Y4.725 Z-0.250
G1 F480 X20.492 Y4.709 Z-0.250
G1 F480 X20.424 Y4.648 Z-0.250
G1 F480 X20.374 Y4.624 Z-0.250
G1 F480 X20.355 Y4.614 Z-0.250
G1 F480 X20.272 Y4.580 Z-0.250
G1 F480 X20.217 Y4.575 Z-0.250
G1 F480 X20.177 Y4.568 Z-0.250
G1 F480 X4.207 Y4.568 Z-0.250
G1 F480 X4.167 Y4.569 Z-0.250
G1 F480 X4.103 Y4.575 Z-0.250
G1 F480 X4.064 Y4.585 Z-0.250
G1 F480 X4.023 Y4.592 Z-0.250
G1 F480 X3.864 Y4.651 Z-0.250
G1 F480 X3.759 Y4.712 Z-0.250
G1 F480 X3.663 Y4.792 Z-0.250
G1 F480 X3.642 Y4.818 Z-0.250
G1 F480 X3.587 Y4.884 Z-0.250
G1 F480 X3.526 Y4.989 Z-0.250
G1 F480 X3.506 Y5.042 Z-0.250
G1 F480 X3.483 Y5.106 Z-0.250
G1 F480 X3.445 Y5.316 Z-0.250
G1 F480 X3.445 Y5.339 Z-0.250
G0 X3.445 Y5.339 Z6.000
G0 X7.241 Y16.214 Z6.000
G1 F480 X7.241 Y16.214 Z0.000
G1 F480 X6.952 Y16.163 Z-0.005
G1 F480 X6.757 Y16.163 Z-0.009
G1 F480 X6.467 Y16.214 Z-0.014
G1 F480 X6.128 Y16.410 Z-0.021
G1 F480 X5.875 Y16.711 Z-0.028
G1 F480 X5.741 Y17.080 Z-0.035
G1 F480 X5.741 Y17.473 Z-0.042
G1 F480 X5.875 Y17.842 Z-0.049
G1 F480 X6.128 Y18.143 Z-0.056
G1 F480 X6.467 Y18.339 Z-0.062
G1 F480 X6.757 Y18.390 Z-0.068
G1 F480 X6.952 Y18.390 Z-0.071
G1 F480 X7.241 Y18.339 Z-0.076
G1 F480 X7.581 Y18.143 Z-0.083
G1 F480 X7.834 Y17.842 Z-0.090
G1 F480 X7.968 Y17.473 Z-0.097
G1 F480 X7.968 Y17.080 Z-0.104
G1 F480 X7.834 Y16.711 Z-0.111
G1 F480 X7.581 Y16.410 Z-0.118
G1 F480 X7.241 Y16.214 Z-0.125
G1 F480 X7.581 Y16.410 Z-0.132
G1 F480 X7.834 Y16.711 Z-0.139
G1 F480 X7.968 Y17.080 Z-0.146
G1 F480 X7.968 Y17.473 Z-0.153
G1 F480 X7.834 Y17.842 Z-0.160
G1 F480 X7.581 Y18.143 Z-0.167
G1 F480 X7.241 Y18.339 Z-0.174
G1 F480 X6.952 Y18.390 Z-0.179
G1 F480 X6.757 Y18.390 Z-0.182
G1 F480 X6.467 Y18.339 Z-0.188
G1 F480 X6.128 Y18.143 Z-0.194
G1 F480 X5.875 Y17.842 Z-0.201
G1 F480 X5.741 Y17.473 Z-0.208
G1 F480 X5.741 Y17.080 Z-0.215
G1 F480 X5.875 Y16.711 Z-0.222
G1 F480 X6.128 Y16.410 Z-0.229
G1 F480 X6.467 Y16.214 Z-0.236
G1 F480 X6.757 Y16.163 Z-0.241
G1 F480 X6.952 Y16.163 Z-0.245
G1 F480 X7.241 Y16.214 Z-0.250
G1 F480 X6.952 Y16.163 Z-0.250
G1 F480 X6.757 Y16.163 Z-0.250
G1 F480 X6.467 Y16.214 Z-0.250
G1 F480 X6.128 Y16.410 Z-0.250
G1 F480 X5.875 Y16.711 Z-0.250
G1 F480 X5.741 Y17.080 Z-0.250
G1 F480 X5.741 Y17.473 Z-0.250
G1 F480 X5.875 Y17.842 Z-0.250
G1 F480 X6.128 Y18.143 Z-0.250
G1 F480 X6.467 Y18.339 Z-0.250
G1 F480 X6.757 Y18.390 Z-0.250
G1 F480 X6.952 Y18.390 Z-0.250
G1 F480 X7.241 Y18.339 Z-0.250
G1 F480 X7.581 Y18.143 Z-0.250
G1 F480 X7.834 Y17.842 Z-0.250
G1 F480 X7.968 Y17.473 Z-0.250
G1 F480 X7.968 Y17.080 Z-0.250
G1 F480 X7.834 Y16.711 Z-0.250
G1 F480 X7.581 Y16.410 Z-0.250
G1 F480 X7.241 Y16.214 Z-0.250
G0 X7.241 Y16.214 Z6.000
G0 X9.781 Y16.214 Z6.000
G1 F480 X9.781 Y16.214 Z0.000
G1 F480 X9.492 Y16.163 Z-0.005
G1 F480 X9.297 Y16.163 Z-0.009
G1 F480 X9.007 Y16.214 Z-0.014
G1 F480 X8.668 Y16.410 Z-0.021
G1 F480 X8.415 Y16.711 Z-0.028
G1 F480 X8.281 Y17.080 Z-0.035
G1 F480 X8.281 Y17.473 Z-0.042
G1 F480 X8.415 Y17.842 Z-0.049
G1 F480 X8.668 Y18.143 Z-0.056
G1 F480 X9.007 Y18.339 Z-0.062
G1 F480 X9.297 Y18.390 Z-0.068
G1 F480 X9.492 Y18.390 Z-0.071
G1 F480 X9.781 Y18.339 Z-0.076
G1 F480 X10.121 Y18.143 Z-0.083
G1 F480 X10.374 Y17.842 Z-0.090
G1 F480 X10.508 Y17.473 Z-0.097
G1 F480 X10.508 Y17.080 Z-0.104
G1 F480 X10.374 Y16.711 Z-0.111
G1 F480 X10.121 Y16.410 Z-0.118
G1 F480 X9.781 Y16.214 Z-0.125
G1 F480 X10.121 Y16.410 Z-0.132
G1 F480 X10.374 Y16.711 Z-0.139
G1 F480 X10.508 Y17.080 Z-0.146
G1 F480 X10.508 Y17.473 Z-0.153
G1 F480 X10.374 Y17.842 Z-0.160
G1 F480 X10.121 Y18.143 Z-0.167
G1 F480 X9.781 Y18.339 Z-0.174
G1 F480 X9.492 Y18.390 Z-0.179
G1 F480 X9.297 Y18.390 Z-0.182
G1 F480 X9.007 Y18.339 Z-0.188
G1 F480 X8.668 Y18.143 Z-0.194
G1 F480 X8.415 Y17.842 Z-0.201
G1 F480 X8.281 Y17.473 Z-0.208
G1 F480 X8.281 Y17.080 Z-0.215
G1 F480 X8.415 Y16.711 Z-0.222
G1 F480 X8.668 Y16.410 Z-0.229
G1 F480 X9.007 Y16.214 Z-0.236
G1 F480 X9.297 Y16.163 Z-0.241
G1 F480 X9.492 Y16.163 Z-0.245
G1 F480 X9.781 Y16.214 Z-0.250
G1 F480 X9.492 Y16.163 Z-0.250
G1 F480 X9.297 Y16.163 Z-0.250
G1 F480 X9.007 Y16.214 Z-0.250
G1 F480 X8.668 Y16.410 Z-0.250
G1 F480 X8.415 Y16.711 Z-0.250
G1 F480 X8.281 Y17.080 Z-0.250
G1 F480 X8.281 Y17.473 Z-0.250
G1 F480 X8.415 Y17.842 Z-0.250
G1 F480 X8.668 Y18.143 Z-0.250
G1 F480 X9.007 Y18.339 Z-0.250
G1 F480 X9.297 Y18.390 Z-0.250
G1 F480 X9.492 Y18.390 Z-0.250
G1 F480 X9.781 Y18.339 Z-0.250
G1 F480 X10.121 Y18.143 Z-0.250
G1 F480 X10.374 Y17.842 Z-0.250
G1 F480 X10.508 Y17.473 Z-0.250
G1 F480 X10.508 Y17.080 Z-0.250
G1 F480 X10.374 Y16.711 Z-0.250
G1 F480 X10.121 Y16.410 Z-0.250
G1 F480 X9.781 Y16.214 Z-0.250
G0 X9.781 Y16.214 Z6.000
G0 X9.781 Y18.754 Z6.000
G1 F480 X9.781 Y18.754 Z0.000
G1 F480 X9.492 Y18.703 Z-0.005
G1 F480 X9.297 Y18.703 Z-0.009
G1 F480 X9.007 Y18.754 Z-0.014
G1 F480 X8.668 Y18.950 Z-0.021
G1 F480 X8.415 Y19.251 Z-0.028
G1 F480 X8.281 Y19.620 Z-0.035
G1 F480 X8.281 Y20.013 Z-0.042
G1 F480 X8.415 Y20.382 Z-0.049
G1 F480 X8.668 Y20.683 Z-0.056
G1 F480 X9.007 Y20.879 Z-0.062
G1 F480 X9.297 Y20.930 Z-0.068
G1 F480 X9.492 Y20.930 Z-0.071
G1 F480 X9.781 Y20.879 Z-0.076
G1 F480 X10.121 Y20.683 Z-0.083
G1 F480 X10.374 Y20.382 Z-0.090
G1 F480 X10.508 Y20.013 Z-0.097
G1 F480 X10.508 Y19.620 Z-0.104
G1 F480 X10.374 Y19.251 Z-0.111
G1 F480 X10.121 Y18.950 Z-0.118
G1 F480 X9.781 Y18.754 Z-0.125
G1 F480 X10.121 Y18.950 Z-0.132
G1 F480 X10.374 Y19.251 Z-0.139
G1 F480 X10.508 Y19.620 Z-0.146
G1 F480 X10.508 Y20.013 Z-0.153
G1 F480 X10.374 Y20.382 Z-0.160
G1 F480 X10.121 Y20.683 Z-0.167
G1 F480 X9.781 Y20.879 Z-0.174
G1 F480 X9.492 Y20.930 Z-0.179
G1 F480 X9.297 Y20.930 Z-0.182
G1 F480 X9.007 Y20.879 Z-0.188
G1 F480 X8.668 Y20.683 Z-0.194
G1 F480 X8.415 Y20.382 Z-0.201
G1 F480 X8.281 Y20.013 Z-0.208
G1 F480 X8.281 Y19.620 Z-0.215
G1 F480 X8.415 Y19.251 Z-0.222
G1 F480 X8.668 Y18.950 Z-0.229
G1 F480 X9.007 Y18.754 Z-0.236
G1 F480 X9.297 Y18.703 Z-0.241
G1 F480 X9.492 Y18.703 Z-0.245
G1 F480 X9.781 Y18.754 Z-0.250
G1 F480 X9.492 Y18.703 Z-0.250
G1 F480 X9.297 Y18.703 Z-0.250
G1 F480 X9.007 Y18.754 Z-0.250
G1 F480 X8.668 Y18.950 Z-0.250
G1 F480 X8.415 Y19.251 Z-0.250
G1 F480 X8.281 Y19.620 Z-0.250
G1 F480 X8.281 Y20.013 Z-0.250
G1 F480 X8.415 Y20.382 Z-0.250
G1 F480 X8.668 Y20.683 Z-0.250
G1 F480 X9.007 Y20.879 Z-0.250
G1 F480 X9.297 Y20.930 Z-0.250
G1 F480 X9.492 Y20.930 Z-0.250
G1 F480 X9.781 Y20.879 Z-0.250
G1 F480 X10.121 Y20.683 Z-0.250
G1 F480 X10.374 Y20.382 Z-0.250
G1 F480 X10.508 Y20.013 Z-0.250
G1 F480 X10.508 Y19.620 Z-0.250
G1 F480 X10.374 Y19.251 Z-0.250
G1 F480 X10.121 Y18.950 Z-0.250
G1 F480 X9.781 Y18.754 Z-0.250
G0 X9.781 Y18.754 Z6.000
G0 X9.781 Y21.294 Z6.000
G1 F480 X9.781 Y21.294 Z0.000
G1 F480 X9.492 Y21.243 Z-0.005
G1 F480 X9.297 Y21.243 Z-0.009
G1 F480 X9.007 Y21.294 Z-0.014
G1 F480 X8.668 Y21.490 Z-0.021
G1 F480 X8.415 Y21.791 Z-0.028
G1 F480 X8.281 Y22.160 Z-0.035
G1 F480 X8.281 Y22.553 Z-0.042
G1 F480 X8.415 Y22.922 Z-0.049
G1 F480 X8.668 Y23.223 Z-0.056
G1 F480 X9.007 Y23.419 Z-0.062
G1 F480 X9.297 Y23.470 Z-0.068
G1 F480 X9.492 Y23.470 Z-0.071
G1 F480 X9.781 Y23.419 Z-0.076
G1 F480 X10.121 Y23.223 Z-0.083
G1 F480 X10.374 Y22.922 Z-0.090
G1 F480 X10.508 Y22.553 Z-0.097
G1 F480 X10.508 Y22.160 Z-0.104
G1 F480 X10.374 Y21.791 Z-0.111
G1 F480 X10.121 Y21.490 Z-0.118
G1 F480 X9.781 Y21.294 Z-0.125
G1 F480 X10.121 Y21.490 Z-0.132
G1 F480 X10.374 Y21.791 Z-0.139
G1 F480 X10.508 Y22.160 Z-0.146
G1 F480 X10.508 Y22.553 Z-0.153
G1 F480 X10.374 Y22.922 Z-0.160
G1 F480 X10.121 Y23.223 Z-0.167
G1 F480 X9.781 Y23.419 Z-0.174
G1 F480 X9.492 Y23.470 Z-0.179
G1 F480 X9.297 Y23.470 Z-0.182
G1 F480 X9.007 Y23.419 Z-0.188
G1 F480 X8.668 Y23.223 Z-0.194
G1 F480 X8.415 Y22.922 Z-0.201
G1 F480 X8.281 Y22.553 Z-0.208
G1 F480 X8.281 Y22.160 Z-0.215
G1 F480 X8.415 Y21.791 Z-0.222
G1 F480 X8.668 Y21.490 Z-0.229
G1 F480 X9.007 Y21.294 Z-0.236
G1 F480 X9.297 Y21.243 Z-0.241
G1 F480 X9.492 Y21.243 Z-0.245
G1 F480 X9.781 Y21.294 Z-0.250
G1 F480 X9.492 Y21.243 Z-0.250
G1 F480 X9.297 Y21.243 Z-0.250
G1 F480 X9.007 Y21.294 Z-0.250
G1 F480 X8.668 Y21.490 Z-0.250
G1 F480 X8.415 Y21.791 Z-0.250
G1 F480 X8.281 Y22.160 Z-0.250
G1 F480 X8.281 Y22.553 Z-0.250
G1 F480 X8.415 Y22.922 Z-0.250
G1 F480 X8.668 Y23.223 Z-0.250
G1 F480 X9.007 Y23.419 Z-0.250
G1 F480 X9.297 Y23.470 Z-0.250
G1 F480 X9.492 Y23.470 Z-0.250
G1 F480 X9.781 Y23.419 Z-0.250
G1 F480 X10.121 Y23.223 Z-0.250
G1 F480 X10.374 Y22.922 Z-0.250
G1 F480 X10.508 Y22.553 Z-0.250
G1 F480 X10.508 Y22.160 Z-0.250
G1 F480 X10.374 Y21.791 Z-0.250
G1 F480 X10.121 Y21.490 Z-0.250
G1 F480 X9.781 Y21.294 Z-0.250
G0 X9.781 Y21.294 Z6.000
G0 X9.781 Y23.834 Z6.000
G1 F480 X9.781 Y23.834 Z0.000
G1 F480 X9.492 Y23.783 Z-0.005
G1 F480 X9.297 Y23.783 Z-0.009
G1 F480 X9.007 Y23.834 Z-0.014
G1 F480 X8.668 Y24.030 Z-0.021
G1 F480 X8.415 Y24.331 Z-0.028
G1 F480 X8.281 Y24.700 Z-0.035
G1 F480 X8.281 Y25.093 Z-0.042
G1 F480 X8.415 Y25.462 Z-0.049
G1 F480 X8.668 Y25.763 Z-0.056
G1 F480 X9.007 Y25.959 Z-0.062
G1 F480 X9.297 Y26.010 Z-0.068
G1 F480 X9.492 Y26.010 Z-0.071
G1 F480 X9.781 Y25.959 Z-0.076
G1 F480 X10.121 Y25.763 Z-0.083
G1 F480 X10.374 Y25.462 Z-0.090
G1 F480 X10.508 Y25.093 Z-0.097
G1 F480 X10.508 Y24.700 Z-0.104
G1 F480 X10.374 Y24.331 Z-0.111
G1 F480 X10.121 Y24.030 Z-0.118
G1 F480 X9.781 Y23.834 Z-0.125
G1 F480 X10.121 Y24.030 Z-0.132
G1 F480 X10.374 Y24.331 Z-0.139
G1 F480 X10.508 Y24.700 Z-0.146
G1 F480 X10.508 Y25.093 Z-0.153
G1 F480 X10.374 Y25.462 Z-0.160
G1 F480 X10.121 Y25.763 Z-0.167
G1 F480 X9.781 Y25.959 Z-0.174
G1 F480 X9.492 Y26.010 Z-0.179
G1 F480 X9.297 Y26.010 Z-0.182
G1 F480 X9.007 Y25.959 Z-0.188
G1 F480 X8.668 Y25.763 Z-0.194
G1 F480 X8.415 Y25.462 Z-0.201
G1 F480 X8.281 Y25.093 Z-0.208
G1 F480 X8.281 Y24.700 Z-0.215
G1 F480 X8.415 Y24.331 Z-0.222
G1 F480 X8.668 Y24.030 Z-0.229
G1 F480 X9.007 Y23.834 Z-0.236
G1 F480 X9.297 Y23.783 Z-0.241
G1 F480 X9.492 Y23.783 Z-0.245
G1 F480 X9.781 Y23.834 Z-0.250
G1 F480 X9.492 Y23.783 Z-0.250
G1 F480 X9.297 Y23.783 Z-0.250
G1 F480 X9.007 Y23.834 Z-0.250
G1 F480 X8.668 Y24.030 Z-0.250
G1 F480 X8.415 Y24.331 Z-0.250
G1 F480 X8.281 Y24.700 Z-0.250
G1 F480 X8.281 Y25.093 Z-0.250
G1 F480 X8.415 Y25.462 Z-0.250
G1 F480 X8.668 Y25.763 Z-0.250
G1 F480 X9.007 Y25.959 Z-0.250
G1 F480 X9.297 Y26.010 Z-0.250
G1 F480 X9.492 Y26.010 Z-0.250
G1 F480 X9.781 Y25.959 Z-0.250
G1 F480 X10.121 Y25.763 Z-0.250
G1 F480 X10.374 Y25.462 Z-0.250
G1 F480 X10.508 Y25.093 Z-0.250
G1 F480 X10.508 Y24.700 Z-0.250
G1 F480 X10.374 Y24.331 Z-0.250
G1 F480 X10.121 Y24.030 Z-0.250
G1 F480 X9.781 Y23.834 Z-0.250
G0 X9.781 Y23.834 Z6.000
G0 X10.346 Y30.576 Z6.000
G1 F480 X10.346 Y30.576 Z0.000
G1 F480 X10.389 Y30.502 Z0.000
G1 F480 X12.629 Y30.502 Z-0.012
G1 F480 X12.699 Y30.508 Z-0.012
G1 F480 X12.766 Y30.489 Z-0.012
G1 F480 X12.790 Y30.485 Z-0.012
G1 F480 X12.882 Y30.456 Z-0.013
G1 F480 X12.933 Y30.420 Z-0.013
G1 F480 X12.995 Y30.385 Z-0.014
G1 F480 X13.040 Y30.331 Z-0.014
G1 F480 X15.841 Y27.530 Z-0.034
G1 F480 X20.542 Y27.530 Z-0.057
G1 F480 X20.585 Y27.604 Z-0.058
G1 F480 X20.809 Y27.871 Z-0.059
G1 F480 X21.150 Y28.067 Z-0.061
G1 F480 X21.438 Y28.118 Z-0.063
G1 F480 X21.938 Y28.118 Z-0.065
G1 F480 X22.227 Y28.067 Z-0.067
G1 F480 X22.567 Y27.871 Z-0.069
G1 F480 X22.820 Y27.570 Z-0.071
G1 F480 X22.954 Y27.201 Z-0.073
G1 F480 X22.954 Y26.808 Z-0.075
G1 F480 X22.820 Y26.439 Z-0.077
G1 F480 X22.567 Y26.138 Z-0.079
G1 F480 X22.227 Y25.942 Z-0.081
G1 F480 X21.938 Y25.891 Z-0.082
G1 F480 X21.438 Y25.891 Z-0.085
G1 F480 X21.150 Y25.942 Z-0.086
G1 F480 X20.809 Y26.138 Z-0.088
G1 F480 X20.585 Y26.405 Z-0.090
G1 F480 X20.542 Y26.480 Z-0.090
G1 F480 X15.646 Y26.480 Z-0.115
G1 F480 X15.577 Y26.474 Z-0.115
G1 F480 X15.510 Y26.492 Z-0.115
G1 F480 X15.485 Y26.496 Z-0.115
G1 F480 X15.394 Y26.525 Z-0.116
G1 F480 X15.340 Y26.562 Z-0.116
G1 F480 X15.282 Y26.596 Z-0.117
G1 F480 X15.237 Y26.649 Z-0.117
G1 F480 X14.097 Y27.789 Z-0.125
G1 F480 X15.237 Y26.649 Z-0.133
G1 F480 X15.282 Y26.596 Z-0.133
G1 F480 X15.340 Y26.562 Z-0.134
G1 F480 X15.394 Y26.525 Z-0.134
G1 F480 X15.485 Y26.496 Z-0.135
G1 F480 X15.510 Y26.492 Z-0.135
G1 F480 X15.577 Y26.474 Z-0.135
G1 F480 X15.646 Y26.480 Z-0.135
G1 F480 X20.542 Y26.480 Z-0.160
G1 F480 X20.585 Y26.405 Z-0.160
G1 F480 X20.809 Y26.138 Z-0.162
G1 F480 X21.150 Y25.942 Z-0.164
G1 F480 X21.438 Y25.891 Z-0.165
G1 F480 X21.938 Y25.891 Z-0.168
G1 F480 X22.227 Y25.942 Z-0.169
G1 F480 X22.567 Y26.138 Z-0.171
G1 F480 X22.820 Y26.439 Z-0.173
G1 F480 X22.954 Y26.808 Z-0.175
G1 F480 X22.954 Y27.201 Z-0.177
G1 F480 X22.820 Y27.570 Z-0.179
G1 F480 X22.567 Y27.871 Z-0.181
G1 F480 X22.227 Y28.067 Z-0.183
G1 F480 X21.938 Y28.118 Z-0.185
G1 F480 X21.438 Y28.118 Z-0.187
G1 F480 X21.150 Y28.067 Z-0.189
G1 F480 X20.809 Y27.871 Z-0.191
G1 F480 X20.585 Y27.604 Z-0.192
G1 F480 X20.542 Y27.530 Z-0.193
G1 F480 X15.841 Y27.530 Z-0.216
G1 F480 X13.040 Y30.331 Z-0.236
G1 F480 X12.995 Y30.385 Z-0.236
G1 F480 X12.933 Y30.420 Z-0.237
G1 F480 X12.882 Y30.456 Z-0.237
G1 F480 X12.790 Y30.485 Z-0.238
G1 F480 X12.766 Y30.489 Z-0.238
G1 F480 X12.699 Y30.508 Z-0.238
G1 F480 X12.629 Y30.502 Z-0.238
G1 F480 X10.389 Y30.502 Z-0.250
G1 F480 X10.346 Y30.576 Z-0.250
G1 F480 X10.389 Y30.502 Z-0.250
G1 F480 X12.629 Y30.502 Z-0.250
G1 F480 X12.699 Y30.508 Z-0.250
G1 F480 X12.766 Y30.489 Z-0.250
G1 F480 X12.790 Y30.485 Z-0.250
G1 F480 X12.882 Y30.456 Z-0.250
G1 F480 X12.933 Y30.420 Z-0.250
G1 F480 X12.995 Y30.385 Z-0.250
G1 F480 X13.040 Y30.331 Z-0.250
G1 F480 X15.841 Y27.530 Z-0.250
G1 F480 X20.542 Y27.530 Z-0.250
G1 F480 X20.585 Y27.604 Z-0.250
G1 F480 X20.809 Y27.871 Z-0.250
G1 F480 X21.150 Y28.067 Z-0.250
G1 F480 X21.438 Y28.118 Z-0.250
G1 F480 X21.938 Y28.118 Z-0.250
G1 F480 X22.227 Y28.067 Z-0.250
G1 F480 X22.567 Y27.871 Z-0.250
G1 F480 X22.820 Y27.570 Z-0.250
G1 F480 X22.954 Y27.201 Z-0.250
G1 F480 X22.954 Y26.808 Z-0.250
G1 F480 X22.820 Y26.439 Z-0.250
G1 F480 X22.567 Y26.138 Z-0.250
G1 F480 X22.227 Y25.942 Z-0.250
G1 F480 X21.938 Y25.891 Z-0.250
G1 F480 X21.438 Y25.891 Z-0.250
G1 F480 X21.150 Y25.942 Z-0.250
G1 F480 X20.809 Y26.138 Z-0.250
G1 F480 X20.585 Y26.405 Z-0.250
G1 F480 X20.542 Y26.480 Z-0.250
G1 F480 X15.646 Y26.480 Z-0.250
G1 F480 X15.577 Y26.474 Z-0.250
G1 F480 X15.510 Y26.492 Z-0.250
G1 F480 X15.485 Y26.496 Z-0.250
G1 F480 X15.394 Y26.525 Z-0.250
G1 F480 X15.340 Y26.562 Z-0.250
G1 F480 X15.282 Y26.596 Z-0.250
G1 F480 X15.237 Y26.649 Z-0.250
G1 F480 X12.434 Y29.452 Z-0.250
G1 F480 X10.389 Y29.452 Z-0.250
G1 F480 X10.346 Y29.377 Z-0.250
G1 F480 X10.121 Y29.110 Z-0.250
G1 F480 X9.781 Y28.914 Z-0.250
G1 F480 X9.492 Y28.863 Z-0.250
G1 F480 X9.297 Y28.863 Z-0.250
G1 F480 X9.007 Y28.914 Z-0.250
G1 F480 X8.668 Y29.110 Z-0.250
G1 F480 X8.415 Y29.411 Z-0.250
G1 F480 X8.281 Y29.780 Z-0.250
G1 F480 X8.281 Y30.173 Z-0.250
G1 F480 X8.415 Y30.542 Z-0.250
G1 F480 X8.668 Y30.843 Z-0.250
G1 F480 X9.007 Y31.039 Z-0.250
G1 F480 X9.297 Y31.090 Z-0.250
G1 F480 X9.492 Y31.090 Z-0.250
G1 F480 X9.781 Y31.039 Z-0.250
G1 F480 X10.121 Y30.843 Z-0.250
G1 F480 X10.346 Y30.576 Z-0.250
G0 X10.346 Y30.576 Z6.000
G0 X22.227 Y31.022 Z6.000
G1 F480 X22.227 Y31.022 Z0.000
G1 F480 X21.938 Y30.971 Z-0.005
G1 F480 X21.438 Y30.971 Z-0.013
G1 F480 X21.150 Y31.022 Z-0.018
G1 F480 X20.809 Y31.218 Z-0.024
G1 F480 X20.556 Y31.519 Z-0.031
G1 F480 X20.422 Y31.888 Z-0.037
G1 F480 X20.422 Y32.281 Z-0.043
G1 F480 X20.556 Y32.650 Z-0.050
G1 F480 X20.809 Y32.951 Z-0.056
G1 F480 X21.150 Y33.147 Z-0.062
G1 F480 X21.438 Y33.198 Z-0.067
G1 F480 X21.938 Y33.198 Z-0.075
G1 F480 X22.227 Y33.147 Z-0.080
G1 F480 X22.567 Y32.951 Z-0.087
G1 F480 X22.820 Y32.650 Z-0.093
G1 F480 X22.954 Y32.281 Z-0.099
G1 F480 X22.954 Y31.888 Z-0.106
G1 F480 X22.820 Y31.519 Z-0.112
G1 F480 X22.567 Y31.218 Z-0.119
G1 F480 X22.227 Y31.022 Z-0.125
G1 F480 X22.567 Y31.218 Z-0.131
G1 F480 X22.820 Y31.519 Z-0.138
G1 F480 X22.954 Y31.888 Z-0.144
G1 F480 X22.954 Y32.281 Z-0.151
G1 F480 X22.820 Y32.650 Z-0.157
G1 F480 X22.567 Y32.951 Z-0.163
G1 F480 X22.227 Y33.147 Z-0.170
G1 F480 X21.938 Y33.198 Z-0.175
G1 F480 X21.438 Y33.198 Z-0.183
G1 F480 X21.150 Y33.147 Z-0.187
G1 F480 X20.809 Y32.951 Z-0.194
G1 F480 X20.556 Y32.650 Z-0.200
G1 F480 X20.422 Y32.281 Z-0.207
G1 F480 X20.422 Y31.888 Z-0.213
G1 F480 X20.556 Y31.519 Z-0.219
G1 F480 X20.809 Y31.218 Z-0.226
G1 F480 X21.150 Y31.022 Z-0.232
G1 F480 X21.438 Y30.971 Z-0.237
G1 F480 X21.938 Y30.971 Z-0.245
G1 F480 X22.227 Y31.022 Z-0.250
G1 F480 X21.938 Y30.971 Z-0.250
G1 F480 X21.438 Y30.971 Z-0.250
G1 F480 X21.150 Y31.022 Z-0.250
G1 F480 X20.809 Y31.218 Z-0.250
G1 F480 X20.556 Y31.519 Z-0.250
G1 F480 X20.422 Y31.888 Z-0.250
G1 F480 X20.422 Y32.281 Z-0.250
G1 F480 X20.556 Y32.650 Z-0.250
G1 F480 X20.809 Y32.951 Z-0.250
G1 F480 X21.150 Y33.147 Z-0.250
G1 F480 X21.438 Y33.198 Z-0.250
G1 F480 X21.938 Y33.198 Z-0.250
G1 F480 X22.227 Y33.147 Z-0.250
G1 F480 X22.567 Y32.951 Z-0.250
G1 F480 X22.820 Y32.650 Z-0.250
G1 F480 X22.954 Y32.281 Z-0.250
G1 F480 X22.954 Y31.888 Z-0.250
G1 F480 X22.820 Y31.519 Z-0.250
G1 F480 X22.567 Y31.218 Z-0.250
G1 F480 X22.227 Y31.022 Z-0.250
G0 X22.227 Y31.022 Z6.000
G0 X22.227 Y33.562 Z6.000
G1 F480 X22.227 Y33.562 Z0.000
G1 F480 X21.938 Y33.511 Z-0.005
G1 F480 X21.438 Y33.511 Z-0.013
G1 F480 X21.150 Y33.562 Z-0.018
G1 F480 X20.809 Y33.758 Z-0.024
G1 F480 X20.556 Y34.059 Z-0.031
G1 F480 X20.422 Y34.428 Z-0.037
G1 F480 X20.422 Y34.821 Z-0.043
G1 F480 X20.556 Y35.190 Z-0.050
G1 F480 X20.809 Y35.491 Z-0.056
G1 F480 X21.150 Y35.687 Z-0.062
G1 F480 X21.438 Y35.738 Z-0.067
G1 F480 X21.938 Y35.738 Z-0.075
G1 F480 X22.227 Y35.687 Z-0.080
G1 F480 X22.567 Y35.491 Z-0.087
G1 F480 X22.820 Y35.190 Z-0.093
G1 F480 X22.954 Y34.821 Z-0.099
G1 F480 X22.954 Y34.428 Z-0.106
G1 F480 X22.820 Y34.059 Z-0.112
G1 F480 X22.567 Y33.758 Z-0.119
G1 F480 X22.227 Y33.562 Z-0.125
G1 F480 X22.567 Y33.758 Z-0.131
G1 F480 X22.820 Y34.059 Z-0.138
G1 F480 X22.954 Y34.428 Z-0.144
G1 F480 X22.954 Y34.821 Z-0.151
G1 F480 X22.820 Y35.190 Z-0.157
G1 F480 X22.567 Y35.491 Z-0.163
G1 F480 X22.227 Y35.687 Z-0.170
G1 F480 X21.938 Y35.738 Z-0.175
G1 F480 X21.438 Y35.738 Z-0.183
G1 F480 X21.150 Y35.687 Z-0.187
G1 F480 X20.809 Y35.491 Z-0.194
G1 F480 X20.556 Y35.190 Z-0.200
G1 F480 X20.422 Y34.821 Z-0.207
G1 F480 X20.422 Y34.428 Z-0.213
G1 F480 X20.556 Y34.059 Z-0.219
G1 F480 X20.809 Y33.758 Z-0.226
G1 F480 X21.150 Y33.562 Z-0.232
G1 F480 X21.438 Y33.511 Z-0.237
G1 F480 X21.938 Y33.511 Z-0.245
G1 F480 X22.227 Y33.562 Z-0.250
G1 F480 X21.938 Y33.511 Z-0.250
G1 F480 X21.438 Y33.511 Z-0.250
G1 F480 X21.150 Y33.562 Z-0.250
G1 F480 X20.809 Y33.758 Z-0.250
G1 F480 X20.556 Y34.059 Z-0.250
G1 F480 X20.422 Y34.428 Z-0.250
G1 F480 X20.422 Y34.821 Z-0.250
G1 F480 X20.556 Y35.190 Z-0.250
G1 F480 X20.809 Y35.491 Z-0.250
G1 F480 X21.150 Y35.687 Z-0.250
G1 F480 X21.438 Y35.738 Z-0.250
G1 F480 X21.938 Y35.738 Z-0.250
G1 F480 X22.227 Y35.687 Z-0.250
G1 F480 X22.567 Y35.491 Z-0.250
G1 F480 X22.820 Y35.190 Z-0.250
G1 F480 X22.954 Y34.821 Z-0.250
G1 F480 X22.954 Y34.428 Z-0.250
G1 F480 X22.820 Y34.059 Z-0.250
G1 F480 X22.567 Y33.758 Z-0.250
G1 F480 X22.227 Y33.562 Z-0.250
G0 X22.227 Y33.562 Z6.000
G0 X22.227 Y36.102 Z6.000
G1 F480 X22.227 Y36.102 Z0.000
G1 F480 X21.938 Y36.051 Z-0.005
G1 F480 X21.438 Y36.051 Z-0.013
G1 F480 X21.150 Y36.102 Z-0.018
G1 F480 X20.809 Y36.298 Z-0.024
G1 F480 X20.556 Y36.599 Z-0.031
G1 F480 X20.422 Y36.968 Z-0.037
G1 F480 X20.422 Y37.361 Z-0.043
G1 F480 X20.556 Y37.730 Z-0.050
G1 F480 X20.809 Y38.031 Z-0.056
G1 F480 X21.149 Y38.227 Z-0.062
G1 F480 X21.438 Y38.279 Z-0.067
G1 F480 X21.938 Y38.279 Z-0.075
G1 F480 X22.227 Y38.227 Z-0.080
G1 F480 X22.567 Y38.031 Z-0.087
G1 F480 X22.820 Y37.730 Z-0.093
G1 F480 X22.954 Y37.361 Z-0.099
G1 F480 X22.954 Y36.968 Z-0.106
G1 F480 X22.820 Y36.599 Z-0.112
G1 F480 X22.567 Y36.298 Z-0.119
G1 F480 X22.227 Y36.102 Z-0.125
G1 F480 X22.567 Y36.298 Z-0.131
G1 F480 X22.820 Y36.599 Z-0.138
G1 F480 X22.954 Y36.968 Z-0.144
G1 F480 X22.954 Y37.361 Z-0.151
G1 F480 X22.820 Y37.730 Z-0.157
G1 F480 X22.567 Y38.031 Z-0.163
G1 F480 X22.227 Y38.227 Z-0.170
G1 F480 X21.938 Y38.279 Z-0.175
G1 F480 X21.438 Y38.279 Z-0.183
G1 F480 X21.149 Y38.227 Z-0.188
G1 F480 X20.809 Y38.031 Z-0.194
G1 F480 X20.556 Y37.730 Z-0.200
G1 F480 X20.422 Y37.361 Z-0.207
G1 F480 X20.422 Y36.968 Z-0.213
G1 F480 X20.556 Y36.599 Z-0.219
G1 F480 X20.809 Y36.298 Z-0.226
G1 F480 X21.150 Y36.102 Z-0.232
G1 F480 X21.438 Y36.051 Z-0.237
G1 F480 X21.938 Y36.051 Z-0.245
G1 F480 X22.227 Y36.102 Z-0.250
G1 F480 X21.938 Y36.051 Z-0.250
G1 F480 X21.438 Y36.051 Z-0.250
G1 F480 X21.150 Y36.102 Z-0.250
G1 F480 X20.809 Y36.298 Z-0.250
G1 F480 X20.556 Y36.599 Z-0.250
G1 F480 X20.422 Y36.968 Z-0.250
G1 F480 X20.422 Y37.361 Z-0.250
G1 F480 X20.556 Y37.730 Z-0.250
G1 F480 X20.809 Y38.031 Z-0.250
G1 F480 X21.149 Y38.227 Z-0.250
G1 F480 X21.438 Y38.279 Z-0.250
G1 F480 X21.938 Y38.279 Z-0.250
G1 F480 X22.227 Y38.227 Z-0.250
G1 F480 X22.567 Y38.031 Z-0.250
G1 F480 X22.820 Y37.730 Z-0.250
G1 F480 X22.954 Y37.361 Z-0.250
G1 F480 X22.954 Y36.968 Z-0.250
G1 F480 X22.820 Y36.599 Z-0.250
G1 F480 X22.567 Y36.298 Z-0.250
G1 F480 X22.227 Y36.102 Z-0.250
G0 X22.227 Y36.102 Z6.000
G0 X22.227 Y38.642 Z6.000
G1 F480 X22.227 Y38.642 Z0.000
G1 F480 X21.938 Y38.591 Z-0.005
G1 F480 X21.438 Y38.591 Z-0.013
G1 F480 X21.149 Y38.642 Z-0.018
G1 F480 X20.809 Y38.838 Z-0.024
G1 F480 X20.556 Y39.140 Z-0.031
G1 F480 X20.422 Y39.509 Z-0.037
G1 F480 X20.422 Y39.901 Z-0.043
G1 F480 X20.556 Y40.269 Z-0.050
G1 F480 X20.809 Y40.571 Z-0.056
G1 F480 X21.149 Y40.767 Z-0.063
G1 F480 X21.438 Y40.819 Z-0.067
G1 F480 X21.938 Y40.819 Z-0.075
G1 F480 X22.227 Y40.767 Z-0.080
G1 F480 X22.568 Y40.571 Z-0.087
G1 F480 X22.820 Y40.269 Z-0.093
G1 F480 X22.954 Y39.901 Z-0.099
G1 F480 X22.954 Y39.509 Z-0.106
G1 F480 X22.820 Y39.140 Z-0.112
G1 F480 X22.568 Y38.838 Z-0.119
G1 F480 X22.227 Y38.642 Z-0.125
G1 F480 X22.568 Y38.838 Z-0.131
G1 F480 X22.820 Y39.140 Z-0.138
G1 F480 X22.954 Y39.509 Z-0.144
G1 F480 X22.954 Y39.901 Z-0.151
G1 F480 X22.820 Y40.269 Z-0.157
G1 F480 X22.568 Y40.571 Z-0.163
G1 F480 X22.227 Y40.767 Z-0.170
G1 F480 X21.938 Y40.819 Z-0.175
G1 F480 X21.438 Y40.819 Z-0.183
G1 F480 X21.149 Y40.767 Z-0.187
G1 F480 X20.809 Y40.571 Z-0.194
G1 F480 X20.556 Y40.269 Z-0.200
G1 F480 X20.422 Y39.901 Z-0.207
G1 F480 X20.422 Y39.509 Z-0.213
G1 F480 X20.556 Y39.140 Z-0.219
G1 F480 X20.809 Y38.838 Z-0.226
G1 F480 X21.149 Y38.642 Z-0.232
G1 F480 X21.438 Y38.591 Z-0.237
G1 F480 X21.938 Y38.591 Z-0.245
G1 F480 X22.227 Y38.642 Z-0.250
G1 F480 X21.938 Y38.591 Z-0.250
G1 F480 X21.438 Y38.591 Z-0.250
G1 F480 X21.149 Y38.642 Z-0.250
G1 F480 X20.809 Y38.838 Z-0.250
G1 F480 X20.556 Y39.140 Z-0.250
G1 F480 X20.422 Y39.509 Z-0.250
G1 F480 X20.422 Y39.901 Z-0.250
G1 F480 X20.556 Y40.269 Z-0.250
G1 F480 X20.809 Y40.571 Z-0.250
G1 F480 X21.149 Y40.767 Z-0.250
G1 F480 X21.438 Y40.819 Z-0.250
G1 F480 X21.938 Y40.819 Z-0.250
G1 F480 X22.227 Y40.767 Z-0.250
G1 F480 X22.568 Y40.571 Z-0.250
G1 F480 X22.820 Y40.269 Z-0.250
G1 F480 X22.954 Y39.901 Z-0.250
G1 F480 X22.954 Y39.509 Z-0.250
G1 F480 X22.820 Y39.140 Z-0.250
G1 F480 X22.568 Y38.838 Z-0.250
G1 F480 X22.227 Y38.642 Z-0.250
G0 X22.227 Y38.642 Z6.000
G0 X22.227 Y41.182 Z6.000
G1 F480 X22.227 Y41.182 Z0.000
G1 F480 X21.938 Y41.131 Z-0.005
G1 F480 X21.438 Y41.131 Z-0.013
G1 F480 X21.149 Y41.182 Z-0.018
G1 F480 X20.809 Y41.378 Z-0.024
G1 F480 X20.556 Y41.680 Z-0.031
G1 F480 X20.422 Y42.049 Z-0.037
G1 F480 X20.422 Y42.441 Z-0.043
G1 F480 X20.556 Y42.809 Z-0.050
G1 F480 X20.809 Y43.111 Z-0.056
G1 F480 X21.149 Y43.307 Z-0.063
G1 F480 X21.438 Y43.359 Z-0.067
G1 F480 X21.938 Y43.359 Z-0.075
G1 F480 X22.227 Y43.307 Z-0.080
G1 F480 X22.568 Y43.111 Z-0.087
G1 F480 X22.820 Y42.809 Z-0.093
G1 F480 X22.954 Y42.441 Z-0.099
G1 F480 X22.954 Y42.049 Z-0.106
G1 F480 X22.820 Y41.680 Z-0.112
G1 F480 X22.568 Y41.378 Z-0.119
G1 F480 X22.227 Y41.182 Z-0.125
G1 F480 X22.568 Y41.378 Z-0.131
G1 F480 X22.820 Y41.680 Z-0.138
G1 F480 X22.954 Y42.049 Z-0.144
G1 F480 X22.954 Y42.441 Z-0.151
G1 F480 X22.820 Y42.809 Z-0.157
G1 F480 X22.568 Y43.111 Z-0.163
G1 F480 X22.227 Y43.307 Z-0.170
G1 F480 X21.938 Y43.359 Z-0.175
G1 F480 X21.438 Y43.359 Z-0.183
G1 F480 X21.149 Y43.307 Z-0.187
G1 F480 X20.809 Y43.111 Z-0.194
G1 F480 X20.556 Y42.809 Z-0.200
G1 F480 X20.422 Y42.441 Z-0.207
G1 F480 X20.422 Y42.049 Z-0.213
G1 F480 X20.556 Y41.680 Z-0.219
G1 F480 X20.809 Y41.378 Z-0.226
G1 F480 X21.149 Y41.182 Z-0.232
G1 F480 X21.438 Y41.131 Z-0.237
G1 F480 X21.938 Y41.131 Z-0.245
G1 F480 X22.227 Y41.182 Z-0.250
G1 F480 X21.938 Y41.131 Z-0.250
G1 F480 X21.438 Y41.131 Z-0.250
G1 F480 X21.149 Y41.182 Z-0.250
G1 F480 X20.809 Y41.378 Z-0.250
G1 F480 X20.556 Y41.680 Z-0.250
G1 F480 X20.422 Y42.049 Z-0.250
G1 F480 X20.422 Y42.441 Z-0.250
G1 F480 X20.556 Y42.809 Z-0.250
G1 F480 X20.809 Y43.111 Z-0.250
G1 F480 X21.149 Y43.307 Z-0.250
G1 F480 X21.438 Y43.359 Z-0.250
G1 F480 X21.938 Y43.359 Z-0.250
G1 F480 X22.227 Y43.307 Z-0.250
G1 F480 X22.568 Y43.111 Z-0.250
G1 F480 X22.820 Y42.809 Z-0.250
G1 F480 X22.954 Y42.441 Z-0.250
G1 F480 X22.954 Y42.049 Z-0.250
G1 F480 X22.820 Y41.680 Z-0.250
G1 F480 X22.568 Y41.378 Z-0.250
G1 F480 X22.227 Y41.182 Z-0.250
G0 X22.227 Y41.182 Z6.000
G0 X22.227 Y43.722 Z6.000
G1 F480 X22.227 Y43.722 Z0.000
G1 F480 X21.938 Y43.671 Z-0.002
G1 F480 X21.438 Y43.671 Z-0.006
G1 F480 X21.149 Y43.722 Z-0.009
G1 F480 X20.809 Y43.918 Z-0.012
G1 F480 X20.556 Y44.220 Z-0.015
G1 F480 X20.422 Y44.589 Z-0.018
G1 F480 X20.422 Y44.981 Z-0.021
G1 F480 X20.556 Y45.349 Z-0.025
G1 F480 X20.809 Y45.651 Z-0.028
G1 F480 X21.149 Y45.847 Z-0.031
G1 F480 X21.231 Y45.862 Z-0.032
G1 F480 X21.160 Y45.874 Z-0.032
G1 F480 X20.696 Y46.142 Z-0.037
G1 F480 X20.351 Y46.553 Z-0.041
G1 F480 X20.168 Y47.057 Z-0.045
G1 F480 X20.168 Y47.593 Z-0.050
G1 F480 X20.351 Y48.097 Z-0.054
G1 F480 X20.696 Y48.507 Z-0.058
G1 F480 X21.160 Y48.775 Z-0.063
G1 F480 X21.688 Y48.869 Z-0.067
G1 F480 X22.216 Y48.775 Z-0.071
G1 F480 X22.680 Y48.507 Z-0.076
G1 F480 X23.025 Y48.097 Z-0.080
G1 F480 X23.208 Y47.593 Z-0.084
G1 F480 X23.208 Y47.057 Z-0.089
G1 F480 X23.025 Y46.553 Z-0.093
G1 F480 X22.680 Y46.142 Z-0.097
G1 F480 X22.216 Y45.874 Z-0.102
G1 F480 X22.146 Y45.862 Z-0.102
G1 F480 X22.227 Y45.847 Z-0.103
G1 F480 X22.568 Y45.651 Z-0.106
G1 F480 X22.820 Y45.349 Z-0.109
G1 F480 X22.954 Y44.981 Z-0.112
G1 F480 X22.954 Y44.589 Z-0.115
G1 F480 X22.820 Y44.220 Z-0.119
G1 F480 X22.568 Y43.918 Z-0.122
G1 F480 X22.227 Y43.722 Z-0.125
G1 F480 X22.568 Y43.918 Z-0.128
G1 F480 X22.820 Y44.220 Z-0.131
G1 F480 X22.954 Y44.589 Z-0.135
G1 F480 X22.954 Y44.981 Z-0.138
G1 F480 X22.820 Y45.349 Z-0.141
G1 F480 X22.568 Y45.651 Z-0.144
G1 F480 X22.227 Y45.847 Z-0.147
G1 F480 X22.146 Y45.862 Z-0.148
G1 F480 X22.216 Y45.874 Z-0.148
G1 F480 X22.680 Y46.142 Z-0.153
G1 F480 X23.025 Y46.553 Z-0.157
G1 F480 X23.208 Y47.057 Z-0.161
G1 F480 X23.208 Y47.593 Z-0.166
G1 F480 X23.025 Y48.097 Z-0.170
G1 F480 X22.680 Y48.507 Z-0.174
G1 F480 X22.216 Y48.775 Z-0.179
G1 F480 X21.688 Y48.869 Z-0.183
G1 F480 X21.160 Y48.775 Z-0.187
G1 F480 X20.696 Y48.507 Z-0.192
G1 F480 X20.351 Y48.097 Z-0.196
G1 F480 X20.168 Y47.593 Z-0.200
G1 F480 X20.168 Y47.057 Z-0.205
G1 F480 X20.351 Y46.553 Z-0.209
G1 F480 X20.696 Y46.142 Z-0.213
G1 F480 X21.160 Y45.874 Z-0.218
G1 F480 X21.231 Y45.862 Z-0.218
G1 F480 X21.149 Y45.847 Z-0.219
G1 F480 X20.809 Y45.651 Z-0.222
G1 F480 X20.556 Y45.349 Z-0.225
G1 F480 X20.422 Y44.981 Z-0.229
G1 F480 X20.422 Y44.589 Z-0.232
G1 F480 X20.556 Y44.220 Z-0.235
G1 F480 X20.809 Y43.918 Z-0.238
G1 F480 X21.149 Y43.722 Z-0.241
G1 F480 X21.438 Y43.671 Z-0.244
G1 F480 X21.938 Y43.671 Z-0.248
G1 F480 X22.227 Y43.722 Z-0.250
G1 F480 X21.938 Y43.671 Z-0.250
G1 F480 X21.438 Y43.671 Z-0.250
G1 F480 X21.149 Y43.722 Z-0.250
G1 F480 X20.809 Y43.918 Z-0.250
G1 F480 X20.556 Y44.220 Z-0.250
G1 F480 X20.422 Y44.589 Z-0.250
G1 F480 X20.422 Y44.981 Z-0.250
G1 F480 X20.556 Y45.349 Z-0.250
G1 F480 X20.809 Y45.651 Z-0.250
G1 F480 X21.149 Y45.847 Z-0.250
G1 F480 X21.231 Y45.862 Z-0.250
G1 F480 X21.160 Y45.874 Z-0.250
G1 F480 X20.696 Y46.142 Z-0.250
G1 F480 X20.351 Y46.553 Z-0.250
G1 F480 X20.168 Y47.057 Z-0.250
G1 F480 X20.168 Y47.593 Z-0.250
G1 F480 X20.351 Y48.097 Z-0.250
G1 F480 X20.696 Y48.507 Z-0.250
G1 F480 X21.160 Y48.775 Z-0.250
G1 F480 X21.688 Y48.869 Z-0.250
G1 F480 X22.216 Y48.775 Z-0.250
G1 F480 X22.680 Y48.507 Z-0.250
G1 F480 X23.025 Y48.097 Z-0.250
G1 F480 X23.208 Y47.593 Z-0.250
G1 F480 X23.208 Y47.057 Z-0.250
G1 F480 X23.025 Y46.553 Z-0.250
G1 F480 X22.680 Y46.142 Z-0.250
G1 F480 X22.216 Y45.874 Z-0.250
G1 F480 X22.146 Y45.862 Z-0.250
G1 F480 X22.227 Y45.847 Z-0.250
G1 F480 X22.568 Y45.651 Z-0.250
G1 F480 X22.820 Y45.349 Z-0.250
G1 F480 X22.954 Y44.981 Z-0.250
G1 F480 X22.954 Y44.589 Z-0.250
G1 F480 X22.820 Y44.220 Z-0.250
G1 F480 X22.568 Y43.918 Z-0.250
G1 F480 X22.227 Y43.722 Z-0.250
G0 X22.227 Y43.722 Z6.000
G0 X37.467 Y43.722 Z6.000
G1 F480 X37.467 Y43.722 Z0.000
G1 F480 X37.178 Y43.671 Z-0.002
G1 F480 X36.678 Y43.671 Z-0.006
G1 F480 X36.389 Y43.722 Z-0.009
G1 F480 X36.049 Y43.918 Z-0.012
G1 F480 X35.796 Y44.220 Z-0.015
G1 F480 X35.662 Y44.589 Z-0.018
G1 F480 X35.662 Y44.981 Z-0.021
G1 F480 X35.796 Y45.349 Z-0.025
G1 F480 X36.049 Y45.651 Z-0.028
G1 F480 X36.389 Y45.847 Z-0.031
G1 F480 X36.471 Y45.862 Z-0.032
G1 F480 X36.400 Y45.874 Z-0.032
G1 F480 X35.936 Y46.142 Z-0.037
G1 F480 X35.591 Y46.553 Z-0.041
G1 F480 X35.408 Y47.057 Z-0.045
G1 F480 X35.408 Y47.593 Z-0.050
G1 F480 X35.591 Y48.097 Z-0.054
G1 F480 X35.936 Y48.507 Z-0.058
G1 F480 X36.400 Y48.775 Z-0.063
G1 F480 X36.928 Y48.869 Z-0.067
G1 F480 X37.456 Y48.775 Z-0.071
G1 F480 X37.920 Y48.507 Z-0.076
G1 F480 X38.265 Y48.097 Z-0.080
G1 F480 X38.448 Y47.593 Z-0.084
G1 F480 X38.448 Y47.057 Z-0.089
G1 F480 X38.265 Y46.553 Z-0.093
G1 F480 X37.920 Y46.142 Z-0.097
G1 F480 X37.456 Y45.874 Z-0.102
G1 F480 X37.386 Y45.862 Z-0.102
G1 F480 X37.467 Y45.847 Z-0.103
G1 F480 X37.808 Y45.651 Z-0.106
G1 F480 X38.060 Y45.349 Z-0.109
G1 F480 X38.194 Y44.981 Z-0.112
G1 F480 X38.194 Y44.589 Z-0.115
G1 F480 X38.060 Y44.220 Z-0.119
G1 F480 X37.808 Y43.918 Z-0.122
G1 F480 X37.467 Y43.722 Z-0.125
G1 F480 X37.808 Y43.918 Z-0.128
G1 F480 X38.060 Y44.220 Z-0.131
G1 F480 X38.194 Y44.589 Z-0.135
G1 F480 X38.194 Y44.981 Z-0.138
G1 F480 X38.060 Y45.349 Z-0.141
G1 F480 X37.808 Y45.651 Z-0.144
G1 F480 X37.467 Y45.847 Z-0.147
G1 F480 X37.386 Y45.862 Z-0.148
G1 F480 X37.456 Y45.874 Z-0.148
G1 F480 X37.920 Y46.142 Z-0.153
G1 F480 X38.265 Y46.553 Z-0.157
G1 F480 X38.448 Y47.057 Z-0.161
G1 F480 X38.448 Y47.593 Z-0.166
G1 F480 X38.265 Y48.097 Z-0.170
G1 F480 X37.920 Y48.507 Z-0.174
G1 F480 X37.456 Y48.775 Z-0.179
G1 F480 X36.928 Y48.869 Z-0.183
G1 F480 X36.400 Y48.775 Z-0.187
G1 F480 X35.936 Y48.507 Z-0.192
G1 F480 X35.591 Y48.097 Z-0.196
G1 F480 X35.408 Y47.593 Z-0.200
G1 F480 X35.408 Y47.057 Z-0.205
G1 F480 X35.591 Y46.553 Z-0.209
G1 F480 X35.936 Y46.142 Z-0.213
G1 F480 X36.400 Y45.874 Z-0.218
G1 F480 X36.471 Y45.862 Z-0.218
G1 F480 X36.389 Y45.847 Z-0.219
G1 F480 X36.049 Y45.651 Z-0.222
G1 F480 X35.796 Y45.349 Z-0.225
G1 F480 X35.662 Y44.981 Z-0.229
G1 F480 X35.662 Y44.589 Z-0.232
G1 F480 X35.796 Y44.220 Z-0.235
G1 F480 X36.049 Y43.918 Z-0.238
G1 F480 X36.389 Y43.722 Z-0.241
G1 F480 X36.678 Y43.671 Z-0.244
G1 F480 X37.178 Y43.671 Z-0.248
G1 F480 X37.467 Y43.722 Z-0.250
G1 F480 X37.178 Y43.671 Z-0.250
G1 F480 X36.678 Y43.671 Z-0.250
G1 F480 X36.389 Y43.722 Z-0.250
G1 F480 X36.049 Y43.918 Z-0.250
G1 F480 X35.796 Y44.220 Z-0.250
G1 F480 X35.662 Y44.589 Z-0.250
G1 F480 X35.662 Y44.981 Z-0.250
G1 F480 X35.796 Y45.349 Z-0.250
G1 F480 X36.049 Y45.651 Z-0.250
G1 F480 X36.389 Y45.847 Z-0.250
G1 F480 X36.471 Y45.862 Z-0.250
G1 F480 X36.400 Y45.874 Z-0.250
G1 F480 X35.936 Y46.142 Z-0.250
G1 F480 X35.591 Y46.553 Z-0.250
G1 F480 X35.408 Y47.057 Z-0.250
G1 F480 X35.408 Y47.593 Z-0.250
G1 F480 X35.591 Y48.097 Z-0.250
G1 F480 X35.936 Y48.507 Z-0.250
G1 F480 X36.400 Y48.775 Z-0.250
G1 F480 X36.928 Y48.869 Z-0.250
G1 F480 X37.456 Y48.775 Z-0.250
G1 F480 X37.920 Y48.507 Z-0.250
G1 F480 X38.265 Y48.097 Z-0.250
G1 F480 X38.448 Y47.593 Z-0.250
G1 F480 X38.448 Y47.057 Z-0.250
G1 F480 X38.265 Y46.553 Z-0.250
G1 F480 X37.920 Y46.142 Z-0.250
G1 F480 X37.456 Y45.874 Z-0.250
G1 F480 X37.386 Y45.862 Z-0.250
G1 F480 X37.467 Y45.847 Z-0.250
G1 F480 X37.808 Y45.651 Z-0.250
G1 F480 X38.060 Y45.349 Z-0.250
G1 F480 X38.194 Y44.981 Z-0.250
G1 F480 X38.194 Y44.589 Z-0.250
G1 F480 X38.060 Y44.220 Z-0.250
G1 F480 X37.808 Y43.918 Z-0.250
G1 F480 X37.467 Y43.722 Z-0.250
G0 X37.467 Y43.722 Z6.000
G0 X37.467 Y41.182 Z6.000
G1 F480 X37.467 Y41.182 Z0.000
G1 F480 X37.178 Y41.131 Z-0.005
G1 F480 X36.678 Y41.131 Z-0.013
G1 F480 X36.389 Y41.182 Z-0.018
G1 F480 X36.049 Y41.378 Z-0.024
G1 F480 X35.796 Y41.680 Z-0.031
G1 F480 X35.662 Y42.049 Z-0.037
G1 F480 X35.662 Y42.441 Z-0.043
G1 F480 X35.796 Y42.809 Z-0.050
G1 F480 X36.049 Y43.111 Z-0.056
G1 F480 X36.389 Y43.307 Z-0.063
G1 F480 X36.678 Y43.359 Z-0.067
G1 F480 X37.178 Y43.359 Z-0.075
G1 F480 X37.467 Y43.307 Z-0.080
G1 F480 X37.808 Y43.111 Z-0.087
G1 F480 X38.060 Y42.809 Z-0.093
G1 F480 X38.194 Y42.441 Z-0.099
G1 F480 X38.194 Y42.049 Z-0.106
G1 F480 X38.060 Y41.680 Z-0.112
G1 F480 X37.808 Y41.378 Z-0.119
G1 F480 X37.467 Y41.182 Z-0.125
G1 F480 X37.808 Y41.378 Z-0.131
G1 F480 X38.060 Y41.680 Z-0.138
G1 F480 X38.194 Y42.049 Z-0.144
G1 F480 X38.194 Y42.441 Z-0.151
G1 F480 X38.060 Y42.809 Z-0.157
G1 F480 X37.808 Y43.111 Z-0.163
G1 F480 X37.467 Y43.307 Z-0.170
G1 F480 X37.178 Y43.359 Z-0.175
G1 F480 X36.678 Y43.359 Z-0.183
G1 F480 X36.389 Y43.307 Z-0.188
G1 F480 X36.049 Y43.111 Z-0.194
G1 F480 X35.796 Y42.809 Z-0.200
G1 F480 X35.662 Y42.441 Z-0.207
G1 F480 X35.662 Y42.049 Z-0.213
G1 F480 X35.796 Y41.680 Z-0.219
G1 F480 X36.049 Y41.378 Z-0.226
G1 F480 X36.389 Y41.182 Z-0.232
G1 F480 X36.678 Y41.131 Z-0.237
G1 F480 X37.178 Y41.131 Z-0.245
G1 F480 X37.467 Y41.182 Z-0.250
G1 F480 X37.178 Y41.131 Z-0.250
G1 F480 X36.678 Y41.131 Z-0.250
G1 F480 X36.389 Y41.182 Z-0.250
G1 F480 X36.049 Y41.378 Z-0.250
G1 F480 X35.796 Y41.680 Z-0.250
G1 F480 X35.662 Y42.049 Z-0.250
G1 F480 X35.662 Y42.441 Z-0.250
G1 F480 X35.796 Y42.809 Z-0.250
G1 F480 X36.049 Y43.111 Z-0.250
G1 F480 X36.389 Y43.307 Z-0.250
G1 F480 X36.678 Y43.359 Z-0.250
G1 F480 X37.178 Y43.359 Z-0.250
G1 F480 X37.467 Y43.307 Z-0.250
G1 F480 X37.808 Y43.111 Z-0.250
G1 F480 X38.060 Y42.809 Z-0.250
G1 F480 X38.194 Y42.441 Z-0.250
G1 F480 X38.194 Y42.049 Z-0.250
G1 F480 X38.060 Y41.680 Z-0.250
G1 F480 X37.808 Y41.378 Z-0.250
G1 F480 X37.467 Y41.182 Z-0.250
G0 X37.467 Y41.182 Z6.000
G0 X37.467 Y38.642 Z6.000
G1 F480 X37.467 Y38.642 Z0.000
G1 F480 X37.178 Y38.591 Z-0.005
G1 F480 X36.678 Y38.591 Z-0.013
G1 F480 X36.389 Y38.642 Z-0.018
G1 F480 X36.049 Y38.838 Z-0.024
G1 F480 X35.796 Y39.140 Z-0.031
G1 F480 X35.662 Y39.509 Z-0.037
G1 F480 X35.662 Y39.901 Z-0.043
G1 F480 X35.796 Y40.269 Z-0.050
G1 F480 X36.049 Y40.571 Z-0.056
G1 F480 X36.389 Y40.767 Z-0.063
G1 F480 X36.678 Y40.819 Z-0.067
G1 F480 X37.178 Y40.819 Z-0.075
G1 F480 X37.467 Y40.767 Z-0.080
G1 F480 X37.808 Y40.571 Z-0.087
G1 F480 X38.060 Y40.269 Z-0.093
G1 F480 X38.194 Y39.901 Z-0.099
G1 F480 X38.194 Y39.509 Z-0.106
G1 F480 X38.060 Y39.140 Z-0.112
G1 F480 X37.808 Y38.838 Z-0.119
G1 F480 X37.467 Y38.642 Z-0.125
G1 F480 X37.808 Y38.838 Z-0.131
G1 F480 X38.060 Y39.140 Z-0.138
G1 F480 X38.194 Y39.509 Z-0.144
G1 F480 X38.194 Y39.901 Z-0.151
G1 F480 X38.060 Y40.269 Z-0.157
G1 F480 X37.808 Y40.571 Z-0.163
G1 F480 X37.467 Y40.767 Z-0.170
G1 F480 X37.178 Y40.819 Z-0.175
G1 F480 X36.678 Y40.819 Z-0.183
G1 F480 X36.389 Y40.767 Z-0.188
G1 F480 X36.049 Y40.571 Z-0.194
G1 F480 X35.796 Y40.269 Z-0.200
G1 F480 X35.662 Y39.901 Z-0.207
G1 F480 X35.662 Y39.509 Z-0.213
G1 F480 X35.796 Y39.140 Z-0.219
G1 F480 X36.049 Y38.838 Z-0.226
G1 F480 X36.389 Y38.642 Z-0.232
G1 F480 X36.678 Y38.591 Z-0.237
G1 F480 X37.178 Y38.591 Z-0.245
G1 F480 X37.467 Y38.642 Z-0.250
G1 F480 X37.178 Y38.591 Z-0.250
G1 F480 X36.678 Y38.591 Z-0.250
G1 F480 X36.389 Y38.642 Z-0.250
G1 F480 X36.049 Y38.838 Z-0.250
G1 F480 X35.796 Y39.140 Z-0.250
G1 F480 X35.662 Y39.509 Z-0.250
G1 F480 X35.662 Y39.901 Z-0.250
G1 F480 X35.796 Y40.269 Z-0.250
G1 F480 X36.049 Y40.571 Z-0.250
G1 F480 X36.389 Y40.767 Z-0.250
G1 F480 X36.678 Y40.819 Z-0.250
G1 F480 X37.178 Y40.819 Z-0.250
G1 F480 X37.467 Y40.767 Z-0.250
G1 F480 X37.808 Y40.571 Z-0.250
G1 F480 X38.060 Y40.269 Z-0.250
G1 F480 X38.194 Y39.901 Z-0.250
G1 F480 X38.194 Y39.509 Z-0.250
G1 F480 X38.060 Y39.140 Z-0.250
G1 F480 X37.808 Y38.838 Z-0.250
G1 F480 X37.467 Y38.642 Z-0.250
G0 X37.467 Y38.642 Z6.000
G0 X37.467 Y36.102 Z6.000
G1 F480 X37.467 Y36.102 Z0.000
G1 F480 X37.178 Y36.051 Z-0.005
G1 F480 X36.678 Y36.051 Z-0.013
G1 F480 X36.390 Y36.102 Z-0.018
G1 F480 X36.049 Y36.298 Z-0.024
G1 F480 X35.796 Y36.599 Z-0.031
G1 F480 X35.662 Y36.968 Z-0.037
G1 F480 X35.662 Y37.361 Z-0.043
G1 F480 X35.796 Y37.730 Z-0.050
G1 F480 X36.049 Y38.031 Z-0.056
G1 F480 X36.389 Y38.227 Z-0.062
G1 F480 X36.678 Y38.279 Z-0.067
G1 F480 X37.178 Y38.279 Z-0.075
G1 F480 X37.467 Y38.227 Z-0.080
G1 F480 X37.807 Y38.031 Z-0.087
G1 F480 X38.060 Y37.730 Z-0.093
G1 F480 X38.194 Y37.361 Z-0.099
G1 F480 X38.194 Y36.968 Z-0.106
G1 F480 X38.060 Y36.599 Z-0.112
G1 F480 X37.807 Y36.298 Z-0.119
G1 F480 X37.467 Y36.102 Z-0.125
G1 F480 X37.807 Y36.298 Z-0.131
G1 F480 X38.060 Y36.599 Z-0.138
G1 F480 X38.194 Y36.968 Z-0.144
G1 F480 X38.194 Y37.361 Z-0.151
G1 F480 X38.060 Y37.730 Z-0.157
G1 F480 X37.807 Y38.031 Z-0.163
G1 F480 X37.467 Y38.227 Z-0.170
G1 F480 X37.178 Y38.279 Z-0.175
G1 F480 X36.678 Y38.279 Z-0.183
G1 F480 X36.389 Y38.227 Z-0.188
G1 F480 X36.049 Y38.031 Z-0.194
G1 F480 X35.796 Y37.730 Z-0.200
G1 F480 X35.662 Y37.361 Z-0.207
G1 F480 X35.662 Y36.968 Z-0.213
G1 F480 X35.796 Y36.599 Z-0.219
G1 F480 X36.049 Y36.298 Z-0.226
G1 F480 X36.390 Y36.102 Z-0.232
G1 F480 X36.678 Y36.051 Z-0.237
G1 F480 X37.178 Y36.051 Z-0.245
G1 F480 X37.467 Y36.102 Z-0.250
G1 F480 X37.178 Y36.051 Z-0.250
G1 F480 X36.678 Y36.051 Z-0.250
G1 F480 X36.390 Y36.102 Z-0.250
G1 F480 X36.049 Y36.298 Z-0.250
G1 F480 X35.796 Y36.599 Z-0.250
G1 F480 X35.662 Y36.968 Z-0.250
G1 F480 X35.662 Y37.361 Z-0.250
G1 F480 X35.796 Y37.730 Z-0.250
G1 F480 X36.049 Y38.031 Z-0.250
G1 F480 X36.389 Y38.227 Z-0.250
G1 F480 X36.678 Y38.279 Z-0.250
G1 F480 X37.178 Y38.279 Z-0.250
G1 F480 X37.467 Y38.227 Z-0.250
G1 F480 X37.807 Y38.031 Z-0.250
G1 F480 X38.060 Y37.730 Z-0.250
G1 F480 X38.194 Y37.361 Z-0.250
G1 F480 X38.194 Y36.968 Z-0.250
G1 F480 X38.060 Y36.599 Z-0.250
G1 F480 X37.807 Y36.298 Z-0.250
G1 F480 X37.467 Y36.102 Z-0.250
G0 X37.467 Y36.102 Z6.000
G0 X37.467 Y33.562 Z6.000
G1 F480 X37.467 Y33.562 Z0.000
G1 F480 X37.178 Y33.511 Z-0.005
G1 F480 X36.678 Y33.511 Z-0.013
G1 F480 X36.390 Y33.562 Z-0.018
G1 F480 X36.049 Y33.758 Z-0.024
G1 F480 X35.796 Y34.059 Z-0.031
G1 F480 X35.662 Y34.428 Z-0.037
G1 F480 X35.662 Y34.821 Z-0.043
G1 F480 X35.796 Y35.190 Z-0.050
G1 F480 X36.049 Y35.491 Z-0.056
G1 F480 X36.390 Y35.687 Z-0.063
G1 F480 X36.678 Y35.738 Z-0.067
G1 F480 X37.178 Y35.738 Z-0.075
G1 F480 X37.467 Y35.687 Z-0.080
G1 F480 X37.807 Y35.491 Z-0.087
G1 F480 X38.060 Y35.190 Z-0.093
G1 F480 X38.194 Y34.821 Z-0.099
G1 F480 X38.194 Y34.428 Z-0.106
G1 F480 X38.060 Y34.059 Z-0.112
G1 F480 X37.807 Y33.758 Z-0.119
G1 F480 X37.467 Y33.562 Z-0.125
G1 F480 X37.807 Y33.758 Z-0.131
G1 F480 X38.060 Y34.059 Z-0.138
G1 F480 X38.194 Y34.428 Z-0.144
G1 F480 X38.194 Y34.821 Z-0.151
G1 F480 X38.060 Y35.190 Z-0.157
G1 F480 X37.807 Y35.491 Z-0.163
G1 F480 X37.467 Y35.687 Z-0.170
G1 F480 X37.178 Y35.738 Z-0.175
G1 F480 X36.678 Y35.738 Z-0.183
G1 F480 X36.390 Y35.687 Z-0.188
G1 F480 X36.049 Y35.491 Z-0.194
G1 F480 X35.796 Y35.190 Z-0.200
G1 F480 X35.662 Y34.821 Z-0.207
G1 F480 X35.662 Y34.428 Z-0.213
G1 F480 X35.796 Y34.059 Z-0.219
G1 F480 X36.049 Y33.758 Z-0.226
G1 F480 X36.390 Y33.562 Z-0.232
G1 F480 X36.678 Y33.511 Z-0.237
G1 F480 X37.178 Y33.511 Z-0.245
G1 F480 X37.467 Y33.562 Z-0.250
G1 F480 X37.178 Y33.511 Z-0.250
G1 F480 X36.678 Y33.511 Z-0.250
G1 F480 X36.390 Y33.562 Z-0.250
G1 F480 X36.049 Y33.758 Z-0.250
G1 F480 X35.796 Y34.059 Z-0.250
G1 F480 X35.662 Y34.428 Z-0.250
G1 F480 X35.662 Y34.821 Z-0.250
G1 F480 X35.796 Y35.190 Z-0.250
G1 F480 X36.049 Y35.491 Z-0.250
G1 F480 X36.390 Y35.687 Z-0.250
G1 F480 X36.678 Y35.738 Z-0.250
G1 F480 X37.178 Y35.738 Z-0.250
G1 F480 X37.467 Y35.687 Z-0.250
G1 F480 X37.807 Y35.491 Z-0.250
G1 F480 X38.060 Y35.190 Z-0.250
G1 F480 X38.194 Y34.821 Z-0.250
G1 F480 X38.194 Y34.428 Z-0.250
G1 F480 X38.060 Y34.059 Z-0.250
G1 F480 X37.807 Y33.758 Z-0.250
G1 F480 X37.467 Y33.562 Z-0.250
G0 X37.467 Y33.562 Z6.000
G0 X37.467 Y31.022 Z6.000
G1 F480 X37.467 Y31.022 Z0.000
G1 F480 X37.178 Y30.971 Z-0.005
G1 F480 X36.678 Y30.971 Z-0.013
G1 F480 X36.390 Y31.022 Z-0.018
G1 F480 X36.049 Y31.218 Z-0.024
G1 F480 X35.796 Y31.519 Z-0.031
G1 F480 X35.662 Y31.888 Z-0.037
G1 F480 X35.662 Y32.281 Z-0.043
G1 F480 X35.796 Y32.650 Z-0.050
G1 F480 X36.049 Y32.951 Z-0.056
G1 F480 X36.390 Y33.147 Z-0.063
G1 F480 X36.678 Y33.198 Z-0.067
G1 F480 X37.178 Y33.198 Z-0.075
G1 F480 X37.467 Y33.147 Z-0.080
G1 F480 X37.807 Y32.951 Z-0.087
G1 F480 X38.060 Y32.650 Z-0.093
G1 F480 X38.194 Y32.281 Z-0.099
G1 F480 X38.194 Y31.888 Z-0.106
G1 F480 X38.060 Y31.519 Z-0.112
G1 F480 X37.807 Y31.218 Z-0.119
G1 F480 X37.467 Y31.022 Z-0.125
G1 F480 X37.807 Y31.218 Z-0.131
G1 F480 X38.060 Y31.519 Z-0.138
G1 F480 X38.194 Y31.888 Z-0.144
G1 F480 X38.194 Y32.281 Z-0.151
G1 F480 X38.060 Y32.650 Z-0.157
G1 F480 X37.807 Y32.951 Z-0.163
G1 F480 X37.467 Y33.147 Z-0.170
G1 F480 X37.178 Y33.198 Z-0.175
G1 F480 X36.678 Y33.198 Z-0.183
G1 F480 X36.390 Y33.147 Z-0.188
G1 F480 X36.049 Y32.951 Z-0.194
G1 F480 X35.796 Y32.650 Z-0.200
G1 F480 X35.662 Y32.281 Z-0.207
G1 F480 X35.662 Y31.888 Z-0.213
G1 F480 X35.796 Y31.519 Z-0.219
G1 F480 X36.049 Y31.218 Z-0.226
G1 F480 X36.390 Y31.022 Z-0.232
G1 F480 X36.678 Y30.971 Z-0.237
G1 F480 X37.178 Y30.971 Z-0.245
G1 F480 X37.467 Y31.022 Z-0.250
G1 F480 X37.178 Y30.971 Z-0.250
G1 F480 X36.678 Y30.971 Z-0.250
G1 F480 X36.390 Y31.022 Z-0.250
G1 F480 X36.049 Y31.218 Z-0.250
G1 F480 X35.796 Y31.519 Z-0.250
G1 F480 X35.662 Y31.888 Z-0.250
G1 F480 X35.662 Y32.281 Z-0.250
G1 F480 X35.796 Y32.650 Z-0.250
G1 F480 X36.049 Y32.951 Z-0.250
G1 F480 X36.390 Y33.147 Z-0.250
G1 F480 X36.678 Y33.198 Z-0.250
G1 F480 X37.178 Y33.198 Z-0.250
G1 F480 X37.467 Y33.147 Z-0.250
G1 F480 X37.807 Y32.951 Z-0.250
G1 F480 X38.060 Y32.650 Z-0.250
G1 F480 X38.194 Y32.281 Z-0.250
G1 F480 X38.194 Y31.888 Z-0.250
G1 F480 X38.060 Y31.519 Z-0.250
G1 F480 X37.807 Y31.218 Z-0.250
G1 F480 X37.467 Y31.022 Z-0.250
G0 X37.467 Y31.022 Z6.000
G0 X37.467 Y28.482 Z6.000
G1 F480 X37.467 Y28.482 Z0.000
G1 F480 X37.178 Y28.431 Z-0.005
G1 F480 X36.678 Y28.431 Z-0.013
G1 F480 X36.390 Y28.482 Z-0.018
G1 F480 X36.049 Y28.678 Z-0.024
G1 F480 X35.796 Y28.979 Z-0.031
G1 F480 X35.662 Y29.348 Z-0.037
G1 F480 X35.662 Y29.741 Z-0.043
G1 F480 X35.796 Y30.110 Z-0.050
G1 F480 X36.049 Y30.411 Z-0.056
G1 F480 X36.390 Y30.607 Z-0.063
G1 F480 X36.678 Y30.658 Z-0.067
G1 F480 X37.178 Y30.658 Z-0.075
G1 F480 X37.467 Y30.607 Z-0.080
G1 F480 X37.807 Y30.411 Z-0.087
G1 F480 X38.060 Y30.110 Z-0.093
G1 F480 X38.194 Y29.741 Z-0.099
G1 F480 X38.194 Y29.348 Z-0.106
G1 F480 X38.060 Y28.979 Z-0.112
G1 F480 X37.807 Y28.678 Z-0.119
G1 F480 X37.467 Y28.482 Z-0.125
G1 F480 X37.807 Y28.678 Z-0.131
G1 F480 X38.060 Y28.979 Z-0.138
G1 F480 X38.194 Y29.348 Z-0.144
G1 F480 X38.194 Y29.741 Z-0.151
G1 F480 X38.060 Y30.110 Z-0.157
G1 F480 X37.807 Y30.411 Z-0.163
G1 F480 X37.467 Y30.607 Z-0.170
G1 F480 X37.178 Y30.658 Z-0.175
G1 F480 X36.678 Y30.658 Z-0.183
G1 F480 X36.390 Y30.607 Z-0.188
G1 F480 X36.049 Y30.411 Z-0.194
G1 F480 X35.796 Y30.110 Z-0.200
G1 F480 X35.662 Y29.741 Z-0.207
G1 F480 X35.662 Y29.348 Z-0.213
G1 F480 X35.796 Y28.979 Z-0.219
G1 F480 X36.049 Y28.678 Z-0.226
G1 F480 X36.390 Y28.482 Z-0.232
G1 F480 X36.678 Y28.431 Z-0.237
G1 F480 X37.178 Y28.431 Z-0.245
G1 F480 X37.467 Y28.482 Z-0.250
G1 F480 X37.178 Y28.431 Z-0.250
G1 F480 X36.678 Y28.431 Z-0.250
G1 F480 X36.390 Y28.482 Z-0.250
G1 F480 X36.049 Y28.678 Z-0.250
G1 F480 X35.796 Y28.979 Z-0.250
G1 F480 X35.662 Y29.348 Z-0.250
G1 F480 X35.662 Y29.741 Z-0.250
G1 F480 X35.796 Y30.110 Z-0.250
G1 F480 X36.049 Y30.411 Z-0.250
G1 F480 X36.390 Y30.607 Z-0.250
G1 F480 X36.678 Y30.658 Z-0.250
G1 F480 X37.178 Y30.658 Z-0.250
G1 F480 X37.467 Y30.607 Z-0.250
G1 F480 X37.807 Y30.411 Z-0.250
G1 F480 X38.060 Y30.110 Z-0.250
G1 F480 X38.194 Y29.741 Z-0.250
G1 F480 X38.194 Y29.348 Z-0.250
G1 F480 X38.060 Y28.979 Z-0.250
G1 F480 X37.807 Y28.678 Z-0.250
G1 F480 X37.467 Y28.482 Z-0.250
G0 X37.467 Y28.482 Z6.000
G0 X37.467 Y25.942 Z6.000
G1 F480 X37.467 Y25.942 Z0.000
G1 F480 X37.178 Y25.891 Z-0.005
G1 F480 X36.678 Y25.891 Z-0.013
G1 F480 X36.390 Y25.942 Z-0.018
G1 F480 X36.049 Y26.138 Z-0.024
G1 F480 X35.796 Y26.439 Z-0.031
G1 F480 X35.662 Y26.808 Z-0.037
G1 F480 X35.662 Y27.201 Z-0.043
G1 F480 X35.796 Y27.570 Z-0.050
G1 F480 X36.049 Y27.871 Z-0.056
G1 F480 X36.390 Y28.067 Z-0.063
G1 F480 X36.678 Y28.118 Z-0.067
G1 F480 X37.178 Y28.118 Z-0.075
G1 F480 X37.467 Y28.067 Z-0.080
G1 F480 X37.807 Y27.871 Z-0.087
G1 F480 X38.060 Y27.570 Z-0.093
G1 F480 X38.194 Y27.201 Z-0.099
G1 F480 X38.194 Y26.808 Z-0.106
G1 F480 X38.060 Y26.439 Z-0.112
G1 F480 X37.807 Y26.138 Z-0.119
G1 F480 X37.467 Y25.942 Z-0.125
G1 F480 X37.807 Y26.138 Z-0.131
G1 F480 X38.060 Y26.439 Z-0.138
G1 F480 X38.194 Y26.808 Z-0.144
G1 F480 X38.194 Y27.201 Z-0.151
G1 F480 X38.060 Y27.570 Z-0.157
G1 F480 X37.807 Y27.871 Z-0.163
G1 F480 X37.467 Y28.067 Z-0.170
G1 F480 X37.178 Y28.118 Z-0.175
G1 F480 X36.678 Y28.118 Z-0.183
G1 F480 X36.390 Y28.067 Z-0.188
G1 F480 X36.049 Y27.871 Z-0.194
G1 F480 X35.796 Y27.570 Z-0.200
G1 F480 X35.662 Y27.201 Z-0.207
G1 F480 X35.662 Y26.808 Z-0.213
G1 F480 X35.796 Y26.439 Z-0.219
G1 F480 X36.049 Y26.138 Z-0.226
G1 F480 X36.390 Y25.942 Z-0.232
G1 F480 X36.678 Y25.891 Z-0.237
G1 F480 X37.178 Y25.891 Z-0.245
G1 F480 X37.467 Y25.942 Z-0.250
G1 F480 X37.178 Y25.891 Z-0.250
G1 F480 X36.678 Y25.891 Z-0.250
G1 F480 X36.390 Y25.942 Z-0.250
G1 F480 X36.049 Y26.138 Z-0.250
G1 F480 X35.796 Y26.439 Z-0.250
G1 F480 X35.662 Y26.808 Z-0.250
G1 F480 X35.662 Y27.201 Z-0.250
G1 F480 X35.796 Y27.570 Z-0.250
G1 F480 X36.049 Y27.871 Z-0.250
G1 F480 X36.390 Y28.067 Z-0.250
G1 F480 X36.678 Y28.118 Z-0.250
G1 F480 X37.178 Y28.118 Z-0.250
G1 F480 X37.467 Y28.067 Z-0.250
G1 F480 X37.807 Y27.871 Z-0.250
G1 F480 X38.060 Y27.570 Z-0.250
G1 F480 X38.194 Y27.201 Z-0.250
G1 F480 X38.194 Y26.808 Z-0.250
G1 F480 X38.060 Y26.439 Z-0.250
G1 F480 X37.807 Y26.138 Z-0.250
G1 F480 X37.467 Y25.942 Z-0.250
G0 X37.467 Y25.942 Z6.000
G0 X37.467 Y23.402 Z6.000
G1 F480 X37.467 Y23.402 Z0.000
G1 F480 X37.178 Y23.351 Z-0.005
G1 F480 X36.678 Y23.351 Z-0.013
G1 F480 X36.390 Y23.402 Z-0.018
G1 F480 X36.049 Y23.598 Z-0.024
G1 F480 X35.796 Y23.899 Z-0.031
G1 F480 X35.662 Y24.268 Z-0.037
G1 F480 X35.662 Y24.661 Z-0.043
G1 F480 X35.796 Y25.030 Z-0.050
G1 F480 X36.049 Y25.331 Z-0.056
G1 F480 X36.390 Y25.527 Z-0.063
G1 F480 X36.678 Y25.578 Z-0.067
G1 F480 X37.178 Y25.578 Z-0.075
G1 F480 X37.467 Y25.527 Z-0.080
G1 F480 X37.807 Y25.331 Z-0.087
G1 F480 X38.060 Y25.030 Z-0.093
G1 F480 X38.194 Y24.661 Z-0.099
G1 F480 X38.194 Y24.268 Z-0.106
G1 F480 X38.060 Y23.899 Z-0.112
G1 F480 X37.807 Y23.598 Z-0.119
G1 F480 X37.467 Y23.402 Z-0.125
G1 F480 X37.807 Y23.598 Z-0.131
G1 F480 X38.060 Y23.899 Z-0.138
G1 F480 X38.194 Y24.268 Z-0.144
G1 F480 X38.194 Y24.661 Z-0.151
G1 F480 X38.060 Y25.030 Z-0.157
G1 F480 X37.807 Y25.331 Z-0.163
G1 F480 X37.467 Y25.527 Z-0.170
G1 F480 X37.178 Y25.578 Z-0.175
G1 F480 X36.678 Y25.578 Z-0.183
G1 F480 X36.390 Y25.527 Z-0.188
G1 F480 X36.049 Y25.331 Z-0.194
G1 F480 X35.796 Y25.030 Z-0.200
G1 F480 X35.662 Y24.661 Z-0.207
G1 F480 X35.662 Y24.268 Z-0.213
G1 F480 X35.796 Y23.899 Z-0.219
G1 F480 X36.049 Y23.598 Z-0.226
G1 F480 X36.390 Y23.402 Z-0.232
G1 F480 X36.678 Y23.351 Z-0.237
G1 F480 X37.178 Y23.351 Z-0.245
G1 F480 X37.467 Y23.402 Z-0.250
G1 F480 X37.178 Y23.351 Z-0.250
G1 F480 X36.678 Y23.351 Z-0.250
G1 F480 X36.390 Y23.402 Z-0.250
G1 F480 X36.049 Y23.598 Z-0.250
G1 F480 X35.796 Y23.899 Z-0.250
G1 F480 X35.662 Y24.268 Z-0.250
G1 F480 X35.662 Y24.661 Z-0.250
G1 F480 X35.796 Y25.030 Z-0.250
G1 F480 X36.049 Y25.331 Z-0.250
G1 F480 X36.390 Y25.527 Z-0.250
G1 F480 X36.678 Y25.578 Z-0.250
G1 F480 X37.178 Y25.578 Z-0.250
G1 F480 X37.467 Y25.527 Z-0.250
G1 F480 X37.807 Y25.331 Z-0.250
G1 F480 X38.060 Y25.030 Z-0.250
G1 F480 X38.194 Y24.661 Z-0.250
G1 F480 X38.194 Y24.268 Z-0.250
G1 F480 X38.060 Y23.899 Z-0.250
G1 F480 X37.807 Y23.598 Z-0.250
G1 F480 X37.467 Y23.402 Z-0.250
G0 X37.467 Y23.402 Z6.000
G0 X37.467 Y20.862 Z6.000
G1 F480 X37.467 Y20.862 Z0.000
G1 F480 X37.178 Y20.811 Z-0.005
G1 F480 X36.678 Y20.811 Z-0.013
G1 F480 X36.390 Y20.862 Z-0.018
G1 F480 X36.049 Y21.058 Z-0.024
G1 F480 X35.796 Y21.359 Z-0.031
G1 F480 X35.662 Y21.728 Z-0.037
G1 F480 X35.662 Y22.121 Z-0.043
G1 F480 X35.796 Y22.490 Z-0.050
G1 F480 X36.049 Y22.791 Z-0.056
G1 F480 X36.390 Y22.987 Z-0.063
G1 F480 X36.678 Y23.038 Z-0.067
G1 F480 X37.178 Y23.038 Z-0.075
G1 F480 X37.467 Y22.987 Z-0.080
G1 F480 X37.807 Y22.791 Z-0.087
G1 F480 X38.060 Y22.490 Z-0.093
G1 F480 X38.194 Y22.121 Z-0.099
G1 F480 X38.194 Y21.728 Z-0.106
G1 F480 X38.060 Y21.359 Z-0.112
G1 F480 X37.807 Y21.058 Z-0.119
G1 F480 X37.467 Y20.862 Z-0.125
G1 F480 X37.807 Y21.058 Z-0.131
G1 F480 X38.060 Y21.359 Z-0.138
G1 F480 X38.194 Y21.728 Z-0.144
G1 F480 X38.194 Y22.121 Z-0.151
G1 F480 X38.060 Y22.490 Z-0.157
G1 F480 X37.807 Y22.791 Z-0.163
G1 F480 X37.467 Y22.987 Z-0.170
G1 F480 X37.178 Y23.038 Z-0.175
G1 F480 X36.678 Y23.038 Z-0.183
G1 F480 X36.390 Y22.987 Z-0.188
G1 F480 X36.049 Y22.791 Z-0.194
G1 F480 X35.796 Y22.490 Z-0.200
G1 F480 X35.662 Y22.121 Z-0.207
G1 F480 X35.662 Y21.728 Z-0.213
G1 F480 X35.796 Y21.359 Z-0.219
G1 F480 X36.049 Y21.058 Z-0.226
G1 F480 X36.390 Y20.862 Z-0.232
G1 F480 X36.678 Y20.811 Z-0.237
G1 F480 X37.178 Y20.811 Z-0.245
G1 F480 X37.467 Y20.862 Z-0.250
G1 F480 X37.178 Y20.811 Z-0.250
G1 F480 X36.678 Y20.811 Z-0.250
G1 F480 X36.390 Y20.862 Z-0.250
G1 F480 X36.049 Y21.058 Z-0.250
G1 F480 X35.796 Y21.359 Z-0.250
G1 F480 X35.662 Y21.728 Z-0.250
G1 F480 X35.662 Y22.121 Z-0.250
G1 F480 X35.796 Y22.490 Z-0.250
G1 F480 X36.049 Y22.791 Z-0.250
G1 F480 X36.390 Y22.987 Z-0.250
G1 F480 X36.678 Y23.038 Z-0.250
G1 F480 X37.178 Y23.038 Z-0.250
G1 F480 X37.467 Y22.987 Z-0.250
G1 F480 X37.807 Y22.791 Z-0.250
G1 F480 X38.060 Y22.490 Z-0.250
G1 F480 X38.194 Y22.121 Z-0.250
G1 F480 X38.194 Y21.728 Z-0.250
G1 F480 X38.060 Y21.359 Z-0.250
G1 F480 X37.807 Y21.058 Z-0.250
G1 F480 X37.467 Y20.862 Z-0.250
G0 X37.467 Y20.862 Z6.000
G0 X37.467 Y18.322 Z6.000
G1 F480 X37.467 Y18.322 Z0.000
G1 F480 X37.178 Y18.271 Z-0.005
G1 F480 X36.678 Y18.271 Z-0.013
G1 F480 X36.390 Y18.322 Z-0.018
G1 F480 X36.049 Y18.518 Z-0.024
G1 F480 X35.796 Y18.819 Z-0.031
G1 F480 X35.662 Y19.188 Z-0.037
G1 F480 X35.662 Y19.581 Z-0.043
G1 F480 X35.796 Y19.950 Z-0.050
G1 F480 X36.049 Y20.251 Z-0.056
G1 F480 X36.390 Y20.447 Z-0.063
G1 F480 X36.678 Y20.498 Z-0.067
G1 F480 X37.178 Y20.498 Z-0.075
G1 F480 X37.467 Y20.447 Z-0.080
G1 F480 X37.807 Y20.251 Z-0.087
G1 F480 X38.060 Y19.950 Z-0.093
G1 F480 X38.194 Y19.581 Z-0.099
G1 F480 X38.194 Y19.188 Z-0.106
G1 F480 X38.060 Y18.819 Z-0.112
G1 F480 X37.807 Y18.518 Z-0.119
G1 F480 X37.467 Y18.322 Z-0.125
G1 F480 X37.807 Y18.518 Z-0.131
G1 F480 X38.060 Y18.819 Z-0.138
G1 F480 X38.194 Y19.188 Z-0.144
G1 F480 X38.194 Y19.581 Z-0.151
G1 F480 X38.060 Y19.950 Z-0.157
G1 F480 X37.807 Y20.251 Z-0.163
G1 F480 X37.467 Y20.447 Z-0.170
G1 F480 X37.178 Y20.498 Z-0.175
G1 F480 X36.678 Y20.498 Z-0.183
G1 F480 X36.390 Y20.447 Z-0.188
G1 F480 X36.049 Y20.251 Z-0.194
G1 F480 X35.796 Y19.950 Z-0.200
G1 F480 X35.662 Y19.581 Z-0.207
G1 F480 X35.662 Y19.188 Z-0.213
G1 F480 X35.796 Y18.819 Z-0.219
G1 F480 X36.049 Y18.518 Z-0.226
G1 F480 X36.390 Y18.322 Z-0.232
G1 F480 X36.678 Y18.271 Z-0.237
G1 F480 X37.178 Y18.271 Z-0.245
G1 F480 X37.467 Y18.322 Z-0.250
G1 F480 X37.178 Y18.271 Z-0.250
G1 F480 X36.678 Y18.271 Z-0.250
G1 F480 X36.390 Y18.322 Z-0.250
G1 F480 X36.049 Y18.518 Z-0.250
G1 F480 X35.796 Y18.819 Z-0.250
G1 F480 X35.662 Y19.188 Z-0.250
G1 F480 X35.662 Y19.581 Z-0.250
G1 F480 X35.796 Y19.950 Z-0.250
G1 F480 X36.049 Y20.251 Z-0.250
G1 F480 X36.390 Y20.447 Z-0.250
G1 F480 X36.678 Y20.498 Z-0.250
G1 F480 X37.178 Y20.498 Z-0.250
G1 F480 X37.467 Y20.447 Z-0.250
G1 F480 X37.807 Y20.251 Z-0.250
G1 F480 X38.060 Y19.950 Z-0.250
G1 F480 X38.194 Y19.581 Z-0.250
G1 F480 X38.194 Y19.188 Z-0.250
G1 F480 X38.060 Y18.819 Z-0.250
G1 F480 X37.807 Y18.518 Z-0.250
G1 F480 X37.467 Y18.322 Z-0.250
G0 X37.467 Y18.322 Z6.000
G0 X37.467 Y15.782 Z6.000
G1 F480 X37.467 Y15.782 Z0.000
G1 F480 X37.178 Y15.731 Z-0.001
G1 F480 X36.678 Y15.731 Z-0.004
G1 F480 X36.390 Y15.782 Z-0.005
G1 F480 X36.049 Y15.978 Z-0.007
G1 F480 X35.825 Y16.245 Z-0.009
G1 F480 X35.782 Y16.320 Z-0.010
G1 F480 X35.385 Y16.320 Z-0.012
G1 F480 X35.317 Y16.314 Z-0.012
G1 F480 X35.249 Y16.332 Z-0.012
G1 F480 X35.223 Y16.336 Z-0.012
G1 F480 X35.132 Y16.365 Z-0.013
G1 F480 X35.079 Y16.402 Z-0.013
G1 F480 X35.021 Y16.436 Z-0.014
G1 F480 X34.976 Y16.489 Z-0.014
G1 F480 X33.017 Y18.447 Z-0.028
G1 F480 X32.963 Y18.492 Z-0.028
G1 F480 X32.929 Y18.553 Z-0.028
G1 F480 X32.915 Y18.573 Z-0.029
G1 F480 X32.872 Y18.658 Z-0.029
G1 F480 X32.859 Y18.720 Z-0.029
G1 F480 X32.842 Y18.789 Z-0.030
G1 F480 X32.847 Y18.857 Z-0.030
G1 F480 X32.847 Y37.852 Z-0.125
G1 F480 X32.847 Y18.857 Z-0.220
G1 F480 X32.842 Y18.789 Z-0.220
G1 F480 X32.859 Y18.720 Z-0.221
G1 F480 X32.872 Y18.658 Z-0.221
G1 F480 X32.915 Y18.573 Z-0.221
G1 F480 X32.929 Y18.553 Z-0.222
G1 F480 X32.963 Y18.492 Z-0.222
G1 F480 X33.017 Y18.447 Z-0.222
G1 F480 X34.976 Y16.489 Z-0.236
G1 F480 X35.021 Y16.436 Z-0.236
G1 F480 X35.079 Y16.402 Z-0.237
G1 F480 X35.132 Y16.365 Z-0.237
G1 F480 X35.223 Y16.336 Z-0.238
G1 F480 X35.249 Y16.332 Z-0.238
G1 F480 X35.317 Y16.314 Z-0.238
G1 F480 X35.385 Y16.320 Z-0.238
G1 F480 X35.782 Y16.320 Z-0.240
G1 F480 X35.825 Y16.245 Z-0.241
G1 F480 X36.049 Y15.978 Z-0.243
G1 F480 X36.390 Y15.782 Z-0.245
G1 F480 X36.678 Y15.731 Z-0.246
G1 F480 X37.178 Y15.731 Z-0.249
G1 F480 X37.467 Y15.782 Z-0.250
G1 F480 X37.178 Y15.731 Z-0.250
G1 F480 X36.678 Y15.731 Z-0.250
G1 F480 X36.390 Y15.782 Z-0.250
G1 F480 X36.049 Y15.978 Z-0.250
G1 F480 X35.825 Y16.245 Z-0.250
G1 F480 X35.782 Y16.320 Z-0.250
G1 F480 X35.385 Y16.320 Z-0.250
G1 F480 X35.317 Y16.314 Z-0.250
G1 F480 X35.249 Y16.332 Z-0.250
G1 F480 X35.223 Y16.336 Z-0.250
G1 F480 X35.132 Y16.365 Z-0.250
G1 F480 X35.079 Y16.402 Z-0.250
G1 F480 X35.021 Y16.436 Z-0.250
G1 F480 X34.976 Y16.489 Z-0.250
G1 F480 X33.017 Y18.447 Z-0.250
G1 F480 X32.963 Y18.492 Z-0.250
G1 F480 X32.929 Y18.553 Z-0.250
G1 F480 X32.915 Y18.573 Z-0.250
G1 F480 X32.872 Y18.658 Z-0.250
G1 F480 X32.859 Y18.720 Z-0.250
G1 F480 X32.842 Y18.789 Z-0.250
G1 F480 X32.847 Y18.857 Z-0.250
G1 F480 X32.847 Y41.900 Z-0.250
G1 F480 X25.535 Y49.213 Z-0.250
G1 F480 X19.874 Y49.213 Z-0.250
G1 F480 X18.657 Y47.996 Z-0.250
G1 F480 X18.657 Y40.055 Z-0.250
G1 F480 X18.663 Y39.987 Z-0.250
G1 F480 X18.645 Y39.919 Z-0.250
G1 F480 X18.640 Y39.890 Z-0.250
G1 F480 X18.612 Y39.803 Z-0.250
G1 F480 X18.575 Y39.750 Z-0.250
G1 F480 X18.541 Y39.691 Z-0.250
G1 F480 X18.488 Y39.646 Z-0.250
G1 F480 X11.003 Y32.160 Z-0.250
G1 F480 X10.958 Y32.108 Z-0.250
G1 F480 X10.900 Y32.074 Z-0.250
G1 F480 X10.877 Y32.058 Z-0.250
G1 F480 X10.791 Y32.014 Z-0.250
G1 F480 X10.730 Y32.004 Z-0.250
G1 F480 X10.663 Y31.985 Z-0.250
G1 F480 X10.593 Y31.992 Z-0.250
G1 F480 X10.389 Y31.992 Z-0.250
G1 F480 X10.346 Y31.917 Z-0.250
G1 F480 X10.121 Y31.650 Z-0.250
G1 F480 X9.781 Y31.454 Z-0.250
G1 F480 X9.492 Y31.403 Z-0.250
G1 F480 X9.297 Y31.403 Z-0.250
G1 F480 X9.007 Y31.454 Z-0.250
G1 F480 X8.668 Y31.650 Z-0.250
G1 F480 X8.415 Y31.951 Z-0.250
G1 F480 X8.281 Y32.320 Z-0.250
G1 F480 X8.281 Y32.713 Z-0.250
G1 F480 X8.415 Y33.082 Z-0.250
G1 F480 X8.668 Y33.383 Z-0.250
G1 F480 X9.007 Y33.579 Z-0.250
G1 F480 X9.297 Y33.630 Z-0.250
G1 F480 X9.492 Y33.630 Z-0.250
G1 F480 X9.781 Y33.579 Z-0.250
G1 F480 X10.121 Y33.383 Z-0.250
G1 F480 X10.346 Y33.116 Z-0.250
G1 F480 X10.389 Y33.042 Z-0.250
G1 F480 X10.399 Y33.042 Z-0.250
G1 F480 X17.607 Y40.250 Z-0.250
G1 F480 X17.607 Y48.191 Z-0.250
G1 F480 X17.602 Y48.258 Z-0.250
G1 F480 X17.619 Y48.328 Z-0.250
G1 F480 X17.625 Y48.357 Z-0.250
G1 F480 X17.653 Y48.445 Z-0.250
G1 F480 X17.689 Y48.496 Z-0.250
G1 F480 X17.723 Y48.555 Z-0.250
G1 F480 X17.776 Y48.600 Z-0.250
G1 F480 X19.270 Y50.094 Z-0.250
G1 F480 X19.315 Y50.147 Z-0.250
G1 F480 X19.374 Y50.181 Z-0.250
G1 F480 X19.395 Y50.196 Z-0.250
G1 F480 X19.478 Y50.238 Z-0.250
G1 F480 X19.542 Y50.251 Z-0.250
G1 F480 X19.612 Y50.268 Z-0.250
G1 F480 X19.679 Y50.263 Z-0.250
G1 F480 X25.730 Y50.263 Z-0.250
G1 F480 X25.797 Y50.268 Z-0.250
G1 F480 X25.867 Y50.251 Z-0.250
G1 F480 X25.896 Y50.245 Z-0.250
G1 F480 X25.983 Y50.217 Z-0.250
G1 F480 X26.035 Y50.181 Z-0.250
G1 F480 X26.094 Y50.147 Z-0.250
G1 F480 X26.139 Y50.094 Z-0.250
G1 F480 X33.728 Y42.504 Z-0.250
G1 F480 X33.781 Y42.459 Z-0.250
G1 F480 X33.815 Y42.400 Z-0.250
G1 F480 X33.830 Y42.379 Z-0.250
G1 F480 X33.873 Y42.296 Z-0.250
G1 F480 X33.885 Y42.232 Z-0.250
G1 F480 X33.903 Y42.162 Z-0.250
G1 F480 X33.897 Y42.095 Z-0.250
G1 F480 X33.897 Y19.052 Z-0.250
G1 F480 X35.580 Y17.370 Z-0.250
G1 F480 X35.782 Y17.370 Z-0.250
G1 F480 X35.825 Y17.444 Z-0.250
G1 F480 X36.049 Y17.711 Z-0.250
G1 F480 X36.390 Y17.907 Z-0.250
G1 F480 X36.678 Y17.958 Z-0.250
G1 F480 X37.178 Y17.958 Z-0.250
G1 F480 X37.467 Y17.907 Z-0.250
G1 F480 X37.807 Y17.711 Z-0.250
G1 F480 X38.060 Y17.410 Z-0.250
G1 F480 X38.194 Y17.041 Z-0.250
G1 F480 X38.194 Y16.648 Z-0.250
G1 F480 X38.060 Y16.279 Z-0.250
G1 F480 X37.807 Y15.978 Z-0.250
G1 F480 X37.467 Y15.782 Z-0.250
G0 X37.467 Y15.782 Z6.000
G0 X37.467 Y13.242 Z6.000
G1 F480 X37.467 Y13.242 Z0.000
G1 F480 X37.178 Y13.191 Z-0.005
G1 F480 X36.678 Y13.191 Z-0.013
G1 F480 X36.390 Y13.242 Z-0.018
G1 F480 X36.049 Y13.438 Z-0.024
G1 F480 X35.796 Y13.739 Z-0.031
G1 F480 X35.662 Y14.108 Z-0.037
G1 F480 X35.662 Y14.501 Z-0.043
G1 F480 X35.796 Y14.870 Z-0.050
G1 F480 X36.049 Y15.171 Z-0.056
G1 F480 X36.390 Y15.367 Z-0.063
G1 F480 X36.678 Y15.418 Z-0.067
G1 F480 X37.178 Y15.418 Z-0.075
G1 F480 X37.467 Y15.367 Z-0.080
G1 F480 X37.807 Y15.171 Z-0.087
G1 F480 X38.060 Y14.870 Z-0.093
G1 F480 X38.194 Y14.501 Z-0.099
G1 F480 X38.194 Y14.108 Z-0.106
G1 F480 X38.060 Y13.739 Z-0.112
G1 F480 X37.807 Y13.438 Z-0.119
G1 F480 X37.467 Y13.242 Z-0.125
G1 F480 X37.807 Y13.438 Z-0.131
G1 F480 X38.060 Y13.739 Z-0.138
G1 F480 X38.194 Y14.108 Z-0.144
G1 F480 X38.194 Y14.501 Z-0.151
G1 F480 X38.060 Y14.870 Z-0.157
G1 F480 X37.807 Y15.171 Z-0.163
G1 F480 X37.467 Y15.367 Z-0.170
G1 F480 X37.178 Y15.418 Z-0.175
G1 F480 X36.678 Y15.418 Z-0.183
G1 F480 X36.390 Y15.367 Z-0.188
G1 F480 X36.049 Y15.171 Z-0.194
G1 F480 X35.796 Y14.870 Z-0.200
G1 F480 X35.662 Y14.501 Z-0.207
G1 F480 X35.662 Y14.108 Z-0.213
G1 F480 X35.796 Y13.739 Z-0.219
G1 F480 X36.049 Y13.438 Z-0.226
G1 F480 X36.390 Y13.242 Z-0.232
G1 F480 X36.678 Y13.191 Z-0.237
G1 F480 X37.178 Y13.191 Z-0.245
G1 F480 X37.467 Y13.242 Z-0.250
G1 F480 X37.178 Y13.191 Z-0.250
G1 F480 X36.678 Y13.191 Z-0.250
G1 F480 X36.390 Y13.242 Z-0.250
G1 F480 X36.049 Y13.438 Z-0.250
G1 F480 X35.796 Y13.739 Z-0.250
G1 F480 X35.662 Y14.108 Z-0.250
G1 F480 X35.662 Y14.501 Z-0.250
G1 F480 X35.796 Y14.870 Z-0.250
G1 F480 X36.049 Y15.171 Z-0.250
G1 F480 X36.390 Y15.367 Z-0.250
G1 F480 X36.678 Y15.418 Z-0.250
G1 F480 X37.178 Y15.418 Z-0.250
G1 F480 X37.467 Y15.367 Z-0.250
G1 F480 X37.807 Y15.171 Z-0.250
G1 F480 X38.060 Y14.870 Z-0.250
G1 F480 X38.194 Y14.501 Z-0.250
G1 F480 X38.194 Y14.108 Z-0.250
G1 F480 X38.060 Y13.739 Z-0.250
G1 F480 X37.807 Y13.438 Z-0.250
G1 F480 X37.467 Y13.242 Z-0.250
G0 X37.467 Y13.242 Z6.000
G0 X37.385 Y8.148 Z6.000
G1 F480 X37.385 Y8.148 Z0.000
G1 F480 X37.456 Y8.135 Z-0.001
G1 F480 X37.920 Y7.867 Z-0.005
G1 F480 X38.265 Y7.456 Z-0.009
G1 F480 X38.448 Y6.953 Z-0.014
G1 F480 X38.448 Y6.417 Z-0.018
G1 F480 X38.265 Y5.913 Z-0.022
G1 F480 X37.920 Y5.502 Z-0.027
G1 F480 X37.456 Y5.234 Z-0.031
G1 F480 X36.928 Y5.141 Z-0.035
G1 F480 X36.401 Y5.234 Z-0.040
G1 F480 X35.936 Y5.502 Z-0.044
G1 F480 X35.591 Y5.913 Z-0.048
G1 F480 X35.408 Y6.417 Z-0.053
G1 F480 X35.408 Y6.953 Z-0.057
G1 F480 X35.591 Y7.456 Z-0.061
G1 F480 X35.936 Y7.867 Z-0.066
G1 F480 X36.401 Y8.135 Z-0.070
G1 F480 X36.472 Y8.148 Z-0.070
G1 F480 X36.390 Y8.162 Z-0.071
G1 F480 X36.049 Y8.358 Z-0.074
G1 F480 X35.796 Y8.659 Z-0.077
G1 F480 X35.662 Y9.028 Z-0.081
G1 F480 X35.662 Y9.421 Z-0.084
G1 F480 X35.796 Y9.790 Z-0.087
G1 F480 X36.049 Y10.091 Z-0.090
G1 F480 X36.390 Y10.287 Z-0.093
